AdelaJim/TFM_AdelaJimenez/workspace/ros_ur_driver/src/trayectories/data/saved_trajectories/20241219_2016_trajectory.csv
,shoulder_pan_joint,shoulder_lift_joint,elbow_joint,wrist_1_joint,wrist_2_joint,wrist_3_joint,time_from_start
0,1.4251260052731027,-0.7559443459615862,1.24385433583779,-1.007945898289587,-4.419536175884633,-0.26758204573137717,0.0
1,1.425102691221015,-0.7577479720217337,1.2467927093180813,-1.0090119396264914,-4.421773858613365,-0.2725820457313772,1.25
2,1.4250327490647516,-0.7631588502021763,1.2556078297589552,-1.0122100636372047,-4.428486906799563,-0.2875820457313771,2.5
3,1.4249161788043132,-0.7721769805029142,1.2702996971604121,-1.017540270321727,-4.439675320443225,-0.31258204573137716,3.75
4,1.4247529668000054,-0.7848021112176958,1.290866509181777,-1.0249984887603576,-4.455339050649291,-0.3475820479840649,5.0
5,1.4245401473439019,-0.8009795973669217,1.316916605486174,-1.0336998720458497,-4.475467553400193,-0.3925827302843272,6.25
6,1.4242730852282364,-0.8206237994793804,1.3478372189072352,-1.0422606255134192,-4.50004410703441,-0.4475846310043011,7.5
7,1.423950020534451,-0.8436650567842076,1.38312666840921,-1.0495514650013535,-4.529028786429721,-0.5125876535457434,8.75
8,1.4235982196778199,-0.8700242580639754,1.4221520025142127,-1.0541918434640685,-4.561993548273638,-0.587591737519576,10.0
9,1.4232422765394692,-0.8996064049001804,1.4642085214649143,-1.0546503667073803,-4.598548609459495,-0.6725965903845419,11.25
10,1.4229549877239926,-0.9322728906388397,1.5084847125378311,-1.049346245452131,-4.637782873126806,-0.7676018518137053,12.5
11,1.422823562905341,-0.9678582611404177,1.5541339846945035,-1.0366931868839575,-4.678687869268013,-0.8726069435801482,13.75
12,1.4229861955994152,-1.0061408652704193,1.6002596473713937,-1.0152049452369776,-4.719813905897471,-0.9876111967549459,15.0
13,1.4236250888289093,-1.0465675856476657,1.645703763067766,-0.9839198909544785,-4.759141122159258,-1.1117389701417961,16.25
14,1.4249488965036348,-1.088398891613838,1.689346382402249,-0.9426443001989351,-4.794438890918775,-1.2435067766538777,17.5
15,1.427030530433181,-1.1285887854806333,1.7282363077373568,-0.8949772587824174,-4.8222305120163735,-1.3736349993534633,18.75
16,1.4297391883732224,-1.164726337958369,1.760843945044459,-0.8459294968021183,-4.841309120598125,-1.4937718989954922,20.0
17,1.4329753703965045,-1.1970878722573106,1.7883020616657404,-0.797517676456089,-4.853014617997822,-1.6039102203977995,21.25
18,1.4366249113525593,-1.2259438823409567,1.8115478105606493,-0.7512938152481577,-4.858696204174132,-1.704049486738003,22.5
19,1.4405471365278113,-1.251522856823388,1.831272440165879,-0.7082970848367403,-4.859689024836154,-1.7941893659012655,23.75
20,1.444586593715621,-1.2739920325008165,1.8479742833307842,-0.6692157002859398,-4.857211906954793,-1.8743292978252974,25.0
21,1.4485977950574838,-1.2935001574288023,1.8620620347630625,-0.6345807878194542,-4.852397055576194,-1.9444682505681778,26.25
22,1.4524146477292124,-1.3101307422848305,1.8737903607540258,-0.604654557357948,-4.846259527822861,-2.004607111544795,27.5
23,1.455741770331092,-1.3237196128346522,1.8832259928452324,-0.579991892124108,-4.840178436276457,-2.0560267406684534,28.75
24,1.4578446021210492,-1.3322866220024305,1.8891707507231736,-0.5644375213658518,-4.836317667718349,-2.1091455342283143,30.0
25,1.4585954556672749,-1.3353455952034052,1.8912931639623423,-0.5588824492520148,-4.834939051214405,-2.1644746207223244,31.25
26,1.458597396089598,-1.3353534508991052,1.891298205550602,-0.5588662651783951,-4.834935388849881,-2.224669103517273,32.5
27,1.4585972524608883,-1.3353527367465645,1.891297230877826,-0.5588653169422094,-4.834935434064985,-2.294849277272364,33.75
28,1.4585970933179684,-1.335351920236195,1.891296116566406,-0.5588642337919254,-4.834935446804148,-2.3750294505581504,35.0
29,1.4585970834344608,-1.3353518259856454,1.8912960476196639,-0.5588641957125937,-4.8349354154876325,-2.4652096126622394,36.25
30,1.4585970875718128,-1.3353517954729275,1.8912960781912735,-0.5588642630104437,-4.834935377055492,-2.5653897690067335,37.5
31,1.4585970904098353,-1.3353517626060705,1.8912961132382697,-0.5588643419056081,-4.834935339962749,-2.675569917289998,38.75
32,1.4585970714045564,-1.3353517302660538,1.8912961505545032,-0.5588644129583541,-4.834935359901568,-2.7957500557674004,40.0
33,1.4585970507728452,-1.3353516952341447,1.8912961909603907,-0.558864489831344,-4.834935381852335,-2.9259301858648668,41.25
34,1.4585970132975383,-1.3353516636187455,1.891296232498605,-0.5588645630393966,-4.834935420167528,-3.066110307940021,42.5
35,1.4585969692446803,-1.3353516313105527,1.8912962764923251,-0.5588646390092766,-4.8349354649567315,-3.216290421651081,43.75
36,1.4585969068589004,-1.3353516068553068,1.8912963182661953,-0.558864704802854,-4.834935527931812,-3.3764705335885856,45.0
37,1.4585968368513882,-1.3353515845643733,1.8912963601766,-0.5588647685205579,-4.834935598499645,-3.545224213555674,46.25
38,1.4585967581525852,-1.335351575051353,1.8912963922966348,-0.5588648096083875,-4.834935677557156,-3.707850709194827,47.5
39,1.4585966822790501,-1.3353515706276682,1.891296418683997,-0.5588648398925837,-4.8349357536932285,-3.860477204833977,48.75
40,1.4585966075942904,-1.3353515749534595,1.891296436285373,-0.5588648526473569,-4.83493582848412,-4.003103700473114,50.0
41,1.4585965382551913,-1.3353515824620736,1.8912964492582245,-0.5588648576271853,-4.8349358978604595,-4.135730196112251,51.25
42,1.4585964743751862,-1.335351596772347,1.8912964540789097,-0.5588648476894734,-4.834935961645026,-4.258356691751388,52.5
43,1.4585964157044966,-1.3353516099156344,1.8912964585064684,-0.5588648385621641,-4.83493602022806,-4.370983187390523,53.75
44,1.45859636640373,-1.3353516290175047,1.8912964544548858,-0.5588648150608453,-4.8349360693137555,-4.473609683029663,55.0
45,1.4585963223115461,-1.335351646951138,1.891296450011605,-0.5588647923726041,-4.834936113198675,-4.566236178668804,56.25
46,1.458596282979575,-1.3353516629486455,1.8912964460480193,-0.5588647721337953,-4.834936152345758,-4.648862674307947,57.5
47,1.4585962529924448,-1.3353516803728658,1.8912964379838642,-0.5588647464323764,-4.834936182100185,-4.721489169947089,58.75
48,1.4585962284086338,-1.335351696332683,1.8912964297569124,-0.5588647220705324,-4.834936206463821,-4.784115665586232,60.0
49,1.458596207750288,-1.3353517097440855,1.8912964228436122,-0.5588647015987097,-4.834936226937149,-4.8367421612253745,61.25
50,1.458596191017407,-1.3353517206070742,1.8912964172439644,-0.5588646850169087,-4.834936243520168,-4.879368656864515,62.5
51,1.4585961782099908,-1.3353517289216508,1.8912964129579708,-0.5588646723251297,-4.834936256212881,-4.911995152503657,63.75
52,1.4585961693280396,-1.3353517346878148,1.8912964099856313,-0.5588646635233728,-4.834936265015285,-4.934621648142797,65.0
53,1.4586006811183148,-1.33531627551182,1.8912501715006185,-0.5588538890241036,-4.834931689548541,-4.947291274612838,66.25
54,1.4590264761993648,-1.331973222592609,1.8868914084678823,-0.5578386356526408,-4.83449989584478,-4.952189504989879,67.5
55,1.4594547182112814,-1.3286109832941753,1.882507634295696,-0.5568175606016437,-4.8340656227673575,-4.947393911039735,68.75
56,1.459459933288736,-1.3285700679516617,1.8824542938140323,-0.5568051422160277,-4.8340603394006605,-4.93482170097349,70.0
57,1.4594599407566309,-1.3285700625652896,1.8824542975813272,-0.5568051534543709,-4.834060341107577,-4.912300118156265,71.25
58,1.4594599515404094,-1.3285700547872688,1.8824543030213714,-0.5568051696827467,-4.834060343572396,-4.879778535339041,72.5
59,1.4594599656400717,-1.3285700446175988,1.8824543101341642,-0.5568051909011551,-4.83406034679512,-4.837256952521818,73.75
60,1.4594599831396589,-1.32857003222835,1.8824543195436645,-0.5568052196876524,-4.834060350142418,-4.78473537127105,75.0
61,1.4594600040840153,-1.3285700177113386,1.8824543315828162,-0.5568052574178862,-4.83406035327635,-4.7222137919620195,76.25
62,1.459460030718545,-1.3285700015675446,1.8824543431692684,-0.5568052953839663,-4.834060348010038,-4.649692216368441,77.5
63,1.4594600697763926,-1.328569985796967,1.8824543474603566,-0.5568053169017051,-4.83406030873274,-4.567170653655699,78.75
64,1.4594601135884395,-1.3285699681076273,1.8824543522502721,-0.5568053409553801,-4.834060264527581,-4.474649097384344,80.0
65,1.459460162542902,-1.3285699491692105,1.882454356730047,-0.5568053659454226,-4.834060215046529,-4.372127548067902,81.25
66,1.4594602207420142,-1.3285699361373307,1.8824543523103556,-0.5568053749414972,-4.834060156879417,-4.259606009466691,82.5
67,1.4594602841125632,-1.3285699219464828,1.8824543474948685,-0.5568053847243849,-4.834060093549249,-4.137084478797602,83.75
68,1.4594603528939176,-1.328569914398659,1.8824543346773055,-0.5568053799224857,-4.834060024715376,-4.004562954083236,85.0
69,1.45946042698323,-1.3285699101298099,1.8824543171393446,-0.5568053671712642,-4.83405995052182,-3.862041431397463,86.25
70,1.4594605023173761,-1.3285699144136185,1.882454290960952,-0.5568053372350411,-4.834059874928583,-3.7095199131082524,87.5
71,1.4594605803968679,-1.3285699238904607,1.882454258954326,-0.556805296296299,-4.834059796491027,-3.5469984012301246,88.75
72,1.4594606485443276,-1.3285699453988085,1.8824542182088058,-0.5568052345145533,-4.834059727797646,-3.381951503946171,90.0
73,1.4594607096406267,-1.3285699682749006,1.882454178201812,-0.5568051720538448,-4.834059666148561,-3.2267211624997563,91.25
74,1.459460751926324,-1.3285699993391307,1.8824541357720659,-0.5568050988484576,-4.83405962321178,-3.0814908210533383,92.5
75,1.45946079039222,-1.3285700286338384,1.8824540961719298,-0.5568050302158807,-4.834059584135341,-2.9462604796069196,93.75
76,1.4594608100103088,-1.3285700622724816,1.8824540578801947,-0.5568049584146674,-4.8340595638762585,-2.8210301381604994,95.0
77,1.4594608280618373,-1.328570093224976,1.8824540226461566,-0.5568048923469858,-4.834059545234921,-2.7057997967140768,96.25
78,1.4594608347076437,-1.3285701236942238,1.8824539912155407,-0.5568048304861916,-4.8340595380357385,-2.6005694552676526,97.5
79,1.459460835608303,-1.3285701524128752,1.882453963159327,-0.5568047737105796,-4.834059536626622,-2.5053391138212286,98.75
80,1.4594608364143855,-1.3285701781158183,1.8824539380492509,-0.5568047228968926,-4.834059535365475,-2.4201087723748023,100.0
81,1.4594608316609818,-1.3285702011179108,1.882453917178902,-0.5568046789855012,-4.834059539725031,-2.3448784309283663,101.25
82,1.4594608226261325,-1.3285702213455202,1.8824539002457583,-0.5568046417564874,-4.83405954842542,-2.279648089481936,102.5
83,1.4594608149763517,-1.3285702384721776,1.8824538859085136,-0.5568046102347889,-4.834059555792013,-2.2244177480355103,103.75
84,1.4594608087116394,-1.328570252497882,1.8824538741671666,-0.5568045844204057,-4.834059561824812,-2.1791874065890893,105.0
85,1.4594608038319956,-1.328570263422636,1.8824538650217202,-0.5568045643133381,-4.834059566523816,-2.143957065142669,106.25
86,1.4594608003374203,-1.3285702712464396,1.8824538584721742,-0.5568045499135862,-4.834059569889025,-2.118726723696245,107.5
87,1.4594607982279137,-1.328570275969293,1.882453854518529,-0.5568045412211496,-4.834059571920441,-2.1034963822498205,108.75
88,1.4597374635111229,-1.326371191961428,1.8795692462375595,-0.5561193123194434,-4.833778883241964,-2.096589992013453,110.0
89,1.4602470402245062,-1.3223208138938949,1.8742562469130322,-0.5548572356378875,-4.83326189709207,-2.098923419649144,111.25
90,1.460312378068433,-1.3218014791606099,1.87357502747709,-0.5546954227800249,-4.833195612907342,-2.109368406295909,112.5
91,1.4603123797872497,-1.3218014734792483,1.8735750339805315,-0.5546954389440886,-4.833195618442528,-2.1292602172357067,113.75
92,1.4603123823701492,-1.321801464941756,1.8735750437533798,-0.5546954632341411,-4.833195626760361,-2.159152028175501,115.0
93,1.4603123858171312,-1.3218014535481326,1.8735750567956344,-0.5546954956501826,-4.833195637860839,-2.1990438391152987,116.25
94,1.4603123900712236,-1.321801439238325,1.8735750728823022,-0.554695535246912,-4.833195652185986,-2.2489356463439245,117.5
95,1.4603123949009347,-1.32180142176832,1.873575091099176,-0.5546955781833227,-4.8331956715318585,-2.3088274373835094,118.75
96,1.4603124005370522,-1.3218014013813866,1.8735751123576811,-0.5546956282887311,-4.833195694107869,-2.378719228423094,120.0
97,1.460312400004515,-1.32180137737875,1.8735751355519783,-0.5546956747998514,-4.833195696743704,-2.4586110035412014,121.25
98,1.460312399094605,-1.3218013503360402,1.8735751615889948,-0.5546957266054839,-4.833195698561725,-2.548502774845534,122.5
99,1.4603123981148975,-1.3218013202741061,1.8735751904928994,-0.5546957840756369,-4.833195700330623,-2.648394536985696,123.75
100,1.4603123838066974,-1.3218012902836498,1.873575223698872,-0.5546958468797223,-4.833195715206213,-2.75828628949433,125.0
101,1.4603123651672258,-1.3218012582702041,1.8735752602513394,-0.554695915312222,-4.833195734394064,-2.878178034542465,126.25
102,1.460312337622806,-1.321801226576826,1.8735752991090693,-0.5546959856754397,-4.8331957625262145,-3.0080697727554293,127.5
103,1.460312297182381,-1.3218011968262702,1.8735753398656314,-0.5546960559073202,-4.833195803592617,-3.147961507340771,128.75
104,1.4603122473325838,-1.321801169185091,1.873575381334316,-0.5546961246741466,-4.833195854054511,-3.297853239301629,130.0
105,1.460312183503477,-1.321801146623104,1.873575421971783,-0.5546961874289389,-4.833195918440088,-3.45774496453637,131.25
106,1.4603121093674432,-1.3218011314401017,1.8735754584679611,-0.5546962385889964,-4.8331959930271955,-3.624018987290712,132.5
107,1.4603120340704883,-1.3218011222661032,1.8735754894696282,-0.5546962782359118,-4.8331960686716275,-3.7818812465798346,133.75
108,1.4603119588516311,-1.3218011241874712,1.873575509674062,-0.5546962959881069,-4.833196144041306,-3.929743505868945,135.0
109,1.4603118876990546,-1.3218011282665554,1.8735755265901002,-0.5546963083223448,-4.833196215296505,-4.067605765158052,136.25
110,1.460311821975435,-1.321801140581134,1.873575533916017,-0.5546963028672632,-4.833196280963584,-4.195468024447151,137.5
111,1.4603117614607573,-1.3218011541226975,1.873575538522072,-0.5546962935017705,-4.833196341387192,-4.313330283736244,138.75
112,1.460311707857346,-1.3218011695654488,1.8735755392540927,-0.5546962784093321,-4.833196394848887,-4.421192543025333,140.0
113,1.460311661944098,-1.321801188246391,1.87357553458523,-0.5546962547312669,-4.8331964405441825,-4.519054802314415,141.25
114,1.4603116207224691,-1.321801205018427,1.8735755303934467,-0.5546962334727303,-4.83319648157013,-4.606917061603495,142.5
115,1.4603115856835434,-1.321801220978497,1.8735755251760515,-0.5546962120443413,-4.833196516412558,-4.684779320892575,143.75
116,1.4603115594290315,-1.3218012380405835,1.8735755163110714,-0.5546961859280275,-4.833196542429473,-4.752641580181656,145.0
117,1.4603115370433133,-1.3218012525884464,1.8735755087524109,-0.5546961636601434,-4.833196564612606,-4.810503839470739,146.25
118,1.46031151852639,-1.3218012646220831,1.8735755025000662,-0.5546961452406882,-4.833196582961956,-4.858366098759829,147.5
119,1.4603115038782608,-1.3218012741414975,1.8735754975540417,-0.5546961306696628,-4.8331965974775235,-4.896228358048921,148.75
120,1.4603114930989258,-1.3218012811466895,1.8735754939143376,-0.5546961199470675,-4.833196608159309,-4.92409061733801,150.0
121,1.460311486188385,-1.3218012856376589,1.8735754915809544,-0.5546961130729021,-4.833196615007311,-4.941952876627099,151.25
122,1.4604561885730434,-1.3206368750448736,1.8720389599634915,-0.5543241458116576,-4.833049741479662,-4.950866668414491,152.5
123,1.4609793686521027,-1.3164269700899085,1.8664836731001606,-0.5529793200179535,-4.832518712240087,-4.951185410618337,153.75
124,1.4611511980424,-1.31504432079387,1.8646591672207,-0.5525376468144532,-4.832344308207669,-4.942756220932558,155.0
125,1.4611512036920393,-1.3150443167251702,1.864659170082671,-0.5525376553149514,-4.832344309461019,-4.925521576345253,156.25
126,1.46115121261975,-1.3150443102957023,1.864659174605234,-0.5525376687476653,-4.832344311441593,-4.89828693175795,157.5
127,1.4611512248255316,-1.3150443015054663,1.8646591807883883,-0.5525376871125949,-4.8323443141493945,-4.861052287170643,158.75
128,1.4611512403093845,-1.3150442903544624,1.8646591886321349,-0.55253771040974,-4.832344317584423,-4.813817642583335,160.0
129,1.4611512592460008,-1.3150442772080932,1.8646591994588513,-0.5525377440775349,-4.8323443204132595,-4.756583004317349,161.25
130,1.4611512815079413,-1.315044261799793,1.8646592123038477,-0.5525377841485789,-4.832344323608649,-4.689348366581283,162.5
131,1.461151314473177,-1.3150442463238607,1.864659219452271,-0.5525378117027068,-4.832344299076273,-4.612113740394394,163.75
132,1.461151355170108,-1.3150442298862335,1.8646592239620834,-0.5525378341674192,-4.8323442581534835,-4.52487911926298,165.0
133,1.4611514005723978,-1.3150442115495622,1.864659228947977,-0.5525378590693295,-4.832344212216373,-4.427644510502843,166.25
134,1.4611514532481067,-1.3150441958509385,1.8646592289640642,-0.5525378757463901,-4.832344159300732,-4.320409908378515,167.5
135,1.46115151301843,-1.3150441824807362,1.8646592243847702,-0.5525378849334467,-4.832344099565971,-4.203175314280472,168.75
136,1.4611515779372926,-1.3150441696284916,1.8646592177829238,-0.5525378916109671,-4.832344034669469,-4.0759407279727045,170.0
137,1.4611516482605784,-1.3150441656156182,1.8646592009896394,-0.5525378793284119,-4.8323439642454895,-3.9387061470027236,171.25
138,1.4611517229920592,-1.3150441629166034,1.8646591816184297,-0.5525378631854742,-4.832343889379385,-3.7914715669449275,172.5
139,1.4611517974555035,-1.315044172021202,1.8646591508245465,-0.5525378238134401,-4.832343814570319,-3.634236993889777,173.75
140,1.4611518717826493,-1.315044186271023,1.8646591150568868,-0.5525377743202122,-4.832343739806334,-3.4681313651556542,175.0
141,1.4611519354048892,-1.3150442088004821,1.8646590743723905,-0.5525377115525114,-4.832343675626353,-3.3076167367019433,176.25
142,1.4611519861421072,-1.3150442357267542,1.8646590331966046,-0.5525376438042116,-4.83234362428499,-3.157102108248241,177.5
143,1.461152026474734,-1.3150442654371433,1.8646589923708308,-0.5525375735472976,-4.832343583324379,-3.01658747979455,178.75
144,1.4611520550499106,-1.3150442966495937,1.8646589535426794,-0.552537503702138,-4.832343554123514,-2.886072851340865,180.0
145,1.461152073663642,-1.3150443286332518,1.8646589168956154,-0.5525374351959716,-4.83234353489496,-2.7655582228871847,181.25
146,1.4611520889250011,-1.3150443583673237,1.864658883427632,-0.5525373720952101,-4.832343519067063,-2.6550435944335096,182.5
147,1.4611520898654342,-1.3150443883050267,1.864658853977247,-0.5525373127067202,-4.832343517591814,-2.5545289659798396,183.75
148,1.4611520907123055,-1.3150444152642826,1.8646588274568172,-0.5525372592266725,-4.832343516263332,-2.4640143375261703,185.0
149,1.4611520914656149,-1.3150444392450948,1.864658803866346,-0.5525372116550675,-4.8323435150816225,-2.383499709072505,186.25
150,1.4611520820733745,-1.3150444608210214,1.8646587856061918,-0.5525371717472223,-4.8323435241132735,-2.312985080618839,187.5
151,1.4611520738132684,-1.3150444793485694,1.8646587699833093,-0.5525371375337838,-4.832343532064218,-2.2524704521651677,188.75
152,1.4611520669181393,-1.3150444948144506,1.8646587569420943,-0.5525371089740919,-4.832343538701275,-2.2019558237114913,190.0
153,1.4611520613879865,-1.3150445072186674,1.8646587464825497,-0.5525370860681468,-4.832343544024444,-2.1614411952578143,191.25
154,1.4611520572228107,-1.3150445165612203,1.8646587386046762,-0.5525370688159484,-4.832343548033724,-2.13092656680414,192.5
155,1.4611520544226115,-1.3150445228421097,1.864658733308474,-0.552537057217497,-4.832343550729116,-2.1104119383504667,193.75
156,1.4611950952379755,-1.3146938916688595,1.8641933114057854,-0.5524223120208991,-4.832299843887565,-2.0995020559662767,195.0
157,1.461674327107239,-1.3107899338884768,1.859011342482778,-0.5511448080025035,-4.831813197169894,-2.0965311805605924,196.25
158,1.4619801097946523,-1.308298946268423,1.8557049035521722,-0.5503296815097839,-4.831502685579664,-2.1029604913198616,197.5
159,1.461980111046538,-1.308298942162361,1.8557049082790227,-0.5503296932068097,-4.831502689548468,-2.1175176013213313,198.75
160,1.4619801131584056,-1.3082989352356418,1.8557049162529808,-0.5503297129391016,-4.83150269624364,-2.1420747113228016,200.0
161,1.4619801161302557,-1.3082989254882655,1.8557049274740471,-0.5503297407066601,-4.831502705665182,-2.1766318213242757,201.25
162,1.4619801199620879,-1.3082989129202318,1.855704941942221,-0.550329776509485,-4.83150271781309,-2.221188931325751,202.5
163,1.461980124449246,-1.3082988973107987,1.855704958833286,-0.5503298169018556,-4.831502734295363,-2.2757460262326457,203.75
164,1.4619801296400312,-1.3082988787120622,1.8557049783417667,-0.5503298626970017,-4.831502754732495,-2.3403031131113226,205.0
165,1.4619801326558484,-1.3082988569369887,1.855705000412763,-0.5503299110531809,-4.831502768604279,-2.4148601928937543,206.25
166,1.461980131800933,-1.3082988318174473,1.8557050247847804,-0.5503299593902228,-4.831502770371452,-2.4994172631728526,207.5
167,1.4619801308736453,-1.3082988037171344,1.8557050520115617,-0.550330013352176,-4.831502772114899,-2.5939743244740607,208.75
168,1.4619801254106302,-1.3082987736762077,1.8557050825835817,-0.550330072845357,-4.831502778296808,-2.698531378953844,210.0
169,1.4619801078488708,-1.3082987434556506,1.8557051173206784,-0.5503301376685067,-4.831502796383256,-2.8130884248642127,211.25
170,1.4619800887545669,-1.3082987105981683,1.8557051550940817,-0.5503302081667012,-4.8315028160449405,-2.9376454613486014,212.5
171,1.461980052445822,-1.3082986814829056,1.8557051942952092,-0.5503302762322486,-4.831502852955224,-3.07220249233057,213.75
172,1.4619800112447932,-1.3082986510964423,1.855705236185181,-0.5503303482242172,-4.8315028948014,-3.216759522536356,215.0
173,1.4619799528031696,-1.308298627967855,1.855705276069161,-0.5503304108250697,-4.831502953801259,-3.3713165469895836,216.25
174,1.4619798871771719,-1.3082986059425532,1.855705316996288,-0.5503304733137482,-4.831503019983572,-3.5358271401400794,217.5
175,1.4619798104376525,-1.308298596528969,1.8557053488723552,-0.5503305140573451,-4.831503097081498,-3.6990214389308247,218.75
176,1.46197973677019,-1.308298591352072,1.8557053756974566,-0.5503305455342566,-4.8315031710240515,-3.852215737721605,220.0
177,1.461979663912186,-1.3082985954912258,1.8557053931724403,-0.5503305583486254,-4.831503243988681,-3.995410036512424,221.25
178,1.4619795962298126,-1.30829860212616,1.8557054066776317,-0.550330564733818,-4.83150331172026,-4.128604335303288,222.5
179,1.461979533874308,-1.3082986160659937,1.8557054114651037,-0.550330555132754,-4.831503373981242,-4.25179863409418,223.75
180,1.4619794765803606,-1.3082986288742888,1.8557054158639559,-0.5503305463110306,-4.83150343118834,-4.3649929328850865,225.0
181,1.4619794281476652,-1.3082986470859312,1.855705412360693,-0.5503305242458992,-4.831503479415676,-4.4681872316760405,226.25
182,1.4619793850452638,-1.3082986646282238,1.8557054079374184,-0.550330501968341,-4.831503522311465,-4.561381530467046,227.5
183,1.4619793465678663,-1.3082986802881782,1.8557054039887697,-0.5503304820812239,-4.83150356060442,-4.644575829258064,228.75
184,1.4619793168545567,-1.3082986971184423,1.8557053963065724,-0.5503304573525878,-4.831503590090656,-4.717770128049077,230.0
185,1.4619792927537771,-1.3082987127946888,1.8557053880949936,-0.5503304332889513,-4.83150361397107,-4.7809644268400895,231.25
186,1.461979272466756,-1.3082987259902916,1.8557053811828306,-0.5503304130331952,-4.831503634072597,-4.834158725631091,232.5
187,1.4619792559934934,-1.3082987367052508,1.8557053755700843,-0.5503303965853198,-4.831503650395236,-4.877353024422083,233.75
188,1.461979243333989,-1.308298744939568,1.8557053712567564,-0.5503303839453254,-4.831503662938987,-4.910547323213085,235.0
189,1.4619792344882436,-1.3082987506932433,1.8557053682428466,-0.5503303751132123,-4.831503671703851,-4.933741622004087,236.25
190,1.4619799966604388,-1.3082924269295966,1.8556969193435717,-0.550328250749262,-4.831502897249815,-4.946943244396554,237.5
191,1.4623527958089284,-1.3052179937512707,1.8515922631096948,-0.5492984204992001,-4.831124152459597,-4.952348772369679,238.75
192,1.4627825141123851,-1.3016741830280067,1.8468609487911583,-0.5481113700818218,-4.83068758250537,-4.948096448174527,240.0
193,1.4627959352574678,-1.3015635301464397,1.846713222627442,-0.5480743120127486,-4.830673952098556,-4.9361081045631465,241.25
194,1.4627959423398107,-1.3015635250541804,1.8467132262314574,-0.5480743226690343,-4.830673953625961,-4.914255195869076,242.5
195,1.4627959526630692,-1.301563517631678,1.8467132314846877,-0.5480743382016893,-4.8306739558523155,-4.882402287175003,243.75
196,1.4627959662272432,-1.3015635078789325,1.8467132383871332,-0.5480743586107139,-4.830673958777618,-4.840549378480933,245.0
197,1.462795983099253,-1.301563495938993,1.8467132474552006,-0.5480743860096838,-4.830673961884553,-4.788696476005349,246.25
198,1.4627960033433283,-1.3015634819491542,1.8467132591845243,-0.5480744224271547,-4.830673964676617,-4.7268435834969225,247.5
199,1.4627960284259893,-1.301563466173974,1.8467132711787,-0.5480744607853208,-4.830673961928592,-4.6549906936055185,248.75
200,1.4627960660730217,-1.3015634509645273,1.8467132753871125,-0.5480744816071561,-4.830673924075066,-4.5731378176893465,250.0
201,1.4627961083366743,-1.3015634338905109,1.8467132800917527,-0.5480745049124824,-4.830673881456167,-4.481284947468213,251.25
202,1.4627961552981696,-1.3015634150792035,1.846713285127421,-0.5480745303678248,-4.83067383395319,-4.379432084337559,252.5
203,1.462796211522146,-1.3015634025141958,1.8467132807831992,-0.5480745389697576,-4.830673777761637,-4.2675792327033655,253.75
204,1.4627962727720116,-1.3015633888251141,1.8467132760478928,-0.5480745483294794,-4.830673716552,-4.1457263883981845,255.0
205,1.4627963392586367,-1.301563380856965,1.846713264151999,-0.5480745448636212,-4.83067365002254,-4.013873550333248,256.25
206,1.4627964109266098,-1.3015633768018169,1.8467132468851775,-0.5480745321660742,-4.830673578250653,-3.872020714787924,257.5
207,1.4627964842070562,-1.3015633801892685,1.8467132218350715,-0.5480745042538382,-4.830673504727848,-3.720167883217546,258.75
208,1.4627965597816297,-1.30156338948783,1.8467131903027714,-0.5480744639643556,-4.830673428798282,-3.5583150581032905,260.0
209,1.4627966270372224,-1.301563409702125,1.8467131505216585,-0.5480744044479695,-4.830673361012403,-3.3928295642825526,261.25
210,1.462796687761762,-1.3015634314756457,1.8467131111461523,-0.5480743437306304,-4.830673299745833,-3.236935850545322,262.5
211,1.4627967290533497,-1.3015634619627279,1.8467130689783768,-0.548074271365749,-4.830673257804193,-3.0910421368080576,263.75
212,1.4627967675146862,-1.3015634903601239,1.8467130297009002,-0.5480742039609768,-4.830673218737363,-2.955148423070784,265.0
213,1.4627967869451102,-1.301563523262104,1.8467129916435567,-0.5480741331338922,-4.830673198667963,-2.8292547093335134,266.25
214,1.4627968045969932,-1.3015635536463162,1.8467129565849394,-0.5480740678110853,-4.830673180426727,-2.7133609955962292,267.5
215,1.4627968121243824,-1.3015635833307952,1.8467129252146894,-0.5480740068037393,-4.830673172347753,-2.6074672818589364,268.75
216,1.462796813012109,-1.301563611536848,1.8467128972640716,-0.5480739506470461,-4.830673170951509,-2.511573568121632,270.0
217,1.4627968138072616,-1.3015636368015082,1.8467128722281982,-0.5480739003464921,-4.830673169700869,-2.4256798543843265,271.25
218,1.4627968098781927,-1.3015636593868334,1.846712851222939,-0.548073856722527,-4.830673173234309,-2.3497861406470193,272.5
219,1.4627968010124477,-1.301563679304843,1.846712834299478,-0.5480738198127848,-4.830673181764593,-2.2838924269097114,273.75
220,1.4627967934921642,-1.301563696200104,1.8467128199443135,-0.5480737885044483,-4.830673189000325,-2.2279987131724144,275.0
221,1.462796787317342,-1.3015637100726145,1.8467128081574427,-0.5480737627975171,-4.830673194941506,-2.1821049994351265,276.25
222,1.4627967824879815,-1.3015637209223776,1.8467127989388694,-0.5480737426919915,-4.8306731995881345,-2.14621128569783,277.5
223,1.4627967790040821,-1.3015637287493933,1.8467127922885935,-0.5480737281878718,-4.83067320294021,-2.1203175719605363,278.75
224,1.4627967768656442,-1.3015637335536616,1.8467127882066152,-0.5480737192851578,-4.830673204997734,-2.1044238582232415,280.0
225,1.4630238077715134,-1.2996683050359956,1.8441676672721508,-0.5474242651339027,-4.830442443397878,-2.096987321677885,281.25
226,1.4635145655932864,-1.2955710951927917,1.8386660764290061,-0.546020399611493,-4.829943622062908,-2.098608402024802,282.5
227,1.4636023230840645,-1.294838434869769,1.837682292312354,-0.5457693698317695,-4.829854426013368,-2.1084885657929475,283.75
228,1.4636023247207963,-1.2948384295419348,1.8376822984838643,-0.5457693850348809,-4.8298544311266225,-2.127617572421265,285.0
229,1.463602327213156,-1.2948384214288886,1.8376823078816322,-0.5457694081856668,-4.829854438912915,-2.1567465790495897,286.25
230,1.463602330561144,-1.2948384105306303,1.8376823205056585,-0.5457694392841269,-4.829854449372246,-2.1958755856779084,287.5
231,1.4636023347334801,-1.2948383968126254,1.8376823362274883,-0.5457694777960034,-4.829854462753466,-2.24500458979168,288.75
232,1.4636023394718847,-1.2948383799897192,1.8376823539864824,-0.5457695193099356,-4.82985448111134,-2.3041335734892874,290.0
233,1.4636023450116564,-1.294838360321693,1.8376823747489095,-0.5457695678447786,-4.829854502573931,-2.3732625571868953,291.25
234,1.4636023450122781,-1.29483833718546,1.8376823975620815,-0.5457696138781623,-4.829854506753513,-2.4523915261893263,292.5
235,1.463602344128664,-1.294838311035421,1.837682423117852,-0.5457696643691363,-4.829854508541145,-2.541520491024475,293.75
236,1.4636023431783545,-1.2948382819399313,1.837682451509226,-0.5457697204199882,-4.829854510263321,-2.640649445620249,295.0
237,1.4636023305008286,-1.2948382526138116,1.8376824840205779,-0.5457697817698204,-4.829854523526623,-2.749778391469115,296.25
238,1.4636023124895816,-1.2948382215710463,1.837682519963502,-0.5457698486217477,-4.82985454208117,-2.868907329674149,297.5
239,1.4636022871488166,-1.2948381902906478,1.8376825583247531,-0.5457699180852182,-4.829854568004635,-2.998036260731027,298.75
240,1.4636022480448834,-1.29483816139015,1.8376825984378151,-0.545769986824875,-4.829854607727331,-3.137165187614336,300.0
241,1.4636022010512573,-1.2948381337183452,1.837682639687415,-0.5457700554143311,-4.8298546553376775,-3.286294112328221,301.25
242,1.4636021392945255,-1.2948381117491747,1.8376826797097883,-0.5457701169638463,-4.829854717645169,-3.4454230302603936,302.5
243,1.463602068125701,-1.2948380958431145,1.8376827165583611,-0.5457701692069836,-4.829854789278897,-3.6117908716942724,303.75
244,1.4636019945767784,-1.2948380867689666,1.837682747383301,-0.5457702085758402,-4.829854863175417,-3.770410603408007,305.0
245,1.4636019215204512,-1.2948380875841234,1.8376827683172807,-0.5457702281657988,-4.829854936399767,-3.9190303351217537,306.25
246,1.4636018519743226,-1.294838091504248,1.8376827851473563,-0.5457702405715983,-4.8298550060491445,-4.057650066835517,307.5
247,1.4636017876828413,-1.2948381026815912,1.8376827932630868,-0.5457702370422446,-4.829855070299858,-4.186269798549286,308.75
248,1.4636017284817848,-1.2948381159047584,1.837682797848359,-0.5457702279729908,-4.829855129410521,-4.304889530263058,310.0
249,1.463601675660903,-1.2948381304064187,1.8376827992755116,-0.5457702145130116,-4.829855182101996,-4.413509261976845,311.25
250,1.4636016306875326,-1.294838148714164,1.8376827946174092,-0.5457701912176349,-4.829855226857693,-4.512128993690634,312.5
251,1.4636015902744435,-1.2948381651655079,1.8376827904316313,-0.5457701702843983,-4.82985526707518,-4.600748725404425,313.75
252,1.46360155542392,-1.29483818050121,1.8376827856900622,-0.5457701499515145,-4.829855301736309,-4.6793684571182235,315.0
253,1.4636015296209335,-1.2948381972969012,1.837682776817898,-0.5457701240931945,-4.829855327300944,-4.747988188832023,316.25
254,1.4636015075782338,-1.2948382116449448,1.8376827692386801,-0.5457701020032248,-4.829855349140027,-4.806607920545819,317.5
255,1.463601489295821,-1.2948382235453382,1.837682762952405,-0.5457700836816048,-4.829855367253558,-4.855227652259603,318.75
256,1.4636014747736947,-1.2948382329980848,1.8376827579590773,-0.5457700691283356,-4.829855381641538,-4.893847383973387,320.0
257,1.4636014640118549,-1.2948382400031841,1.8376827542586969,-0.5457700583434169,-4.8298553923039655,-4.922467115687176,321.25
258,1.463601457010302,-1.2948382445606368,1.8376827518512635,-0.545770051326849,-4.829855399240843,-4.941086847400963,322.5
259,1.4637069665257836,-1.2939464786019947,1.8364785225448166,-0.5454576982719466,-4.829748104039816,-4.950587530854258,323.75
260,1.4641955327692036,-1.289817244272424,1.8309024772193414,-0.5440113981593324,-4.829251269818127,-4.951712275263091,325.0
261,1.4643961318975531,-1.2881218536579673,1.8286130555011961,-0.5434175774806582,-4.829047278921583,-4.943903486982261,326.25
262,1.4643961371460583,-1.2881218498906697,1.8286130581850832,-0.5434175853793518,-4.829047280023987,-4.927524391988346,327.5
263,1.4643961455989563,-1.2881218438233075,1.8286130625075758,-0.5434175981004692,-4.829047281799448,-4.901145296994431,328.75
264,1.4643961572562467,-1.2881218354558808,1.8286130684686737,-0.5434176156440103,-4.829047284247964,-4.864766202000514,330.0
265,1.46439617211793,-1.2881218247883892,1.828613076068377,-0.543417638009975,-4.829047287369536,-4.818387107006602,331.25
266,1.4643961903322356,-1.2881218121447442,1.8286130864725814,-0.5434176699464324,-4.829047290003862,-4.76200803067117,332.5
267,1.4643962118090785,-1.2881217973280896,1.8286130989727214,-0.5434177085677756,-4.829047292856108,-4.695628957984775,333.75
268,1.4643962427133408,-1.288121782182527,1.82861310682212,-0.5434177372639881,-4.8290472723696976,-4.619249895410986,335.0
269,1.4643962818892098,-1.2881217663527926,1.82861311124042,-0.5434177589738061,-4.829047232981331,-4.532870839283504,336.25
270,1.4643963256347867,-1.288121748677506,1.8286131161339096,-0.543417783075,-4.82904718874936,-4.43649179461226,337.5
271,1.464396376059965,-1.288121732888132,1.828613116957616,-0.543417800734464,-4.829047138046211,-4.330112756656292,338.75
272,1.4643964337471456,-1.288121720006325,1.8286131124602059,-0.5434178095127573,-4.829047080394343,-4.213733726910229,340.0
273,1.4643964964116605,-1.2881217067058601,1.8286131068866067,-0.5434178176601631,-4.829047017764372,-4.087354705290313,341.25
274,1.4643965643594439,-1.288121702888879,1.8286130903685007,-0.543417805452555,-4.82904694971638,-3.9509756896053054,342.5
275,1.4643966370822186,-1.2881216992582551,1.8286130722400544,-0.5434177914832383,-4.829046876878532,-3.8045966743568425,343.75
276,1.4643967090905736,-1.2881217081644114,1.8286130419244637,-0.5434177527840525,-4.82904680452794,-3.6482176661766252,345.0
277,1.4643967822603303,-1.288121720979402,1.828613007395404,-0.543417705970168,-4.829046730942177,-3.482467202725204,346.25
278,1.4643968444524034,-1.2881217431311693,1.8286129669089934,-0.5434176437801068,-4.829046668192458,-3.3211023388051535,347.5
279,1.464396895440994,-1.2881217686954496,1.8286129263929247,-0.5434175780655353,-4.82904661661255,-3.169737474885098,348.75
280,1.4643969348999009,-1.2881217978846413,1.828612885734524,-0.5434175084989591,-4.829046576525625,-3.0283726109650373,350.0
281,1.4643969643134562,-1.2881218279622293,1.8286128471974272,-0.5434174400919372,-4.829046546493197,-2.8970077470449533,351.25
282,1.4643969825461105,-1.288121859390511,1.828612810663476,-0.5434173722556436,-4.829046527645293,-2.775642883124862,352.5
283,1.464396998795797,-1.2881218883365366,1.8286127771771719,-0.5434173099353528,-4.829046510830313,-2.6642780192047693,353.75
284,1.4643969997244275,-1.2881219177783196,1.8286127477762033,-0.5434172510929489,-4.829046509365909,-2.562913155284666,355.0
285,1.464397000561445,-1.2881219443155638,1.8286127212757401,-0.5434171980555551,-4.829046508045974,-2.471548291364564,356.25
286,1.4643970013068497,-1.288121967948271,1.8286126976757835,-0.5434171508231712,-4.829046506870507,-2.3901834274444482,357.5
287,1.4643969929887155,-1.288121989180404,1.8286126791573463,-0.5434171110073944,-4.82904651482485,-2.3188185635243324,358.75
288,1.4643969848486813,-1.288122007492853,1.8286126634738538,-0.5434170769481799,-4.829046522653546,-2.257453699604215,360.0
289,1.4643969780351445,-1.2881220228211085,1.8286126503461362,-0.5434170484392447,-4.82904652920648,-2.206088835684116,361.25
290,1.4643969725481054,-1.288122035165172,1.828612639774195,-0.5434170254805888,-4.829046534483652,-2.1647239717640208,362.5
291,1.464396968387564,-1.2881220445250452,1.8286126317580322,-0.5434170080722125,-4.829046538485063,-2.1333591078439182,363.75
292,1.46439696555352,-1.2881220509007276,1.8286126262976472,-0.5434169962141158,-4.829046541210711,-2.111994243923818,365.0
293,1.4644182729340953,-1.2879397332239144,1.8283650417818667,-0.5433517515636448,-4.829024862511661,-2.100409056084328,366.25
294,1.4648453420934746,-1.2842856854332765,1.823403053693003,-0.5420442562103324,-4.8285903526301786,-2.096571611365517,367.5
295,1.4651809552163364,-1.281414150083837,1.819503678768213,-0.5410167673826674,-4.82824889420887,-2.1023274698868595,368.75
296,1.4651809572884,-1.2814141385227797,1.8195036725156082,-0.5410167752868451,-4.828248896848559,-2.1159375563564673,370.0
297,1.4651809592976965,-1.2814141320304833,1.8195036800869924,-0.5410167938518048,-4.828248903040588,-2.139547632218676,371.25
298,1.4651809621580267,-1.2814141227883877,1.8195036908652213,-0.5410168202799159,-4.828248911855239,-2.1731577080808897,372.5
299,1.4651809658693902,-1.281414110796493,1.8195037048502951,-0.5410168545711783,-4.828248923292509,-2.2167677839430926,373.75
300,1.465180970268199,-1.2814140958698665,1.8195037213572647,-0.5410168938918901,-4.8282489386699705,-2.270377850117334,375.0
301,1.4651809753464646,-1.2814140779994758,1.8195037403526824,-0.5410169381036716,-4.828248958051964,-2.333987908596509,376.25
302,1.4651809789385184,-1.2814140570968737,1.8195037619992431,-0.5410169858758567,-4.828248973242161,-2.4075979615435865,377.5
303,1.4651809781131333,-1.2814140328761336,1.8195037858670111,-0.54101703285882,-4.828248974952729,-2.4912080034356383,378.75
304,1.4651809772124373,-1.281414005750118,1.8195038125661596,-0.5410170853840859,-4.8282489766736045,-2.5848180374137133,380.0
305,1.4651809733394934,-1.281413976392854,1.819503842417397,-0.5410171433858949,-4.828248981282265,-2.688428064443391,381.25
306,1.4651809563953133,-1.2814139471529469,1.819503876530916,-0.5410172066056457,-4.828248998745105,-2.802038082036334,382.5
307,1.465180937960119,-1.2814139153403667,1.8195039136508382,-0.5410172754051302,-4.828249017741755,-2.9256480905883793,383.75
308,1.4651809044663682,-1.281413886476292,1.8195039523594083,-0.5410173427395731,-4.82824905183081,-3.0592580934922853,385.0
309,1.4651808646547395,-1.2814138570030285,1.8195039935677602,-0.5410174131384055,-4.828249092279535,-3.2028680949535944,386.25
310,1.4651808096637624,-1.2814138335579448,1.819504033339269,-0.5410174759576477,-4.8282491478362966,-3.3564780912894046,387.5
311,1.465180747038649,-1.2814138112270095,1.8195040742927264,-0.5410175387877926,-4.828249211026177,-3.5200880813742605,388.75
312,1.4651806723118193,-1.281413801568468,1.8195041062887254,-0.5410175798966993,-4.828249286117528,-3.6842171393853174,390.0
313,1.4651806007656756,-1.2814137952127345,1.8195041340509222,-0.5410176134916049,-4.828249357960033,-3.8383531139443763,391.25
314,1.465180529446868,-1.2814137992063204,1.8195041514664998,-0.5410176263900336,-4.828249429386226,-3.9824890885034576,392.5
315,1.4651804631302967,-1.2814138046392787,1.8195041659528457,-0.5410176349562134,-4.828249495771347,-4.116625063062542,393.75
316,1.4651804020296282,-1.2814138182764343,1.819504170727409,-0.5410176256428919,-4.828249556778045,-4.2407610376216365,395.0
317,1.4651803458510355,-1.281413830815018,1.8195041751173406,-0.5410176170798197,-4.828249612870234,-4.35489701218074,396.25
318,1.4651802978945745,-1.2814138479466846,1.819504172480594,-0.5410175969562693,-4.828249660635917,-4.459032986739853,397.5
319,1.4651802555581452,-1.2814138651835574,1.8195041680544402,-0.5410175749792728,-4.828249702765462,-4.553168961298976,398.75
320,1.4651802177190854,-1.2814138805893664,1.8195041640984688,-0.5410175553368768,-4.828249740419614,-4.637304935858091,400.0
321,1.4651801878894952,-1.2814138967641844,1.8195041569774706,-0.5410175318189829,-4.828249770030073,-4.711440910417239,401.25
322,1.4651801641058748,-1.2814139122543973,1.8195041487237753,-0.5410175078974545,-4.828249793591761,-4.7755768849763625,402.5
323,1.4651801440305665,-1.2814139253293948,1.8195041417569842,-0.5410174877057401,-4.828249813479739,-4.829712859535475,403.75
324,1.46518012766357,-1.2814139359891765,1.819504136077097,-0.5410174712438396,-4.828249829694009,-4.873848834094572,405.0
325,1.4651801150048858,-1.2814139442337447,1.8195041316841163,-0.5410174585117538,-4.82824984223457,-4.907984808653667,406.25
326,1.4651801060545133,-1.2814139500630988,1.8195041285780422,-0.5410174495094825,-4.828249851101424,-4.932120783212776,407.5
327,1.4651801008124528,-1.2814139534772389,1.8195041267588745,-0.541017444237026,-4.828249856294568,-4.946256757771887,408.75
328,1.4654843627856249,-1.2787785397581202,1.8159056059864231,-0.5400546531016088,-4.827940138957032,-4.952415048346557,410.0
329,1.4659209499575643,-1.274997004722254,1.8107421216144084,-0.5386731574009246,-4.82749572529058,-4.9490905603547075,411.25
330,1.4659536831201794,-1.27471351124054,1.8103550315425574,-0.5385695957676423,-4.827462409556351,-4.937939406601184,412.5
331,1.4659536897155707,-1.274713506514929,1.8103550349329032,-0.5385696056973518,-4.827462410908413,-4.917123773582986,413.75
332,1.4659536994794415,-1.274713499519096,1.8103550399519985,-0.5385696203973749,-4.827462412910016,-4.8863081405647995,415.0
333,1.4659537124117923,-1.2747134902530413,1.8103550465998437,-0.5385696398677117,-4.827462415561162,-4.845492507546609,416.25
334,1.4659537285582371,-1.274713478818695,1.810355055242103,-0.5385696655898298,-4.827462418500341,-4.794676880990504,417.5
335,1.465953748011266,-1.2747134654227357,1.8103550666202137,-0.5385697005676183,-4.827462420994541,-4.733861271086561,418.75
336,1.46595377116393,-1.2747134499793662,1.8103550793339267,-0.5385697400123862,-4.827462421969949,-4.663045662085747,420.0
337,1.4659538073136942,-1.2747134353710603,1.8103550834478357,-0.5385697600845651,-4.827462385626151,-4.582230068686051,421.25
338,1.465953847949057,-1.274713418950369,1.810355088057361,-0.5385697825954621,-4.827462344680946,-4.491414479739375,422.5
339,1.4659538930834648,-1.274713400712148,1.8103550931480328,-0.53856980749662,-4.827462299021998,-4.390598899057547,423.75
340,1.4659539468815768,-1.2747133879603127,1.8103550897073564,-0.5385698172973821,-4.827462245205835,-4.279783329106394,425.0
341,1.465954005948222,-1.2747133747791732,1.8103550850595949,-0.5385698262342417,-4.827462186178875,-4.158967766500993,426.25
342,1.465954070074273,-1.2747133660290557,1.8103550744755852,-0.538569824853725,-4.827462122024974,-4.028152210542341,427.5
343,1.4659541392740572,-1.2747133621649198,1.8103550574996228,-0.5385698122510265,-4.827462052721883,-3.887336657819044,428.75
344,1.465954210645895,-1.274713364202582,1.8103550339848415,-0.5385697872235575,-4.827461981132718,-3.736521108427885,430.0
345,1.4659542836870416,-1.274713373274448,1.8103550029533015,-0.5385697476570539,-4.827461907740359,-3.5757055655794794,431.25
346,1.4659543505764645,-1.2747133917448579,1.8103549644008354,-0.5385696911236983,-4.827461840343363,-3.4097132577745977,432.5
347,1.4659544102341213,-1.2747134130385693,1.8103549252095652,-0.538569631074282,-4.8274617801448185,-3.25278761668808,433.75
348,1.4659544521362873,-1.2747134420655204,1.8103548836507306,-0.5385695607914889,-4.827461737605376,-3.105861975601617,435.0
349,1.465954489837289,-1.2747134699957945,1.810354844450039,-0.5385694939327594,-4.827461699297818,-2.968936334515231,436.25
350,1.465954510626715,-1.2747135016508748,1.8103548066251158,-0.538569424599483,-4.827461677876617,-2.842010693428909,437.5
351,1.4659545279559025,-1.2747135315539344,1.8103547715888588,-0.5385693597817381,-4.827461659956479,-2.725085052342634,438.75
352,1.4659545368993494,-1.2747135604398596,1.810354740090966,-0.538569299457855,-4.827461650461967,-2.618159411256425,440.0
353,1.4659545377782395,-1.2747135882369915,1.810354712106228,-0.5385692436766669,-4.827461649072393,-2.5212337701702765,441.25
354,1.4659545385664532,-1.2747136131662355,1.8103546870087217,-0.5385691936505277,-4.827461647826184,-2.4343081290841835,442.5
355,1.465954535795968,-1.274713635421239,1.8103546656491993,-0.538569150010924,-4.82746165019662,-2.3573824879981147,443.75
356,1.4659545270416814,-1.2747136551374103,1.8103546486225672,-0.5385691131994383,-4.827461658612481,-2.2904568469120763,445.0
357,1.4659545195954562,-1.2747136719075998,1.8103546341400467,-0.5385690818883088,-4.82746166577085,-2.2335312058260555,446.25
358,1.465954513457293,-1.2747136857318044,1.8103546222016347,-0.5385690560775349,-4.827461671671722,-2.186605564740047,447.5
359,1.4659545086271912,-1.2747136966100279,1.8103546128073353,-0.5385690357671172,-4.8274616763151,-2.1496799236540483,448.75
360,1.4659545051051512,-1.2747137045422707,1.810354605957149,-0.5385690209570557,-4.827461679700985,-2.122754282568035,450.0
361,1.465954502891173,-1.2747137095285324,1.810354601651075,-0.5385690116473503,-4.827461681829374,-2.1058286414820166,451.25
362,1.466122343359791,-1.2732419881331043,1.8083340757882123,-0.5380203809105665,-4.82729074551878,-2.097591967014588,452.5
363,1.4665931087404755,-1.2691140671178907,1.8026668698917874,-0.5364815836208683,-4.8268112974895745,-2.0981347445551934,453.75
364,1.4667178446886342,-1.2680203203358853,1.8011652755561138,-0.5360738668844344,-4.826684263923386,-2.1071880712630793,455.0
365,1.4667178462120325,-1.2680203154492236,1.8011652812968948,-0.5360738808934199,-4.826684268559223,-2.1251906782335515,456.25
366,1.4667178485816401,-1.2680203078481433,1.8011652902265367,-0.5360739026840482,-4.826684275770153,-2.1531932852040176,457.5
367,1.4667178517974577,-1.2680202975326442,1.8011653023450398,-0.5360739322563193,-4.8266842855561745,-2.191195892174478,458.75
368,1.466717855859485,-1.2680202845027264,1.8011653176524038,-0.536073969610233,-4.826684297917289,-2.239198499144946,460.0
369,1.4667178604718658,-1.2680202684158024,1.8011653348856447,-0.5360740095493197,-4.826684315265577,-2.29720110180191,461.25
370,1.4667178658781075,-1.2680202495538415,1.801165355084274,-0.5360740563505823,-4.826684335615755,-2.3652037044416963,462.5
371,1.466717866635971,-1.2680202273903682,1.8011653774723058,-0.5360741020450783,-4.826684341943608,-2.4432062942867843,463.75
372,1.4667178657795754,-1.268020202218492,1.8011654024822792,-0.5360741510745712,-4.826684343706083,-2.531208879508802,465.0
373,1.4667178648604609,-1.2680201741736594,1.8011654302991786,-0.5360742055598597,-4.82668434537822,-2.629211452940752,466.25
374,1.4667178542873067,-1.2680201454880617,1.8011654620023463,-0.5360742653246905,-4.826684356564313,-2.737214018939959,467.5
375,1.4667178369233795,-1.2680201154969875,1.8011654972793876,-0.5360743304586951,-4.826684374464967,-2.8552165770493425,468.75
376,1.4667178143237618,-1.2680200844973992,1.8011655351522298,-0.5360743991673037,-4.8266843976415,-2.983219127578605,470.0
377,1.4667177765823212,-1.2680200565208262,1.8011655745758097,-0.5360744662955941,-4.826684435993129,-3.1212216731668874,471.25
378,1.4667177329615744,-1.2680200285657697,1.8011656157545106,-0.5360745351135224,-4.826684480239102,-3.269224217257981,472.5
379,1.4667176733004987,-1.268020007252756,1.8011656551284179,-0.536074595361996,-4.826684540444182,-3.4272267544705324,473.75
380,1.4667176063879048,-1.26801999036562,1.8011656922616224,-0.5360746488891559,-4.826684607837887,-3.5914263962690747,475.0
381,1.4667175361630411,-1.2680199816285487,1.801165722234133,-0.5360746870793208,-4.826684678402444,-3.7470954118707,476.25
382,1.466717467397419,-1.2680199803294678,1.8011657443170193,-0.5360747099511851,-4.826684747367327,-3.8927644274722946,477.5
383,1.4667174011786626,-1.268019984017693,1.8011657606357694,-0.5360747220894935,-4.826684813687183,-4.028433443073855,478.75
384,1.466717339990498,-1.2680199921611375,1.801165770972616,-0.5360747238271057,-4.826684874881729,-4.154102458675391,480.0
385,1.4667172838306348,-1.2680200046874543,1.8011657754007064,-0.5360747153095134,-4.826684930954594,-4.269771474276909,481.25
386,1.4667172325259923,-1.2680200161308222,1.8011657794459663,-0.5360747075282957,-4.826684982179756,-4.37544048987841,482.5
387,1.4667171898347209,-1.268020032978852,1.8011657754757677,-0.5360746863897814,-4.826685024670244,-4.4711095054799,483.75
388,1.4667171518302826,-1.2680200484532524,1.8011657714647302,-0.5360746666191234,-4.826685062487191,-4.556778521081389,485.0
389,1.4667171182620387,-1.2680200621213493,1.8011657679218906,-0.5360746491562599,-4.82668509588983,-4.632447536682876,486.25
390,1.4667170915504626,-1.268020075777367,1.8011657623189705,-0.5360746296962859,-4.826685122418535,-4.698116552284352,487.5
391,1.4667170711880084,-1.2680200890450775,1.8011657551861213,-0.5360746091418913,-4.826685142589063,-4.753785567885855,488.75
392,1.4667170544833261,-1.2680200999294673,1.8011657493345683,-0.5360745922797472,-4.826685159136295,-4.799454583487369,490.0
393,1.4667170414364152,-1.2680201084305354,1.80116574476431,-0.536074579109853,-4.826685172060232,-4.835123599088888,491.25
394,1.466717032047276,-1.268020114548283,1.8011657414753475,-0.5360745696322092,-4.826685181360874,-4.86079261469039,492.5
395,1.466717026315908,-1.2680201182827107,1.8011657394676817,-0.5360745638468161,-4.826685187038221,-4.876461630291897,493.75
396,1.4666692522946496,-1.2684347382658634,1.8017546664538078,-0.5362488211459514,-4.826733990257317,-4.882501947127772,495.0
397,1.4665241450839626,-1.269694152823794,1.8035435510160671,-0.5367781402315961,-4.82688222375713,-4.879828955701829,496.25
398,1.4664924945973383,-1.2699688871060317,1.8039337915382334,-0.53689361358053,-4.82691455627224,-4.867882398943138,497.5
399,1.466434350714112,-1.2704735908161031,1.8046506872883854,-0.537105745197839,-4.826973953083587,-4.845935842184449,498.75
400,1.4663497134342833,-1.2712082639540077,1.8056942382665238,-0.5374145350835229,-4.82706041419117,-4.813989285425769,500.0
401,1.4662381944427878,-1.272173091839344,1.807062881634446,-0.5378182344274507,-4.8271743200950965,-4.772042672550967,501.25
402,1.466098963435679,-1.2733684701076298,1.808753274462516,-0.5383131032695898,-4.827316484386058,-4.720095912042366,502.5
403,1.4659329297933823,-1.2747939644132928,1.8107690759997173,-0.5389032367321389,-4.827486015983387,-4.658149151533795,503.75
404,1.4657394533576977,-1.2764499179691842,1.813107799252123,-0.5395858043865542,-4.827683542157321,-4.586202297727514,505.0
405,1.4655180869301336,-1.2783365700694431,1.8157677059407356,-0.5403588285048181,-4.827909501100762,-4.50425530702821,506.25
406,1.4652689348949763,-1.2804538879161558,1.8187492548492872,-0.5412228000558325,-4.828163790810416,-4.412308210546889,507.5
407,1.4649913689609477,-1.2828022269365067,1.8220500478738533,-0.5421749647628629,-4.828447027154519,-4.310360942305538,508.75
408,1.4646848046600354,-1.2853819755809481,1.825667990145871,-0.5432128386097588,-4.828759783575183,-4.198413437842451,510.0
409,1.4643493667009877,-1.2881930836419573,1.829603605922097,-0.5443369962041642,-4.82910193796603,-4.076465738571929,511.25
410,1.463984390000049,-1.2912359905490385,1.833854505652392,-0.5455446077677251,-4.829474142753174,-3.944517778560275,512.5
411,1.4635886119386692,-1.2945115891602823,1.8384162920942502,-0.5468303816537412,-4.829877636944936,-3.8025694211606647,513.75
412,1.4631621302597226,-1.2980198991384606,1.8432895171091264,-0.5481948501456783,-4.830312325266239,-3.6506207150379417,515.0
413,1.4627055550357166,-1.301750747398148,1.848457017173403,-0.5496310232935884,-4.830777560048174,-3.489136439602286,516.25
414,1.4622564174658543,-1.3053952642124618,1.853489715542672,-0.5510187333352818,-4.831235087430089,-3.331498916045834,517.5
415,1.461832660012254,-1.3088109750774128,1.8581927760333583,-0.5523056374722446,-4.831666645682102,-3.1838610101634375,518.75
416,1.461434949379988,-1.311997430548249,1.862568573916491,-0.5534945612275781,-4.832071580729121,-3.0462227857280464,520.0
417,1.4610639700900758,-1.3149541289087463,1.866619450932147,-0.5545883489028047,-4.832449220721652,-2.9185843049541895,521.25
418,1.460719633677489,-1.3176811936320711,1.8703452468493857,-0.5555867166602879,-4.832799652923787,-2.8009455442609448,522.5
419,1.4604027523705922,-1.3201779968392473,1.8737486622330914,-0.5564929939597651,-4.833122079905333,-2.693306583616608,523.75
420,1.4601144802135018,-1.3224435531651961,1.8768333061675258,-0.5573117767335413,-4.833415367945882,-2.595667528138565,525.0
421,1.4598536827083328,-1.3244788829269205,1.8795957573093045,-0.5580386218414194,-4.833680631954307,-2.5080282487871965,526.25
422,1.4596225978033797,-1.3262820144311789,1.8820428651484047,-0.558682353368428,-4.8339156729336725,-2.4303889648966837,527.5
423,1.4594196348302018,-1.3278543890837857,1.8841698598568843,-0.5592367580009799,-4.834122054172019,-2.3627495049367937,528.75
424,1.459246678449817,-1.3291942996313364,1.8859823939369467,-0.5597091979589351,-4.8342979234520405,-2.3051100449768964,530.0
425,1.459103559382665,-1.3303019034618904,1.8874799697150804,-0.5600990179575991,-4.834443447170375,-2.257470568415391,531.25
426,1.4589896680018977,-1.3311777676691534,1.8886607954928905,-0.5604038584013473,-4.83455922457305,-2.2198310012072135,532.5
427,1.4589060350404524,-1.3318209341404361,1.8895279019945788,-0.5606277094856635,-4.834644242482122,-2.1921914339990343,533.75
428,1.4588526604983287,-1.3322314028757378,1.8900812892201442,-0.560770571210548,-4.834698500897593,-2.1745518667908685,535.0
429,1.4588151996169947,-1.3325192603105966,1.890469232687071,-0.5608706175221084,-4.834736580935632,-2.1668097702607776,536.25
430,1.4586149444142653,-1.3340559584375673,1.8925389346940227,-0.561403410169612,-4.834940135074177,-2.167937074523128,537.5
431,1.4586148705742623,-1.3340560259596437,1.8925387181803164,-0.561403126317149,-4.834940207547163,-2.1780142791141657,538.75
432,1.4586147234599678,-1.334056160486489,1.8925382868116825,-0.5614025607869046,-4.834940351937895,-2.198091483705209,540.0
433,1.4586145030713815,-1.3340563620181027,1.8925376405881211,-0.5614017135788789,-4.834940568246376,-2.2281686882962366,541.25
434,1.4586142093410572,-1.3340566304968997,1.8925367793041414,-0.5614005838308784,-4.834940856998538,-2.268245869640157,542.5
435,1.4586138422884933,-1.3340569659396162,1.892535703019155,-0.5613991717926075,-4.834941218041994,-2.318323041361241,543.75
436,1.4586134019385464,-1.3340573683674888,1.8925344118088943,-0.5613974777818882,-4.834941651182864,-2.378400213082298,545.0
437,1.4586133766275877,-1.334057370539881,1.8925343590591015,-0.561397422550211,-4.834941676602458,-2.448477367681261,546.25
438,1.4586133758390465,-1.3340573461036553,1.8925343825128613,-0.5613974700918818,-4.834941678002098,-2.5285545210534597,547.5
439,1.4586133749636812,-1.3340573186109568,1.892534408881494,-0.5613975235213777,-4.834941679484356,-2.618631667329367,548.75
440,1.4586133663901069,-1.3340572897944505,1.89253443882762,-0.5613975819941244,-4.834941688640919,-2.718708807855938,550.0
441,1.4586133490248105,-1.3340572599028386,1.8925344724449706,-0.561397645383142,-4.834941706551936,-2.828785941373512,551.25
442,1.4586133300821504,-1.3340572272959887,1.8925345091173384,-0.5613977145351231,-4.834941726088628,-2.948863068164034,552.5
443,1.458613292490366,-1.3340571989354542,1.8925345471474004,-0.5613977806720576,-4.834941764265939,-3.0789401854825234,553.75
444,1.4586132514101824,-1.3340571686386655,1.892534588041659,-0.5613978515859201,-4.834941805974798,-3.2190172990256958,555.0
445,1.4586131928131707,-1.3340571456787995,1.8925346270081351,-0.5613979131106045,-4.834941865114917,-3.369094411691565,556.25
446,1.4586131275870602,-1.3340571231290774,1.8925346675074863,-0.561397975711673,-4.834941930893061,-3.529171516839466,557.5
447,1.4586130485686088,-1.3340571134781185,1.8925346996805315,-0.5613980169884902,-4.834942010271678,-3.6924608734384288,558.75
448,1.45861297279771,-1.3340571076372718,1.8925347272679307,-0.5613980498911784,-4.834942086328324,-3.846060420449076,560.0
449,1.4586128976044923,-1.334057111958143,1.8925347449727326,-0.56139806275101,-4.8349421616284145,-3.9896599674596827,561.25
450,1.4586128277231052,-1.3340571183982266,1.8925347591089818,-0.5613980699594903,-4.8349422315667825,-4.123259514470258,562.5
451,1.4586127633371122,-1.3340571328402393,1.8925347639993693,-0.5613980599563864,-4.834942295856679,-4.246859061480811,563.75
452,1.4586127041603614,-1.334057146113794,1.8925347684940852,-0.5613980507625965,-4.834942354945108,-4.360458608491359,565.0
453,1.458612653924582,-1.3340571646412158,1.892534765369583,-0.5613980287565875,-4.834942404979126,-4.46405815550188,566.25
454,1.4586126093698228,-1.334057182812117,1.8925347609361873,-0.5613980058378104,-4.834942449324574,-4.557657702512385,567.5
455,1.4586125695752103,-1.3340571990416703,1.8925347569764435,-0.5613979853676317,-4.834942488932237,-4.641257249522905,568.75
456,1.4586125385719406,-1.3340572163028823,1.8925347494774623,-0.5613979603874446,-4.834942519709223,-4.714856796533413,570.0
457,1.4586125136065022,-1.3340572325650406,1.892534741180253,-0.5613979356503312,-4.834942544451185,-4.778456343543922,571.25
458,1.4586124925664752,-1.3340572462702363,1.8925347341876444,-0.5613979148027286,-4.834942565302875,-4.83205589055445,572.5
459,1.4586124754518595,-1.3340572574184693,1.8925347284996359,-0.5613978978446363,-4.83494258226429,-4.875655437565003,573.75
460,1.4586124622626553,-1.3340572660097416,1.8925347241162302,-0.5613978847760555,-4.834942595335432,-4.909254984575533,575.0
461,1.4586124529988624,-1.334057272044053,1.892534721037427,-0.5613978755969855,-4.834942604516301,-4.9328545315860675,576.25
462,1.4586124476604807,-1.334057275521404,1.8925347192632265,-0.5613978703074266,-4.834942609806896,-4.9464540785966,577.5
463,1.4589869054587068,-1.3311201102417247,1.8886990940732271,-0.5604998083979255,-4.83456285824997,-4.952133174465988,578.75
464,1.4594563247125356,-1.3274381173588299,1.8838908085122754,-0.5593740150399914,-4.834086804461129,-4.948208130107232,580.0
465,1.4594760256003083,-1.327283616438254,1.8836890525232175,-0.5593267819983717,-4.834066829876717,-4.936482410031804,581.25
466,1.4594760327486167,-1.3272836112665132,1.8836890561092432,-0.559326792760037,-4.834066831472664,-4.914938538638561,582.5
467,1.4594760432149485,-1.3272836036942102,1.883689061359791,-0.5593268085169352,-4.834066833809401,-4.883394667245321,583.75
468,1.4594760569993046,-1.3272835937213447,1.883689068274862,-0.5593268292690663,-4.834066836886928,-4.841850795852072,585.0
469,1.4594760741669668,-1.3272835814796344,1.8836890773351036,-0.5593268570049877,-4.834066840213161,-4.7903069261027795,586.25
470,1.4594760947976968,-1.3272835671300114,1.8836890891277744,-0.5593268941543262,-4.834066843186872,-4.728763059422182,587.5
471,1.4594761200771964,-1.3272835508386711,1.8836891015197426,-0.5593269341189178,-4.834066841720689,-4.657219194834944,588.75
472,1.4594761586718723,-1.327283535211691,1.8836891057090903,-0.5593269553693776,-4.834066802908237,-4.575675344751809,590.0
473,1.4594762020165457,-1.3272835176621587,1.8836891103951126,-0.5593269791679805,-4.834066759200866,-4.4841314999007515,591.25
474,1.459476250120724,-1.3272834981866282,1.883689115568258,-0.5593270054823632,-4.834066710522958,-4.382587662218914,592.5
475,1.4594763077446529,-1.3272834851320356,1.8836891113015504,-0.5593270146711176,-4.834066652921524,-4.2710438361085785,593.75
476,1.4594763706086928,-1.3272834710368213,1.883689106494086,-0.559327024364176,-4.834066590097061,-4.1495000171318805,595.0
477,1.4594764388481702,-1.3272834624623857,1.8836890948322655,-0.5593270217368489,-4.834066521819163,-4.017956204446875,596.25
478,1.4594765124281912,-1.3272834582564403,1.883689077431213,-0.5593270090557971,-4.834066448135545,-3.876412394398508,597.5
479,1.4594765878581846,-1.3272834612814566,1.8836890525558134,-0.5593269816818703,-4.834066372469823,-3.7248685880958927,598.75
480,1.4594766654668474,-1.327283470798486,1.8836890208190025,-0.5593269409691666,-4.834066294505339,-3.563324788315667,600.0
481,1.459476735140759,-1.3272834911698246,1.8836889809822188,-0.5593268812438796,-4.834066224304449,-3.397660748501824,601.25
482,1.4594767979481462,-1.3272835134711203,1.8836889412944853,-0.5593268196891072,-4.834066160952925,-3.2414528666587192,602.5
483,1.4594768408332388,-1.3272835447082227,1.8836888988391165,-0.5593267462891874,-4.834066117415453,-3.0952449848156336,603.75
484,1.4594768804913358,-1.3272835740003324,1.8836888591894163,-0.5593266776178152,-4.834066077146955,-2.9590371029725726,605.0
485,1.4594769010730262,-1.3272836077355985,1.8836888208350029,-0.5593266056639055,-4.83406605592336,-2.8328292211295594,606.25
486,1.459476919277399,-1.327283639102382,1.8836887854449533,-0.5593265390267814,-4.834066037124418,-2.7166213392865504,607.5
487,1.4594769275256736,-1.327283669650705,1.8836887537402789,-0.5593264768239841,-4.834066028320174,-2.61041345744355,608.75
488,1.459476928435533,-1.3272836987937477,1.8836887255213002,-0.559326419461128,-4.8340660268968625,-2.5142055756005557,610.0
489,1.45947692925082,-1.3272837249076108,1.8836887002354414,-0.5593263680606587,-4.834066025621492,-2.427997693757569,611.25
490,1.4594769255297906,-1.327283748246179,1.883688678933115,-0.5593263233879396,-4.834066028942168,-2.3517898119145935,612.5
491,1.4594769163596522,-1.3272837688616255,1.883688661830182,-0.5593262856002552,-4.834066037772989,-2.285581930071619,613.75
492,1.4594769085745662,-1.3272837863633262,1.8836886473104653,-0.5593262535200008,-4.834066045270009,-2.229374048228623,615.0
493,1.4594769021745329,-1.327283800751279,1.8836886353739628,-0.5593262271471762,-4.834066051433226,-2.1831661663856106,616.25
494,1.4594768971595515,-1.3272838120254877,1.8836886260206782,-0.5593262064817814,-4.834066056262642,-2.146958284542608,617.5
495,1.4594768935296227,-1.327283820185952,1.8836886192506115,-0.5593261915238166,-4.834066059758254,-2.120750402699608,618.75
496,1.4594768912847462,-1.327283825232672,1.8836886150637626,-0.5593261822732817,-4.8340660619200655,-2.1045425208566035,620.0
497,1.459702147124363,-1.3254950887694201,1.8813385872102724,-0.55876512915344,-4.833837519237606,-2.0968958483695928,621.25
498,1.4602263619403855,-1.321332360153448,1.875869640046944,-0.5574594655239139,-4.833305656140961,-2.098250382982719,622.5
499,1.4603282837346834,-1.3205230149264,1.8748063377992337,-0.5572056182558188,-4.83320225070263,-2.1079524996376278,623.75
500,1.4603282853729187,-1.3205230094988394,1.8748063439560272,-0.5572056336230928,-4.833202255930566,-2.1268622563875534,625.0
501,1.4603282878774975,-1.3205230012010354,1.8748063533687025,-0.5572056571170043,-4.833202263923177,-2.1557720131374793,626.25
502,1.4603282912484206,-1.320522990032988,1.87480636603726,-0.5572056887375533,-4.833202274680465,-2.1946817698874135,627.5
503,1.4603282954595127,-1.320522975967445,1.8748063818589231,-0.557205728052336,-4.833202288405523,-2.243591524924608,628.75
504,1.4603283002232454,-1.3205229587050389,1.874806399704703,-0.5572057703114278,-4.833202307329321,-2.3025012622945713,630.0
505,1.460328305795628,-1.320522938512319,1.8748064205798263,-0.5572058197440525,-4.8332023294654585,-2.371410999664529,631.25
506,1.460328305939321,-1.320522914767079,1.874806443494296,-0.5572058667248039,-4.833202334267581,-2.450320722738448,632.5
507,1.4603283050354297,-1.320522887903589,1.8748064691366215,-0.557205917985355,-4.833202336097246,-2.5392304415802602,633.75
508,1.4603283040651378,-1.3205228580064887,1.874806497629684,-0.5572059749000581,-4.833202337850616,-2.6381401500430055,635.0
509,1.4603282914029747,-1.3205228277888288,1.8748065302418278,-0.5572060371989449,-4.833202351110092,-2.7470498500242617,636.25
510,1.4603282729164007,-1.3205227958836674,1.8748065663482043,-0.5572061050769079,-4.833202370140836,-2.865959542340452,637.5
511,1.4603282472884271,-1.3205227635745924,1.8748066049339012,-0.5572061757968599,-4.833202396353149,-2.994869227482393,638.75
512,1.4603282071325079,-1.3205227338734475,1.874806645257264,-0.5572062455482698,-4.833202437130349,-3.133778908385598,640.0
513,1.4603281592368769,-1.3205227051957567,1.8748066868573106,-0.5572063154974816,-4.833202485648559,-3.282688587321781,641.25
514,1.4603280958007279,-1.3205226826279288,1.8748067271177975,-0.5572063778841572,-4.833202549637572,-3.4415982594199432,642.5
515,1.4603280228723157,-1.3205226659740954,1.8748067644603974,-0.5572064313706071,-4.833202623037789,-3.6079750605339576,643.75
516,1.4603279471080977,-1.3205226566483315,1.8748067955787207,-0.5572064712829549,-4.833202699151557,-3.766819208862716,645.0
517,1.460327871972858,-1.3205226572274937,1.8748068169800203,-0.5572064915753863,-4.8332027744602755,-3.915663357191458,646.25
518,1.4603278003145181,-1.3205226613029595,1.8748068340000748,-0.5572065040139278,-4.833202846221986,-4.054507505520158,647.5
519,1.4603277340526122,-1.320522672616344,1.874806842476704,-0.5572065007074039,-4.833202912446532,-4.183351653848849,648.75
520,1.4603276730346395,-1.32052268628791,1.874806847151076,-0.5572064912768288,-4.833202973372771,-4.302195802177522,650.0
521,1.4603276184784852,-1.3205227010989269,1.8748068488402523,-0.5572064777668755,-4.833203027801316,-4.411039950506179,651.25
522,1.4603275721052016,-1.320522720017998,1.8748068441840604,-0.5572064538601773,-4.833203073954597,-4.509884098834826,652.5
523,1.4603275304234735,-1.3205227370230346,1.8748068399989273,-0.5572064323721035,-4.833203115438581,-4.598728247163466,653.75
524,1.4603274943316211,-1.320522752778478,1.8748068353828176,-0.557206411742348,-4.833203151341041,-4.67757239549209,655.0
525,1.46032746769759,-1.3205227701452324,1.8748068264517694,-0.5572063852526112,-4.833203177734168,-4.746416543820702,656.25
526,1.4603274449323016,-1.320522784989368,1.8748068188180063,-0.5572063626106579,-4.833203200293544,-4.805260692149332,657.5
527,1.4603274260357562,-1.3205227973108822,1.8748068124815247,-0.5572063438164866,-4.83320321901917,-4.854104840477985,658.75
528,1.4603274110079538,-1.3205228071097777,1.8748068074423285,-0.5572063288700989,-4.833203233911046,-4.892948988806639,660.0
529,1.4603273998488941,-1.3205228143860552,1.8748068037004182,-0.5572063177714948,-4.833203244969171,-4.921793137135291,661.25
530,1.4603273925585776,-1.3205228191397145,1.8748068012557935,-0.5572063105206743,-4.833203252193547,-4.94063728546394,662.5
531,1.4604302999364855,-1.319695514998064,1.873713408445821,-0.5569403301815109,-4.833098795690938,-4.950292227894573,663.75
532,1.460947202529116,-1.315540110229729,1.868221508457701,-0.5556043792718465,-4.832574112576351,-4.9515943675146685,665.0
533,1.4611669193080024,-1.313773816645907,1.8658871290339816,-0.5550365254756071,-4.832351091573909,-4.943909843049258,666.25
534,1.46116692463779,-1.313773812795838,1.8658871317188175,-0.5550365334977895,-4.832351092727516,-4.9276614872072875,667.5
535,1.461166933247779,-1.3137738065762563,1.8658871360560267,-0.5550365464571991,-4.8323510945911075,-4.901413131365321,668.75
536,1.4611669451379692,-1.313773797987161,1.8658871420456093,-0.5550365643538357,-4.8323510971646835,-4.865164775523345,670.0
537,1.4611669603083608,-1.3137737870285535,1.8658871496875662,-0.5550365871876998,-4.832351100448244,-4.818916419681367,671.25
538,1.4611669789140909,-1.3137737740202167,1.8658871601463085,-0.5550366197539148,-4.832351103257331,-4.7626680685925535,672.5
539,1.4611670008643411,-1.3137737587749463,1.865887172740178,-0.5550366592453662,-4.83235110628534,-4.696419718518161,673.75
540,1.461167032417922,-1.313773743144122,1.8658871807663453,-0.5550366889362459,-4.83235108581619,-4.620171378355537,675.0
541,1.461167072654304,-1.3137737268473884,1.8658871851714949,-0.5550367111332498,-4.832351045355538,-4.533923044885629,676.25
542,1.4611671175916618,-1.3137737086480046,1.8658871900507763,-0.5550367357800503,-4.832350999915388,-4.437674722560826,677.5
543,1.4611671693333819,-1.3137736922774328,1.8658871909639796,-0.5550367541480012,-4.832350947875206,-4.331426406947603,678.75
544,1.4611672286001096,-1.313773679003151,1.8658871863944173,-0.555036763246548,-4.832350888643261,-4.2151780995614,680.0
545,1.461167292981417,-1.3137736651459146,1.8658871808840063,-0.5550367720129251,-4.832350824298101,-4.088929800303851,681.25
546,1.4611673627983353,-1.3137736611936472,1.8658871642277388,-0.5550367598029403,-4.8323507543811495,-3.9526815069962002,682.5
547,1.4611674376047354,-1.3137736572547083,1.8658871460955835,-0.5550367461393702,-4.832350679462787,-3.806433213952011,683.75
548,1.4611675116000462,-1.3137736663945192,1.865887115569985,-0.5550367069968157,-4.832350605124113,-3.6501849280227354,685.0
549,1.461167586991022,-1.313773679380294,1.8658870809204933,-0.5550366598933898,-4.8323505293182425,-3.4845001221376752,686.25
550,1.4611676510032026,-1.3137737021936298,1.8658870401156964,-0.5550365967239653,-4.832350464745089,-3.322999367188033,687.5
551,1.4611677037048036,-1.3137737283871362,1.8658869993628076,-0.5550365301452291,-4.832350411450455,-3.1714986122384357,688.75
552,1.4611677443198758,-1.313773758467001,1.8658869584004671,-0.5550364593840094,-4.832350370203237,-3.02999785728886,690.0
553,1.4611677748252863,-1.3137737893749688,1.8658869196028016,-0.5550363898874423,-4.832350339075842,-2.8984971023393284,691.25
554,1.461167793591022,-1.313773821776138,1.8658868828054085,-0.5550363208143039,-4.832350319690511,-2.7769963473898054,692.5
555,1.461167810521398,-1.313773851575692,1.8658868490589615,-0.555036257381325,-4.832350302191098,-2.6654955924403194,693.75
556,1.4611678114710036,-1.3137738819414049,1.8658868194518137,-0.5550361974079765,-4.832350300701667,-2.5639948374908337,695.0
557,1.4611678123270528,-1.3137739093154406,1.865886792761601,-0.5550361433432883,-4.832350299358978,-2.4724940825413655,696.25
558,1.4611678130895456,-1.3137739336978007,1.8658867689883247,-0.5550360951872605,-4.83235029816303,-2.390993327591906,697.5
559,1.4611678046562069,-1.31377395560372,1.8658867503034586,-0.5550360545314335,-4.8323503062293245,-2.3194925726424422,698.75
560,1.4611677962615888,-1.313773974510479,1.8658867345039754,-0.5550360197611378,-4.83235031430989,-2.2579918176929876,700.0
561,1.4611677892319328,-1.3137739903430037,1.8658867212734798,-0.5550359906444793,-4.832350321076559,-2.206491062743499,701.25
562,1.4611677835672383,-1.3137740031012957,1.8658867106119736,-0.555035967181458,-4.83235032652933,-2.1649903077939996,702.5
563,1.4611677792675057,-1.313774012785356,1.8658867025194583,-0.5550359493720738,-4.832350330668205,-2.133489552844517,703.75
564,1.4611677763327349,-1.3137740193951857,1.865886696995934,-0.555035937216327,-4.832350333493182,-2.1119887978950227,705.0
565,1.4611874530918187,-1.313613871219194,1.865673786965923,-0.554983195977847,-4.8323303512356945,-2.1002973400773772,706.25
566,1.4616367121373917,-1.3099575852092822,1.860813088898516,-0.55377925485983,-4.831874118979878,-2.0963768216897667,707.5
567,1.4619956451900096,-1.307036420454813,1.8569296734133556,-0.5528173814925649,-4.831509616757858,-2.102061284318449,708.75
568,1.4619956512027983,-1.3070363771944802,1.8569296254018979,-0.5528173794157744,-4.831509615513941,-2.115628061214375,710.0
569,1.4619956532347893,-1.3070363705144523,1.856929633022337,-0.5528173983529853,-4.831509621896493,-2.1391947858201146,711.25
570,1.4619956561290093,-1.3070363609999074,1.8569296438763354,-0.552817425325768,-4.831509630987337,-2.172761510425862,712.5
571,1.461995659885458,-1.3070363486508454,1.8569296579638928,-0.5528174603341227,-4.83150964278647,-2.2163282350316096,713.75
572,1.4619956643321337,-1.3070363332840031,1.8569296745963404,-0.5528175004950389,-4.831509658645414,-2.269894946932187,715.0
573,1.461995669457466,-1.307036314887052,1.8569296937273545,-0.5528175456145846,-4.831509678655086,-2.333461648598274,716.25
574,1.4619956731130979,-1.307036293371261,1.8569297155165767,-0.5528175943689042,-4.83150969444136,-2.4070283448114815,717.5
575,1.461995672268167,-1.3070362684373742,1.8569297394960753,-0.5528176421461599,-4.831509696188233,-2.4905950298771726,718.75
576,1.4619956713466864,-1.3070362405111917,1.856929766321431,-0.5528176955619101,-4.831509697945228,-2.5841617071910203,720.0
577,1.4619956674440906,-1.3070362102698416,1.8569297963104372,-0.5528177545454817,-4.83150970259555,-2.6877283776125678,721.25
578,1.4619956500344002,-1.307036180166181,1.856929830607275,-0.5528178188124196,-4.831509720525447,-2.801295038543544,722.5
579,1.4619956310921614,-1.3070361474128067,1.856929867927844,-0.5528178887537597,-4.831509740030758,-2.9248616905260043,723.75
580,1.4619955967496547,-1.3070361176661223,1.856929906867762,-0.5528179572031731,-4.8315097749714155,-3.0584283369041394,725.0
581,1.4619955558315212,-1.3070360873259474,1.8569299483184614,-0.552818028711735,-4.831509816529961,-3.2019949818905804,726.25
582,1.4619954993828856,-1.3070360631476468,1.8569299883652381,-0.5528180925400885,-4.8315098735478434,-3.355561621783362,727.5
583,1.4619954350093327,-1.3070360401678303,1.8569300295818532,-0.5528181562821864,-4.831509938488864,-3.5191282553893384,728.75
584,1.4619953582097525,-1.3070360301725283,1.8569300618684812,-0.552818198018034,-4.831510015655555,-3.6833032399539056,730.0
585,1.4619952846456377,-1.307036023582959,1.8569300899017944,-0.5528182321171455,-4.831510089518239,-3.8374877694709415,731.25
586,1.4619952112848107,-1.3070360277174269,1.85693010748016,-0.5528182450362246,-4.8315101629864445,-3.9816722989879367,732.5
587,1.4619951430657745,-1.3070360332838753,1.8569301221575056,-0.552818253658686,-4.8315102312747165,-4.115856828504937,733.75
588,1.46199508020991,-1.3070360473534266,1.8569301270144538,-0.5528182439939602,-4.831510294035397,-4.240041358021908,735.0
589,1.4619950224155347,-1.307036060290017,1.8569301314802866,-0.5528182351074865,-4.831510351742251,-4.35422588753886,736.25
590,1.4619949730556077,-1.3070360779226649,1.8569301289123041,-0.5528182145502749,-4.831510400910356,-4.458410417055784,737.5
591,1.4619949294958023,-1.3070360956988303,1.8569301244985508,-0.5528181920451581,-4.831510444261485,-4.552594946572704,738.75
592,1.4619948905609397,-1.3070361115876161,1.8569301205534217,-0.5528181719295112,-4.831510483009827,-4.6367794760896075,740.0
593,1.4619948598381494,-1.3070361282488272,1.8569301134432044,-0.5528181479348113,-4.831510513512113,-4.710964005606515,741.25
594,1.461994835360036,-1.3070361442236698,1.856930105160846,-0.55281812349909,-4.831510537766529,-4.775148535123414,742.5
595,1.461994814695632,-1.3070361577096181,1.8569300981688839,-0.5528181028704728,-4.831510558242087,-4.829333064640327,743.75
596,1.461994797844937,-1.307036168706672,1.8569300924673176,-0.5528180860489593,-4.83151057493879,-4.8735175941572635,745.0
597,1.4619947848079515,-1.3070361772148338,1.8569300880561503,-0.5528180730345507,-4.831510587856634,-4.907702123674197,746.25
598,1.4619947755846752,-1.307036183234103,1.8569300849353816,-0.552818063827247,-4.8315105969956225,-4.931886653191127,747.5
599,1.4619947701751081,-1.3070361867644795,1.8569300831050117,-0.5528180584270479,-4.8315106023557535,-4.946071182708055,748.75
600,1.4623152767335434,-1.3043955285484596,1.8533991750227976,-0.5519281430880368,-4.831184968401557,-4.952229503233787,750.0
601,1.462777923345004,-1.30058381010376,1.8483024107569126,-0.5506435804854725,-4.830714921936106,-4.948907993035139,751.25
602,1.4628112965012576,-1.3003088772882152,1.84793479497155,-0.5505509333541606,-4.830681019334904,-4.937730225383953,752.5
603,1.4628113032657504,-1.300308872409765,1.847934798394442,-0.5505509435356204,-4.830681020756588,-4.916871697368682,753.75
604,1.4628113132732778,-1.300308865192487,1.8479348034583378,-0.550550958598278,-4.830681022859855,-4.886013169353417,755.0
605,1.4628113265238403,-1.3003088556363815,1.8479348101632374,-0.5505509785421332,-4.830681025644706,-4.845154641338134,756.25
606,1.4628113430665899,-1.3003088438449921,1.847934818885174,-0.5505510049082779,-4.830681028731081,-4.79429611773575,757.5
607,1.4628113629987958,-1.3003088300232226,1.8479348303682883,-0.5505510407464067,-4.83068103136687,-4.733437605212535,758.75
608,1.4628113867639307,-1.3003088141021233,1.8479348431574225,-0.5505510810636206,-4.830681032305315,-4.662579093656701,760.0
609,1.4628114239532302,-1.3003087990360096,1.8479348472645274,-0.5505511016190414,-4.83068099491114,-4.581720597724376,761.25
610,1.4628114657551718,-1.300308782101668,1.8479348518656769,-0.5505511246697455,-4.830680952783571,-4.490862106239705,762.5
611,1.4628115121836849,-1.3003087632939203,1.8479348569463614,-0.5505511501667887,-4.83068090580903,-4.390003622874843,763.75
612,1.4628115675341111,-1.3003087501728718,1.847934853401586,-0.5505511602311803,-4.8306808504406105,-4.279145150286605,765.0
613,1.4628116282833874,-1.300308736578558,1.8479348486752625,-0.5505511695028323,-4.830680789730769,-4.158286685005249,766.25
614,1.4628116942343572,-1.3003087275933622,1.8479348379341334,-0.5505511682010383,-4.830680723751307,-4.027428226304335,767.5
615,1.4628117653989756,-1.300308723598889,1.8479348208055824,-0.5505511555772225,-4.830680652483441,-3.8865697707394498,768.75
616,1.4628118387713474,-1.300308725737847,1.8479347970581927,-0.5505511302166977,-4.830680578892204,-3.7357113184995434,770.0
617,1.4628119138805624,-1.3003087350726652,1.8479347657973624,-0.550551090158814,-4.830680503430274,-3.5748528728289792,771.25
618,1.46281198258722,-1.3003087541408955,1.847934726957277,-0.5505510327399714,-4.830680434212829,-3.4088738019249543,772.5
619,1.462812043899749,-1.3003087760609648,1.8479346875259517,-0.5505509718242285,-4.830680372356859,-3.251985859504301,773.75
620,1.4628120868942618,-1.3003088059915493,1.8479346457101276,-0.5505509003799824,-4.830680328721188,-3.105097917083699,775.0
621,1.4628121256364115,-1.3003088347497362,1.8479346062906072,-0.5505508324741443,-4.830680289369356,-2.9682099746631083,776.25
622,1.46281214692564,-1.3003088673750394,1.8479345682623374,-0.5505507619661201,-4.830680267444592,-2.841322032242546,777.5
623,1.4628121647286618,-1.3003088981672128,1.8479345330469803,-0.5505506960795018,-4.830680249047415,-2.7244340898220085,778.75
624,1.462812173849552,-1.3003089279267894,1.8479345013999882,-0.5505506347316818,-4.83068023937232,-2.6175461474014803,780.0
625,1.4628121747464256,-1.3003089565512742,1.8479344732858074,-0.5505505779929181,-4.830680237961889,-2.520658204980984,781.25
626,1.4628121755507313,-1.3003089822213618,1.847934448073342,-0.5505505271102765,-4.830680236697031,-2.4337702625604885,782.5
627,1.4628121726517516,-1.3003090051397141,1.8479344266316347,-0.5505504827241419,-4.8306802391937875,-2.3568823201400035,783.75
628,1.462812163652329,-1.3003090254408742,1.8479344095376407,-0.5505504452596661,-4.830680247852849,-2.2899943777195064,785.0
629,1.4628121559983542,-1.300309042706934,1.8479343949992626,-0.5505504133962709,-4.830680255217349,-2.233106435299016,786.25
630,1.4628121496898272,-1.3003090569378903,1.8479343830164985,-0.5505503871339559,-4.830680261287286,-2.1862184928784956,787.5
631,1.462812144726748,-1.300309068133748,1.8479343735893516,-0.5505503664727217,-4.83068026606266,-2.149330550457963,788.75
632,1.4628121411091162,-1.3003090762945055,1.8479343667178223,-0.5505503514125683,-4.830680269543473,-2.1224426080374474,790.0
633,1.462812138836932,-1.3003090814201639,1.8479343624019102,-0.5505503419534954,-4.830680271729722,-2.1055546656169275,791.25
634,1.4629917867984135,-1.2988106725881103,1.845919303516749,-0.5500338786515034,-4.830497662860329,-2.0973703163762654,792.5
635,1.463490745704449,-1.2946489715704173,1.840322667188257,-0.5485994623507215,-4.829990480963454,-2.0979959294495916,793.75
636,1.4636175088602632,-1.2935916733619774,1.8389008236860152,-0.5482350506029429,-4.8298616317922995,-2.1071262957932557,795.0
637,1.4636175104156284,-1.2935916682874824,1.838900829510853,-0.5482350650126352,-4.829861636605759,-2.125257059381622,796.25
638,1.4636175128288538,-1.2935916604141555,1.8389008385483738,-0.5482350873699754,-4.829861644074076,-2.1533878229699814,797.5
639,1.4636175160999387,-1.2935916497419973,1.8389008507985762,-0.5482351176749634,-4.82986165419725,-2.191518586558349,798.75
640,1.4636175202266453,-1.2935916362685658,1.8389008662523234,-0.5482351558895409,-4.829861666993091,-2.239649349917496,800.0
641,1.4636175248979457,-1.2935916196546235,1.8389008836399277,-0.548235196725603,-4.829861684936173,-2.297780090397313,801.25
642,1.4636175303728314,-1.2935916001826506,1.838900904018652,-0.5482352445865303,-4.82986170596593,-2.365910830877074,802.5
643,1.4636175310493043,-1.293591577304356,1.838900926545715,-0.5482352910585835,-4.829861712225723,-2.4440415583190225,803.75
644,1.4636175301718652,-1.2935915513359626,1.8389009517059045,-0.5482353410007369,-4.829861714024066,-2.5321722811836342,805.0
645,1.4636175292309326,-1.2935915224082208,1.8389009796856004,-0.5482353964921907,-4.829861715730704,-2.630302992557153,806.25
646,1.4636175181691289,-1.2935914928655512,1.8389010116024935,-0.5482354573297872,-4.829861727407563,-2.7384336963532427,807.5
647,1.463617500309026,-1.2935914619351991,1.8389010470981912,-0.5482355236219583,-4.829861745806689,-2.856564392302505,808.75
648,1.463617476851814,-1.2935914300542986,1.8389010851845438,-0.548235593424196,-4.829861769843334,-2.984695080761279,810.0
649,1.4636174380290372,-1.2935914012080492,1.8389011248630118,-0.5482356616771655,-4.829861809280126,-3.1228257644271507,811.25
650,1.4636173929579157,-1.29359137251852,1.8389011662400518,-0.5482357314263812,-4.829861854978442,-3.2709564465796825,812.5
651,1.4636173315894705,-1.2935913505484025,1.8389012058838692,-0.5482357926013293,-4.829861916893994,-3.4290871218366537,813.75
652,1.46361726167888,-1.2935913332000637,1.8389012435455458,-0.5482358471095228,-4.829861987289957,-3.595406081559804,815.0
653,1.4636171876681856,-1.2935913239769516,1.8389012744871045,-0.5482358867409037,-4.829862061650338,-3.755023911794881,816.25
654,1.463617114697053,-1.2935913234520955,1.838901296625703,-0.5482359088766422,-4.829862134812464,-3.904641742030104,817.5
655,1.4636170446511247,-1.2935913273687631,1.8389013135596994,-0.5482359213864204,-4.829862204962395,-4.044259572265464,818.75
656,1.4636169798272811,-1.2935913375428831,1.8389013228349211,-0.5482359200163429,-4.8298622697649485,-4.173877402500985,820.0
657,1.4636169201288842,-1.2935913508940708,1.8389013274883617,-0.5482359108837795,-4.829862329372283,-4.293495232736589,821.25
658,1.4636168663631022,-1.2935913647593178,1.8389013298815449,-0.548235899019698,-4.829862383023014,-4.403113062972354,822.5
659,1.4636168209351608,-1.2935913833017338,1.8389013252358952,-0.5482358754988782,-4.829862428231216,-4.502730893208185,823.75
660,1.463616780067441,-1.2935913999827908,1.838901321056587,-0.5482358543391623,-4.829862468901256,-4.592348723444131,825.0
661,1.463616744170307,-1.2935914151074013,1.8389013169242288,-0.5482358348191454,-4.829862504616274,-4.67196655368013,826.25
662,1.4636167179923363,-1.2935914322038675,1.8389013079857195,-0.5482358085909829,-4.829862530552559,-4.741584383916196,827.5
663,1.463616695574605,-1.2935914468445742,1.83890130033115,-0.5482357861302692,-4.829862552763319,-4.801202214152302,828.75
664,1.463616676917113,-1.2935914590295186,1.8389012939605172,-0.5482357674370035,-4.829862571248557,-4.850820044388439,830.0
665,1.4636166620198603,-1.2935914687587031,1.8389012888738239,-0.5482357525111868,-4.829862586008272,-4.890437874624589,831.25
666,1.463616650882847,-1.293591476032129,1.838901285071071,-0.5482357413528195,-4.829862597042462,-4.92005570486073,832.5
667,1.4636166435060731,-1.2935914808497955,1.8389012825522586,-0.5482357339619014,-4.82986260435113,-4.939673535096848,833.75
668,1.4636860426451588,-1.2930054671415716,1.8381087504857725,-0.548029287448345,-4.829792027227495,-4.9499227309600276,835.0
669,1.4641624742989234,-1.2889826273159277,1.83266824440603,-0.546612114614027,-4.829307509431711,-4.952046712043697,836.25
670,1.4644111442039418,-1.28688295725705,1.8298286453461627,-0.5458724437591709,-4.8290546217222845,-4.9449893873347985,837.5
671,1.4644111491346055,-1.286882953707255,1.8298286478532397,-0.5458724511818032,-4.829054622730367,-4.929612301184244,838.75
672,1.4644111572717702,-1.2868829478489636,1.8298286519907148,-0.5458724634315089,-4.829054624394025,-4.904235215033694,840.0
673,1.4644111686154353,-1.2868829396821757,1.8298286577585876,-0.5458724805082876,-4.829054626713257,-4.868858128883119,841.25
674,1.4644111831656013,-1.2868829292068915,1.8298286651568585,-0.5458725024121398,-4.829054629688063,-4.823481042732549,842.5
675,1.464411201051995,-1.2868829167024847,1.8298286751969868,-0.5458725332676726,-4.829054632302707,-4.768103972797942,843.75
676,1.4644112222191432,-1.2868829020494876,1.8298286874464487,-0.5458725713111069,-4.829054634991543,-4.702726908670812,845.0
677,1.4644112517537247,-1.2868828867510165,1.8298286961601156,-0.545872602098219,-4.829054618438859,-4.627349852996238,846.25
678,1.4644112904747595,-1.2868828710618638,1.829828700474307,-0.5458726235413743,-4.829054579506864,-4.541972805425757,847.5
679,1.4644113337613578,-1.286882853523671,1.829828705261698,-0.545872647388074,-4.829054535765021,-4.446595768048379,848.75
680,1.4644113832671257,-1.28688283707179,1.8298287069771224,-0.5458726667195957,-4.829054485924555,-4.341218737479626,850.0
681,1.4644114404569284,-1.2868828242849661,1.8298287024903785,-0.5458726754111849,-4.829054428769295,-4.225841715319567,851.25
682,1.4644115026026736,-1.2868828103890237,1.829828697611561,-0.5458726848428085,-4.82905436666691,-4.100464701852754,852.5
683,1.4644115700381266,-1.2868828062332787,1.8298286816242544,-0.5458726734994361,-4.8290542991371375,-3.9650876945046285,853.75
684,1.4644116424679214,-1.2868828021971908,1.8298286640345693,-0.5458726604719966,-4.829054226600944,-3.81971068754273,855.0
685,1.46441171437739,-1.286882810313798,1.8298286346856096,-0.545872623528067,-4.829054154365552,-3.6643336869757652,856.25
686,1.4644117885247612,-1.2868828218534905,1.8298286013148868,-0.545872579154973,-4.829054079824792,-3.499183234478928,857.5
687,1.464411851102076,-1.2868828442840794,1.8298285607082125,-0.5458725165683413,-4.829054016686575,-3.3368165037636714,858.75
688,1.4644119040400325,-1.2868828691125982,1.8298285206179943,-0.5458724520295352,-4.8290539631685805,-3.184449773048302,860.0
689,1.4644119437779957,-1.286882898665143,1.8298284798228732,-0.5458723819646691,-4.829053922798405,-3.0420830423327807,861.25
690,1.4644119751092006,-1.2868829284341454,1.8298284413163182,-0.545872313910665,-4.8290538908521015,-2.9097163116171414,862.5
691,1.4644119934920588,-1.2868829602734964,1.829828404631742,-0.5458722455135756,-4.829053871849183,-2.7873495809013322,863.75
692,1.4644120103726408,-1.2868829895108798,1.82982837094508,-0.5458721827060028,-4.829053854399213,-2.6749828501854345,865.0
693,1.464412012340226,-1.2868830191443288,1.8298283413063494,-0.545872123441645,-4.8290538518923825,-2.5726161194694437,866.25
694,1.4644120131863618,-1.286883046090679,1.8298283146357202,-0.5458720698249131,-4.829053850558257,-2.4802493887533137,867.5
695,1.4644120139408914,-1.2868830701197043,1.829828290852559,-0.5458720220129479,-4.829053849368568,-2.397882658037153,868.75
696,1.4644120065821644,-1.2868830916783751,1.8298282719048902,-0.5458719814483087,-4.829053856356963,-2.325515927320899,870.0
697,1.4644119983093116,-1.2868831103655551,1.8298282560444386,-0.5458719468363527,-4.829053864313548,-2.263149196604616,871.25
698,1.4644119913629434,-1.2868831260563955,1.8298282427270793,-0.5458719177741431,-4.829053870994358,-2.2107824658883017,872.5
699,1.4644119857430602,-1.2868831387508968,1.8298282319528143,-0.54587189426168,-4.829053876399393,-2.168415735171952,873.75
700,1.4644119814496621,-1.2868831484490608,1.829828223721645,-0.5458718762989638,-4.829053880528655,-2.1360490044556126,875.0
701,1.464411978482749,-1.286883155150888,1.8298282180335712,-0.5458718638859946,-4.8290538833821435,-2.1136822737392973,876.25
702,1.464418400561259,-1.2868282491519796,1.829753540086279,-0.5458520985531378,-4.82904734900648,-2.101246150674606,877.5
703,1.464808730533732,-1.2834917230026808,1.8252160097467025,-0.5446514971225048,-4.82865019923221,-2.09650600201079,878.75
704,1.465191333782835,-1.2802212507282373,1.820768316320407,-0.5434746717015698,-4.828260912929042,-2.1014611264100584,880.0
705,1.4651957990878806,-1.2801830872440196,1.8207164244745373,-0.5434609503585827,-4.828256374001022,-2.1141149081479944,881.25
706,1.4651958010166024,-1.2801830809979893,1.8207164316926696,-0.5434609681319891,-4.828256379887989,-2.1367193232901682,882.5
707,1.4651958037985742,-1.2801830719887684,1.8207164421040414,-0.5434609937681986,-4.8282563883793,-2.1693237384323774,883.75
708,1.4651958074337958,-1.2801830602163569,1.8207164557086533,-0.5434610272672111,-4.828256399474954,-2.211928153574574,885.0
709,1.4651958117894337,-1.280183045532392,1.8207164719536668,-0.5434610663387205,-4.828256414244896,-2.264532560519365,886.25
710,1.4651958168012147,-1.2801830278650859,1.820716490571588,-0.5434611098745451,-4.828256433206828,-2.327136957717705,887.5
711,1.4651958210296352,-1.2801830072218296,1.8207165119307855,-0.5434611580139966,-4.828256450223223,-2.399741351052054,888.75
712,1.465195820214166,-1.280182983188664,1.8207165354055297,-0.5434612044345338,-4.82825645191356,-2.4823457316646067,890.0
713,1.465195819319443,-1.2801829562390805,1.820716561702663,-0.5434612564102571,-4.82825645364695,-2.574950105625846,891.25
714,1.465195816974119,-1.2801829266919136,1.820716590970943,-0.5434613138964368,-4.82825645675617,-2.6775544725501614,892.5
715,1.465195800180177,-1.280182897572454,1.8207166246434705,-0.5434613765560058,-4.828256474064163,-2.7901588288592247,893.75
716,1.465195781895198,-1.280182865867907,1.8207166613096224,-0.5434614447935147,-4.828256492906297,-2.912763177103292,895.0
717,1.4651957503306487,-1.2801828363884828,1.8207166997535673,-0.5434615124923996,-4.828256525062891,-3.0453675193553176,896.25
718,1.4651957107984084,-1.2801828069661492,1.8207167405215015,-0.543461582402053,-4.828256565227444,-3.1879718595415114,897.5
719,1.4651956577651315,-1.2801827824912455,1.8207167804504367,-0.543461646423591,-4.828256618837485,-3.3405761952587634,898.75
720,1.4651955955258387,-1.2801827601572482,1.820716821020669,-0.5434617088766304,-4.828256681637866,-3.503180524610282,900.0
721,1.4651955216707007,-1.2801827490017044,1.8207168540561338,-0.5434617525289571,-4.828256755880657,-3.6681610940661034,901.25
722,1.465195450229857,-1.2801827412357534,1.8207168830340914,-0.5434617887511467,-4.828256827641665,-3.823302594686334,902.5
723,1.4651953784144733,-1.2801827452248349,1.820716900552866,-0.5434618017538548,-4.82825689956519,-3.968444095306719,903.75
724,1.4651953115674328,-1.2801827495874007,1.8207169162203478,-0.5434618125681047,-4.828256966501127,-4.103585595927257,905.0
725,1.4651952499726408,-1.2801827633522884,1.8207169210642677,-0.5434618031929289,-4.82825702800128,-4.228727096547932,906.25
726,1.4651951932998604,-1.2801827760172242,1.8207169255211038,-0.5434617945669169,-4.828257084586983,-4.3438685971687105,907.5
727,1.4651951444235412,-1.2801827925635734,1.820716923829117,-0.5434617759669532,-4.828257133286321,-4.449010097789607,908.75
728,1.4651951016354332,-1.2801828100309742,1.8207169194124428,-0.5434617537656556,-4.828257175865467,-4.544151598410569,910.0
729,1.4651950633446376,-1.2801828256624324,1.8207169154599852,-0.5434617338978601,-4.828257213969262,-4.62929309903164,911.25
730,1.4651950325105956,-1.2801828416605487,1.8207169089198882,-0.5434617111303164,-4.8282572445909295,-4.7044345996527674,912.5
731,1.4651950083543899,-1.280182857445606,1.8207169005953936,-0.5434616868404019,-4.8282572685218454,-4.769576100273953,913.75
732,1.4651949879064512,-1.2801828708074667,1.8207168935488072,-0.5434616662792798,-4.82825728877908,-4.824717600895167,915.0
733,1.4651949711667789,-1.2801828817461312,1.8207168877801285,-0.5434616494469497,-4.828257305362631,-4.869859101516412,916.25
734,1.4651949581353734,-1.2801828902616006,1.8207168832893599,-0.5434616363434124,-4.828257318272501,-4.905000602137654,917.5
735,1.4651949488122344,-1.2801828963538755,1.8207168800765015,-0.5434616269686678,-4.828257327508689,-4.930142102758886,918.75
736,1.465194943197362,-1.2801829000229559,1.8207168781415537,-0.543461621322716,-4.828257333071195,-4.945283603380101,920.0
737,1.46544959799696,-1.277979256826593,1.8177034993368344,-0.5426521475721103,-4.8279980998504906,-4.952193779756104,921.25
738,1.4659079008779063,-1.2740133972180727,1.8122803789857351,-0.541195358360097,-4.8275315583384755,-4.949868325126038,922.5
739,1.46596835638818,-1.2734902793332583,1.811565045465544,-0.5410032058007406,-4.827470019929839,-4.93948067559621,923.75
740,1.465968362667959,-1.2734902748203467,1.8115650486752641,-0.541003215257893,-4.827470021181502,-4.919674248841671,925.0
741,1.465968372118314,-1.2734902680289264,1.8115650535055292,-0.541003229489835,-4.827470023065113,-4.889867822087095,926.25
742,1.4659683847392457,-1.2734902589589971,1.8115650599563387,-0.5410032484965669,-4.8274700255806735,-4.85006139533253,927.5
743,1.4659684005596112,-1.273490247674113,1.8115650682569797,-0.541003273208267,-4.827470028499414,-4.800254972735,928.75
744,1.4659684197030105,-1.2734902344464776,1.811565079389502,-0.541003307608949,-4.827470030841514,-4.740448569238904,930.0
745,1.4659684420473043,-1.2734902190070996,1.8115650923834503,-0.5410033477616375,-4.827470033575226,-4.670642165742877,931.25
746,1.4659684772785835,-1.2734902043951712,1.8115650968950785,-0.5410033687684077,-4.827469999478257,-4.5908357779858875,932.5
747,1.4659685174584185,-1.2734901881137501,1.8115651014016998,-0.5410033910255923,-4.827469959017279,-4.5010293941616375,933.75
748,1.465968562140403,-1.2734901700086383,1.8115651063797729,-0.5410034156592546,-4.827469913816176,-4.401223019888505,935.0
749,1.4659686150064453,-1.273490156581634,1.8115651038889116,-0.5410034272097962,-4.82746986087352,-4.2914166551636574,936.25
750,1.4659686735789843,-1.2734901434943064,1.81156509925109,-0.5410034360604334,-4.827469802339884,-4.171610297982849,937.5
751,1.4659687371763086,-1.2734901337407942,1.8115650898149909,-0.5410034368235266,-4.827469738729223,-4.041803947791606,938.75
752,1.4659688058792408,-1.2734901299352612,1.811565072978484,-0.5410034242977924,-4.82746966992367,-3.9019976014595734,940.0
753,1.465968877337665,-1.273490130739246,1.8115650507602457,-0.541003401801023,-4.827469598271444,-3.7521912578125765,941.25
754,1.465968949919447,-1.273490139843878,1.8115650200015008,-0.5410033624709157,-4.827469525340758,-3.5923849208234273,942.5
755,1.4659690181533416,-1.2734901571534911,1.811564982436551,-0.5410033080958054,-4.827469456619527,-3.4261019702974087,943.75
756,1.4659690781937644,-1.2734901787193147,1.8115649431211933,-0.5410032476527402,-4.827469396034942,-3.2681672553159817,945.0
757,1.4659691219856001,-1.2734902070550447,1.811564901985873,-0.541003178498588,-4.827469351616736,-3.12023254033445,946.25
758,1.4659691599638727,-1.2734902353403066,1.811564862643321,-0.5410031111448225,-4.8274693130276916,-2.9822978253527914,947.5
759,1.4659691826015149,-1.2734902667136565,1.8115648248476532,-0.5410030421361061,-4.827469289761789,-2.8543631103706373,948.75
760,1.465969200079958,-1.2734902970185544,1.811564789654739,-0.5410029767607838,-4.82746927168756,-2.7364283953884074,950.0
761,1.4659692106110471,-1.273490325974754,1.8115647578776632,-0.5410029160990628,-4.827469260602775,-2.6284936804061227,951.25
762,1.4659692114990173,-1.273490354184486,1.8115647297293846,-0.5410028597416702,-4.827469259199042,-2.5305589654238596,952.5
763,1.4659692122963182,-1.2734903795137493,1.811564704455288,-0.5410028091388644,-4.827469257938644,-2.442624250441553,953.75
764,1.4659692105574154,-1.2734904020980007,1.8115646826546716,-0.5410027647364298,-4.827469259270821,-2.36468953545922,955.0
765,1.4659692016712134,-1.2734904221926349,1.811564665457511,-0.541002727374898,-4.827469267813662,-2.296754820476894,956.25
766,1.4659691940930617,-1.273490439329336,1.8115646507917746,-0.5410026955129891,-4.827469275098995,-2.2388201054945784,957.5
767,1.46596918782296,-1.273490453508101,1.8115646386574598,-0.5410026691507026,-4.82746928112682,-2.1908853905123284,958.75
768,1.4659691828609085,-1.2734904647289338,1.81156462905457,-0.5410026482880392,-4.8274692858971395,-2.1529506755300813,960.0
769,1.4659691792069074,-1.273490472991834,1.8115646219831056,-0.541002632924999,-4.827469289409951,-2.1250159605478087,961.25
770,1.4659691768609568,-1.2734904782968015,1.8115646174430666,-0.5410026230615816,-4.827469291665255,-2.1070812455655243,962.5
771,1.4660950415084881,-1.272387868890863,1.8100486430966265,-0.5405893871378099,-4.8273410992372074,-2.09809047179722,963.75
772,1.4665657432835801,-1.2682644179005433,1.8043793446776315,-0.5390440224178985,-4.826861692741933,-2.097623083499083,965.0
773,1.4667323525462976,-1.2668048883299345,1.8023726554723096,-0.5384970351314342,-4.826692005079097,-2.1059209762091746,966.25
774,1.4667323539877453,-1.2668048836957617,1.8023726608670043,-0.5384970483512961,-4.826692009422957,-2.122910940970475,967.5
775,1.4667323562776038,-1.266804876333995,1.8023726694369233,-0.5384970693521407,-4.826692016323538,-2.1499009057317764,968.75
776,1.4667323594158737,-1.2668048662446343,1.8023726811820664,-0.5384970981339677,-4.82669202578084,-2.186890870493093,970.0
777,1.4667323634025546,-1.2668048534276795,1.8023726961024336,-0.5384971346967773,-4.826692037794863,-2.233880835254382,971.25
778,1.4667323679741386,-1.2668048375816399,1.8023727130799885,-0.5384971744341129,-4.82669205451411,-2.2908707952761045,972.5
779,1.4667323733145543,-1.2668048189169556,1.8023727328951207,-0.5384972205612797,-4.826692074438926,-2.3578607547408432,973.75
780,1.4667323747428114,-1.2668047970111986,1.8023727549916866,-0.5384972666620047,-4.826692082749942,-2.434850703087981,975.0
781,1.466732373893944,-1.2668047720222981,1.8023727796045579,-0.5384973151360997,-4.82669208451198,-2.52184064600597,976.25
782,1.4667323729829553,-1.266804744147867,1.8023728070107548,-0.5384973690633473,-4.8266920861786735,-2.6188305766744753,977.5
783,1.4667323639886662,-1.2668047152568285,1.8023728381198811,-0.5384974283100765,-4.826692095814513,-2.725820500683708,978.75
784,1.4667323467739677,-1.2668046853815302,1.8023728729491386,-0.5384974928804538,-4.826692113561604,-2.8428104166025356,980.0
785,1.4667323260186165,-1.2668046537980289,1.8023729105433732,-0.5384975619075627,-4.826692134890726,-2.9698003245965983,981.25
786,1.4667322885546845,-1.2668046258797852,1.8023729495314769,-0.5384976285442147,-4.826692172960055,-3.1067902270234273,982.5
787,1.4667322468191213,-1.2668045969281732,1.802372990831032,-0.538497698494178,-4.826692215331254,-3.2537801286063965,983.75
788,1.4667321875412505,-1.2668045756184514,1.8023730298252292,-0.5384977583627065,-4.826692275149439,-3.410770023195582,985.0
789,1.4667321217789615,-1.2668045573030413,1.8023730677993368,-0.5384978141680962,-4.826692341413694,-3.575103379645596,986.25
790,1.4667320510982753,-1.266804548421909,1.8023730978900736,-0.5384978526174208,-4.826692412436179,-3.731784955382375,987.5
791,1.4667319824053389,-1.2668045458164179,1.802373121153651,-0.5384978779774032,-4.826692481351079,-3.8784665311191944,988.75
792,1.466731915693241,-1.266804549502205,1.8023731375766308,-0.5384978902189141,-4.8266925481650365,-4.015148106856062,990.0
793,1.466731853980147,-1.2668045566665378,1.8023731490422454,-0.5384978940608853,-4.826692609903676,-4.141829682592969,991.25
