AdelaJim/TFM_AdelaJimenez/workspace/ros_ur_driver/src/trayectories/data/saved_trajectories/20250204_1919_trajectory.csv
,shoulder_pan_joint,shoulder_lift_joint,elbow_joint,wrist_1_joint,wrist_2_joint,wrist_3_joint,time_from_start
0,-1.4254005968803487,-2.805196500629999,-0.6962179532544991,0.44144396639199684,1.3128354378383191,0.10857897270815799,0.0
1,-1.4250394212043036,-2.8026507546984725,-0.7012179532544991,0.44364428195585676,1.3127249564745742,0.1101219309832724,1.25
2,-1.4239558941761685,-2.7950135169038934,-0.7162179532544991,0.4502452286474365,1.3123935123833397,0.11475080580861566,2.5
3,-1.4221500157959432,-2.7822847872462617,-0.741217953254499,0.46124680646673594,1.311841105564615,0.12246559718418774,3.75
4,-1.4196217860636278,-2.7644645657255773,-0.7762179532544987,0.47664901541375515,1.3110677360184009,0.1332663051099886,5.0
5,-1.416371160862958,-2.741552838477596,-0.8212179527549722,0.4964518281413829,1.310073385501145,0.14715305136466972,6.25
6,-1.412178371327665,-2.713479519935548,-0.8762175611928565,0.5205200290260249,1.308767188530135,0.16473271538357626,7.5
7,-1.406666811026069,-2.6801244229732033,-0.9412162844675855,0.5486219909816911,1.306993435032893,0.1870452938826892,8.75
8,-1.39956895937916,-2.641402243013964,-1.0162138555189553,0.5805949571405905,1.3046408626433044,0.21482321265601545,10.0
9,-1.390533820185845,-2.5972083325989157,-1.1012100702326342,0.6163409109755006,1.3015199651324356,0.24860620590405436,11.25
10,-1.3790053264884348,-2.5473736491746517,-1.1962044241879226,0.6556514912959076,1.2973477828252336,0.2894376126749618,12.5
11,-1.3642802055806231,-2.4916925181825205,-1.3011964601864605,0.6983862700904103,1.291684890782926,0.33812252989906955,13.75
12,-1.3462703151325404,-2.432479724660356,-1.4114082871191531,0.7424799984869307,1.2842673518986192,0.39312744409092204,15.0
13,-1.3270074686893767,-2.3773220526253613,-1.5125729741535447,0.7822796936890488,1.2757379928122137,0.44707217741531924,16.25
14,-1.3069984562061303,-2.3268468450841198,-1.6037322642459135,0.8175921785269049,1.2662411849949993,0.4984260205729718,17.5
15,-1.2866863195286091,-2.281190692078381,-1.6848844557103502,0.848570023180507,1.2559605037530512,0.546272257425918,18.75
16,-1.2665998942288572,-2.2405116601529733,-1.756027755111752,0.8753404553299252,1.2451848557265182,0.5898193336120798,20.0
17,-1.2473977979389173,-2.2049982056020068,-1.8171673063718718,0.8980276432298783,1.2343693074165167,0.6284259545453877,21.25
18,-1.2297346192456855,-2.1748381018354843,-1.868304794126582,0.9167446389191559,1.2239909791873562,0.661541924878692,22.5
19,-1.2143535335217088,-2.1502422991467407,-1.909442481237752,0.931610600686449,1.2146451264464178,0.6887169592946396,23.75
20,-1.2019238385711468,-2.1314023304483283,-1.9405786283547428,0.9427325386700508,1.2068853428437383,0.7095976512165465,25.0
21,-1.193087851203573,-2.118500600483515,-1.961713528309529,0.9502163307092208,1.2012708551647824,0.723929422244294,26.25
22,-1.1866206220924695,-2.1092297376110296,-1.9768323852808343,0.9555457671963142,1.197127087808671,0.7304990394158946,27.5
23,-1.1800493136018224,-2.099813149109463,-1.9921874991913617,0.9609580095923811,1.1929159818787058,0.7271326632604915,28.75
24,-1.1745191645414825,-2.09188846027774,-2.0051098909079745,0.965512819328483,1.1893721430700461,0.7137695283614326,30.0
25,-1.1717319692823667,-2.087894320284328,-2.011622987541645,0.967808565772565,1.1875861334675262,0.6917316370947129,31.25
26,-1.1716707359598066,-2.0878064015979882,-2.011766446763632,0.9678592164436338,1.1875470451177739,0.6644247548093676,32.5
27,-1.1716713306974427,-2.0878070191480838,-2.0117655692764664,0.967859023474685,1.1875476332809864,0.6272574063095571,33.75
28,-1.1716720872547342,-2.087807802943807,-2.01176445581895,0.9678587798183669,1.1875483948111143,0.5800900777746605,35.0
29,-1.1716730049557254,-2.0878087529508687,-2.0117631063457893,0.9678584850130012,1.1875493240406862,0.522922756720637,36.25
30,-1.1716738175729629,-2.087809599092269,-2.011761916806628,0.9678582339410671,1.1875501479714132,0.4557554368666632,37.5
31,-1.1716738297668905,-2.0878096344233037,-2.011761923853799,0.9678582760915909,1.1875501654213618,0.3785881208116886,38.75
32,-1.1716738435377103,-2.0878096741937573,-2.0117619319359292,0.9678583231191566,1.1875501851044645,0.29142080622788424,40.0
33,-1.1716738588836373,-2.0878097183284394,-2.011761941118828,0.9678583747073917,1.187550207005497,0.19425349363394429,41.25
34,-1.1716738875010435,-2.087809760025534,-2.011761952439492,0.9678584269827618,1.1875502364129153,0.08708619090247167,42.5
35,-1.1716739197302626,-2.087809805050522,-2.0117619649107046,0.9678584837681041,1.1875502689479895,-0.030081104363187505,43.75
36,-1.1716739607729125,-2.087809847808097,-2.0117619788694947,0.967858539811032,1.187550310297763,-0.15724839236451765,45.0
37,-1.1716740127195537,-2.0878098861939822,-2.0117619944631677,0.96785859318414,1.187550362573685,-0.2944156733598081,46.25
38,-1.1716740726267039,-2.0878099200671794,-2.011762011111116,0.9678586430271897,1.1875504227856277,-0.4415829461768691,47.5
39,-1.1716741431362028,-2.0878099438199027,-2.01176202863594,0.9678586835367744,1.1875504935369579,-0.5977125317974347,48.75
40,-1.1716742140545027,-2.0878099557574643,-2.011762044726754,0.9678587108178176,1.1875505646055136,-0.7484371874271589,50.0
41,-1.1716742827153854,-2.087809957460753,-2.0117620590393672,0.9678587261308735,1.1875506333351717,-0.8891618430568489,51.25
42,-1.1716743462895107,-2.0878099499686016,-2.0117620711264266,0.967858730094245,1.1875506969024872,-1.019886498686545,52.5
43,-1.1716744048026309,-2.0878099344063332,-2.0117620811377983,0.9678587239804732,1.1875507553419802,-1.1406111543162452,53.75
44,-1.1716744580354195,-2.087809918801109,-2.0117620900597704,0.9678587167882113,1.1875508084965374,-1.2513358099459508,55.0
45,-1.1716745025747748,-2.087809892665616,-2.01176209584437,0.9678586960391757,1.187550852868792,-1.3520604655756585,56.25
46,-1.1716745426922395,-2.0878098691248717,-2.0117621010546665,0.9678586773501139,1.1875508928357459,-1.4427851212053713,57.5
47,-1.1716745783878129,-2.0878098481788743,-2.0117621056906634,0.9678586607210268,1.1875509283973982,-1.5235097768350878,58.75
48,-1.1716746043750619,-2.0878098224331927,-2.01176210771722,0.9678586367918618,1.187550954205574,-1.5942344324648117,60.0
49,-1.17167462647108,-2.087809800024523,-2.0117621093737705,0.9678586158622513,1.1875509761453062,-1.654959088094535,61.25
50,-1.171674644928376,-2.0878097813060634,-2.0117621107575205,0.96785859837928,1.187550994472054,-1.705683743724258,62.5
51,-1.1716746597469494,-2.0878097662778137,-2.0117621118684736,0.9678585843429497,1.1875510091858157,-1.7464083993539792,63.75
52,-1.1716746709267998,-2.0878097549397734,-2.0117621127066303,0.9678585737532612,1.187551020286591,-1.7771330549837017,65.0
53,-1.1716746784679275,-2.087809747291942,-2.011762113271991,0.9678585666102146,1.1875510277743806,-1.7978577106134221,66.25
54,-1.17181475225151,-2.0880565530023127,-2.011282339857266,0.9676254893953781,1.1876908380787956,-1.8089897923691276,67.5
55,-1.1733470494831468,-2.090756533496045,-2.0060338443129577,0.9650757766111824,1.189220253245657,-1.8121892378445004,68.75
56,-1.174387768838731,-2.092590338452793,-2.0024691134673342,0.9633440339633075,1.1902590138918563,-1.805882664622413,70.0
57,-1.1743877632785713,-2.0925903418834015,-2.002469114631007,0.9633440309968095,1.190259005463607,-1.791555653850054,71.25
58,-1.174387753837519,-2.092590347708515,-2.0024691166069033,0.9633440259597486,1.1902589911525896,-1.7672286430776938,72.5
59,-1.1743877405155734,-2.092590355928133,-2.0024691193950224,0.9633440188521246,1.1902589709588034,-1.7329016323053354,73.75
60,-1.1743877233127349,-2.0925903665422556,-2.002469122995365,0.9633440096739376,1.1902589448822485,-1.6885746215329784,75.0
61,-1.174387702738861,-2.0925903791422753,-2.0024691278260436,0.9633439969484248,1.1902589172097542,-1.634247625231473,76.25
62,-1.1743876787028238,-2.0925903938012236,-2.002469133812329,0.9633439809395258,1.1902588871751374,-1.569920637401776,77.5
63,-1.1743876489577894,-2.0925904116169463,-2.002469136098262,0.9633439764000892,1.1902588540380545,-1.4955936562658927,78.75
64,-1.1743876121130508,-2.092590433208458,-2.002469131418727,0.9633439931714822,1.1902588189030479,-1.4112666849259674,80.0
65,-1.1743875709076734,-2.092590457430824,-2.0024691261230716,0.9633440122315088,1.1902587796744057,-1.3169397225165977,81.25
66,-1.1743875240570767,-2.092590480573258,-2.0024691194868205,0.9633440290938403,1.19025873445326,-1.2126127670379883,82.5
67,-1.1743874689913782,-2.0925904952340013,-2.002469110028813,0.9633440349131227,1.1902586794697443,-1.0982858201743675,83.75
68,-1.1743874091066764,-2.092590511177888,-2.0024690997425423,0.963344041243539,1.1902586196558844,-0.9739588830529269,85.0
69,-1.1743873440340282,-2.0925905121561867,-2.002469086480472,0.9633440296359165,1.1902585545339708,-0.8396319514217762,86.25
70,-1.17438727405376,-2.092590510437759,-2.0024690718650535,0.9633440140192115,1.190258484479327,-0.6953050208712751,87.5
71,-1.1743872038787955,-2.0925904906714514,-2.002469054883484,0.9633439780287153,1.1902584140914396,-0.5409780959086549,88.75
72,-1.1743871306968934,-2.0925904649019627,-2.0024690365096904,0.9633439346862236,1.1902583406477891,-0.37667201968049335,90.0
73,-1.1743870691950316,-2.0925904195267626,-2.002469018011494,0.9633438715358289,1.1902582787400595,-0.21325817430514465,91.25
74,-1.1743870154629452,-2.092590372869591,-2.0024690009462143,0.9633438084597938,1.190258224598414,-0.05984432892979769,92.5
75,-1.1743869762492682,-2.0925903180934107,-2.0024689858208076,0.9633437390735544,1.1902581849234295,0.0835695164455509,93.75
76,-1.1743869435410952,-2.0925902649256853,-2.002468972240797,0.963343672771402,1.1902581517718729,0.21698336182090205,95.0
77,-1.1743869252323866,-2.092590208738297,-2.002468961233409,0.9633436058816287,1.1902581330078918,0.3403972071962546,96.25
78,-1.1743869084071996,-2.0925901571036754,-2.002468951117921,0.9633435444118102,1.1902581157643226,0.4538110525716075,97.5
79,-1.1743869046902828,-2.0925901069313513,-2.0024689438871137,0.9633434871521375,1.190258111651203,0.5572248979469603,98.75
80,-1.17438690363887,-2.092590060997557,-2.0024689377508347,0.9633434351894095,1.190258110238982,0.6506387433223153,100.0
81,-1.174386902700012,-2.092590019981002,-2.0024689322714426,0.9633433887893166,1.1902581089779403,0.7340525886976877,101.25
82,-1.1743869086960035,-2.092589984049226,-2.002468928873803,0.9633433494742973,1.1902581146972657,0.8074664340730531,102.5
83,-1.1743869167339074,-2.0925899530820677,-2.0024689265360096,0.9633433161524633,1.1902581224990778,0.8708802794484105,103.75
84,-1.17438692350428,-2.092589926998254,-2.00246892456687,0.9633432880852909,1.190258129070589,0.9242941248237622,105.0
85,-1.1743869290071216,-2.0925899057977846,-2.0024689229663863,0.9633432652727802,1.190258134411799,0.9677079701991123,106.25
86,-1.1743869332424315,-2.092589889480658,-2.0024689217345597,0.9633432477149321,1.190258138522708,1.0011218155744617,107.5
87,-1.1743869362102102,-2.092589878046874,-2.0024689208713906,0.9633432354117465,1.190258141403316,1.0245356609498157,108.75
88,-1.1743890208218415,-2.0925936006566985,-2.0024616651790335,0.9633397007636416,1.190260221902343,1.0379556710351412,110.0
89,-1.1755665843845426,-2.0947018612865875,-1.9983599761257889,0.9613453892704533,1.1914354886507301,1.0435754796516945,111.25
90,-1.1769921550140987,-2.0972541506569145,-1.9933944249374298,0.9589310560788745,1.192858278535251,1.0395067455880733,112.5
91,-1.1770619856555826,-2.0973791796842236,-1.9931511871190406,0.9588127882109493,1.1929279723345214,1.0276747997437332,113.75
92,-1.1770619827848887,-2.0973791871938063,-1.993151190516835,0.9588127868618463,1.1929279683000238,1.0060604640611377,115.0
93,-1.177061978586051,-2.097379198177742,-1.993151195486639,0.9588127848885727,1.192927962398942,0.9744461283785462,116.25
94,-1.1770619730590697,-2.09737921263603,-1.9931512020284525,0.9588127822911285,1.1929279546312757,0.932831792695953,117.5
95,-1.1770619659093995,-2.0973792306802945,-1.993151210010069,0.9588127794001362,1.1929279425063577,0.8812174629575176,118.75
96,-1.177061956799314,-2.0973792524385235,-1.9931512192799015,0.9588127765946876,1.1929279231683863,0.8196031438659419,120.0
97,-1.1770619477773743,-2.0973792790924266,-1.9931512291881495,0.9588127793637017,1.1929279037710725,0.7479888269966196,121.25
98,-1.1770619484841012,-2.097379319037106,-1.993151234405539,0.958812824810541,1.192927903261854,0.6663745244321966,122.5
99,-1.1770619492832533,-2.097379363917868,-1.9931512402257758,0.9588128760041891,1.1929279027397746,0.5747602273236915,123.75
100,-1.1770619501778208,-2.0973794137561255,-1.9931512466301804,0.9588129330360903,1.1929279022302344,0.47314593745003614,125.0
101,-1.177061966532362,-2.097379464239416,-1.9931512565071074,0.9588129932090815,1.1929279190098505,0.36153165924253,126.25
102,-1.1770619844667265,-2.097379519212982,-1.9931512672912983,0.9588130587497208,1.1929279374342627,0.2399173882182427,127.5
103,-1.1770620136300853,-2.097379572978123,-1.9931512802455842,0.958813125092373,1.1929279670681079,0.1083031235606773,128.75
104,-1.177062052111115,-2.0973796266573967,-1.9931512951182246,0.9588131931367463,1.192928006008097,-0.03331113836732824,130.0
105,-1.1770621021188705,-2.0973796752113776,-1.993151311703911,0.9588132576626147,1.1929280564421088,-0.18492539645472814,131.25
106,-1.1770621625656414,-2.097379719741003,-1.9931513299207364,0.9588133196980038,1.1929281172906014,-0.34653964808506715,132.5
107,-1.1770622337073342,-2.097379749296009,-1.993151348405924,0.9588133669491182,1.1929281887246181,-0.5121583529417855,133.75
108,-1.1770623033417682,-2.0973797726656342,-1.993151365780696,0.9588134069327799,1.1929282586012846,-0.6682864219627925,135.0
109,-1.1770623736942567,-2.097379774613078,-1.9931513805337804,0.9588134229099118,1.1929283290273507,-0.8144144909837888,136.25
110,-1.1770624392895885,-2.0973797762068465,-1.9931513942605634,0.958813437556446,1.192928394689531,-0.9505425600047785,137.5
111,-1.177062499681076,-2.0973797608642037,-1.9931514047249888,0.958813432092747,1.1929284550097523,-1.0766706290257637,138.75
112,-1.1770625552696392,-2.097379746090948,-1.9931514142730278,0.95881342632997,1.1929285105275749,-1.1927986980467387,140.0
113,-1.1770626036490999,-2.097379725165372,-1.9931514215396624,0.9588134122200134,1.1929285587817233,-1.2989267670677096,141.25
114,-1.1770626456302855,-2.0973797005727346,-1.9931514270133461,0.9588133927231139,1.1929286006033315,-1.3950548360886765,142.5
115,-1.177062683244259,-2.0973796785384193,-1.9931514319176076,0.958813375254433,1.1929286380743278,-1.481182905109642,143.75
116,-1.1770627141313161,-2.0973796557707067,-1.9931514353404762,0.9588133556412711,1.19292866880705,-1.5573109741306066,145.0
117,-1.1770627378963439,-2.0973796317184243,-1.9931514371292485,0.9588133331849421,1.192928692401703,-1.6234390431515697,146.25
118,-1.1770627580675836,-2.0973796113033694,-1.9931514386475189,0.9588133141244973,1.1929287124283325,-1.679567112172536,147.5
119,-1.1770627746450355,-2.097379594525543,-1.9931514398952852,0.9588132984599353,1.1929287288869386,-1.7256951811935117,148.75
120,-1.177062787628699,-2.097379581384944,-1.993151440872551,0.9588132861912584,1.1929287417775205,-1.761823250214483,150.0
121,-1.177062797018574,-2.097379571881572,-1.9931514415793163,0.9588132773184663,1.1929287511000786,-1.7879513192354557,151.25
122,-1.1770628028146606,-2.0973795660154266,-1.9931514420155814,0.9588132718415596,1.1929287568546125,-1.8040793882564274,152.5
123,-1.1777848658454204,-2.0986930431327337,-1.9905939244977862,0.9575687125295016,1.1936493599396651,-1.8117602172446228,153.75
124,-1.179371272416926,-2.101578832770781,-1.984974914082087,0.9548343506583706,1.1952325585572634,-1.810389879397099,155.0
125,-1.179700700994073,-2.1021780963010186,-1.9838080746302431,0.9542665329275549,1.19556131908957,-1.8006525207179733,156.25
126,-1.1797006937527121,-2.102178100765716,-1.9838080761544532,0.9542665290883795,1.1955613080321728,-1.7817742759318294,157.5
127,-1.179700682675528,-2.102178107595409,-1.983808078486053,0.9542665232155532,1.1955612911175588,-1.7528960311456867,158.75
128,-1.1797006677625206,-2.102178116790098,-1.9838080816250423,0.9542665153090762,1.195561268345728,-1.7140177863595423,160.0
129,-1.1797006490770916,-2.102178128297639,-1.9838080856250937,0.9542665051794342,1.1955612402555593,-1.665139543582777,161.25
130,-1.1797006273227257,-2.1021781415394636,-1.9838080910817406,0.9542664907238196,1.1955612128263255,-1.606261322074285,162.5
131,-1.1797006018735534,-2.1021781570303073,-1.9838080974651564,0.9542664738130332,1.1955611807384536,-1.5373831005657919,163.75
132,-1.179700568486458,-2.102178176652454,-1.9838080946846102,0.9542664845938713,1.1955611477069903,-1.458504893208514,165.0
133,-1.179700530130484,-2.1021781991045216,-1.9838080897833779,0.954266502048462,1.1955611111500348,-1.369626690133063,166.25
134,-1.17970048746971,-2.102178224168315,-1.983808084255491,0.954266521832083,1.1955610705719173,-1.2707484978436827,167.5
135,-1.1797004369808333,-2.102178241694618,-1.983808076094575,0.9542665316961436,1.1955610207620062,-1.161870314016001,168.75
136,-1.1797003804270836,-2.1021782567414657,-1.9838080663415947,0.9542665376273001,1.1955609642859475,-1.0429921379230698,170.0
137,-1.179700318983571,-2.1021782673209577,-1.9838080550047046,0.9542665375439074,1.195560902871148,-0.9141139691560357,171.25
138,-1.1797002524752114,-2.1021782657225643,-1.983808041058525,0.9542665226840503,1.1955608362909125,-0.7752358048533909,172.5
139,-1.179700182734618,-2.102178258026447,-1.9838080256538375,0.9542665003132177,1.19556076642802,-0.6263576426672892,173.75
140,-1.1797001123109487,-2.102178234436428,-1.983808008046382,0.9542664598859678,1.1955606957575575,-0.4674794872299336,175.0
141,-1.1797000445285362,-2.1021781993234834,-1.9838079894899003,0.9542664069836191,1.1955606276387774,-0.3011101542619836,176.25
142,-1.1796999854788393,-2.102178155888086,-1.9838079716578534,0.9542663464110744,1.1955605681937054,-0.14224962471794428,177.5
143,-1.1796999408660815,-2.1021781043481242,-1.983807955756871,0.9542662795338712,1.195560523133093,0.0066109048260840145,178.75
144,-1.1796999033673425,-2.102178052107737,-1.9838079412346012,0.9542662132635125,1.1955604851868706,0.1454714343701015,180.0
145,-1.1796998793870883,-2.102177997297342,-1.9838079291715471,0.9542661467491638,1.1955604607499681,0.27433196391410997,181.25
146,-1.1796998619732222,-2.1021779439861916,-1.9838079186593978,0.9542660832145833,1.1955604428968878,0.39319249345811425,182.5
147,-1.1796998500444986,-2.1021778940922005,-1.983807909723567,0.9542660246102084,1.195560430560758,0.5020530230021122,183.75
148,-1.1796998489473223,-2.102177846194965,-1.9838079032842513,0.9542659703839904,1.1955604290811412,0.6009135525461067,185.0
149,-1.1796998479611285,-2.102177803142663,-1.9838078974962827,0.9542659216428926,1.1955604277511918,0.6897740820900962,186.25
150,-1.1796998485403312,-2.1021777649702504,-1.9838078926646467,0.9542658787118823,1.195560428026819,0.768634611634088,187.5
151,-1.179699857162316,-2.102177731833425,-1.983807890147601,0.9542658430382225,1.1955604363920667,0.8374951411780791,188.75
152,-1.1796998645322068,-2.1021777035087648,-1.9838078879960834,0.95426581254513,1.1955604435425042,0.896355670722073,190.0
153,-1.179699870650004,-2.1021776799962715,-1.9838078862100905,0.9542657872326029,1.1955604494781316,0.945216200266072,191.25
154,-1.1796998755157069,-2.102177661295943,-1.9838078847896257,0.9542657671006431,1.1955604541989486,0.9840767298100717,192.5
155,-1.1796998791293163,-2.1021776474077796,-1.98380788373469,0.9542657521492509,1.1955604577049552,1.0129372593540709,193.75
156,-1.1796998814908317,-2.1021776383317814,-1.9838078830452832,0.9542657423784263,1.1955604599961518,1.031797788898071,195.0
157,-1.1800259377023485,-2.1027802418890604,-1.9826335800771533,0.9536938187081907,1.1958858330331816,1.0415225786629203,196.25
158,-1.1815897204583412,-2.105670392456763,-1.9770015425204126,0.9509508558024816,1.1974463393654846,1.0428869650587929,197.5
159,-1.1823012863808948,-2.106985498687654,-1.974438801467407,0.9497027272711194,1.1981564140000902,1.035204471127361,198.75
160,-1.182301284258129,-2.10698550421053,-1.9744388039883312,0.949702726274567,1.1981564109537002,1.0190813863594983,200.0
161,-1.1823012808187632,-2.1069855131588513,-1.9744388080728044,0.9497027246599241,1.1981564060178522,0.9929583015916352,201.25
162,-1.182301276062797,-2.106985525532619,-1.9744388137208269,0.9497027224271908,1.1981563991925455,0.9568352168237715,202.5
163,-1.1823012699902302,-2.1069855413318326,-1.9744388209323989,0.9497027195763671,1.1981563904777806,0.9107121320559091,203.75
164,-1.1823012619219337,-2.106985560825459,-1.9744388293898938,0.9497027169191536,1.1981563740682526,0.8545890610365059,205.0
165,-1.182301252242925,-2.1069855838610136,-1.9744388392733834,0.9497027139953735,1.1981563532551565,0.7884659932522732,206.25
166,-1.1823012481633128,-2.106985616486476,-1.974438846726375,0.9497027376865698,1.198156343363401,0.7123429351175506,207.5
167,-1.1823012489005131,-2.1069856580252972,-1.9744388521837712,0.9497027849948738,1.198156342834177,0.6262198838109928,208.75
168,-1.1823012497356438,-2.106985704473647,-1.9744388581986958,0.9497028381657306,1.1981563423494812,0.5300968437346744,210.0
169,-1.182301257280659,-2.1069857539311165,-1.9744388660596548,0.9497028958549152,1.1981563492990088,0.4239738104080174,211.25
170,-1.1823012741921943,-2.1069858056493063,-1.974438876271177,0.94970295758487,1.1981563666706185,0.30785078534648025,212.5
171,-1.1823012931758867,-2.106985861459575,-1.9744388874448529,0.9497030243368287,1.1981563861639448,0.18172776852734912,213.75
172,-1.1823013297093687,-2.106985912287057,-1.9744389016233967,0.9497030888617668,1.1981564231395467,0.04560475785080184,215.0
173,-1.182301369093188,-2.1069859666801,-1.9744389168562582,0.9497031579691743,1.1981564629963444,-0.10051825249608429,216.25
174,-1.1823014267685923,-2.106986009041513,-1.974438934309905,0.9497032171049515,1.1981565210606318,-0.25664125576569274,217.5
175,-1.1823014906377949,-2.106986049291314,-1.9744389527710993,0.9497032750774355,1.1981565853069962,-0.4222567177177009,218.75
176,-1.1823015618357742,-2.1069860730957,-1.97443897060954,0.9497033159403335,1.1981566567563577,-0.5838740026785322,220.0
177,-1.1823016309457532,-2.106986086531376,-1.974438986666379,0.949703344695634,1.1981567260326926,-0.735491287639392,221.25
178,-1.1823016983493968,-2.1069860881332,-1.974439000829978,0.9497033597656438,1.198156793506222,-0.8771085726003002,222.5
179,-1.1823017608270179,-2.106986082358893,-1.9744390130138278,0.9497033655454912,1.1981568559903308,-1.0087258575612452,223.75
180,-1.1823018183299672,-2.106986067085815,-1.9744390229316386,0.9497033596311,1.1981569134192824,-1.1303431425222044,225.0
181,-1.1823018710761193,-2.1069860529810893,-1.974439032016641,0.9497033540987001,1.1981569660967948,-1.2419604274831981,226.25
182,-1.1823019149114062,-2.1069860273427308,-1.9744390377558647,0.9497033338020551,1.1981570097632854,-1.3435777124442163,227.5
183,-1.1823019544329318,-2.1069860042274056,-1.9744390429302956,0.9497033155027698,1.1981570491326257,-1.4351949974052596,228.75
184,-1.182301989640695,-2.106985983635113,-1.9744390475399358,0.949703299200845,1.1981570842048146,-1.5168122823663148,230.0
185,-1.182302015832144,-2.1069859590233153,-1.9744390497597928,0.9497032765904612,1.1981571102207855,-1.5884295673273807,231.25
186,-1.1823020377054163,-2.106985936928407,-1.9744390514131491,0.949703255969643,1.1981571319351374,-1.6500468522884584,232.5
187,-1.182302056028829,-2.1069859184193303,-1.9744390527981763,0.9497032386954196,1.1981571501254216,-1.7016641372495473,233.75
188,-1.1823020708023826,-2.1069859034960823,-1.974439053914876,0.9497032247677919,1.1981571647916378,-1.743281422210643,235.0
189,-1.1823020820260761,-2.106985892158664,-1.9744390547632495,0.9497032141867613,1.1981571759337855,-1.7748987071717395,236.25
190,-1.1823020896999095,-2.106985884407075,-1.9744390553432973,0.9497032069523275,1.198157183551865,-1.7965159921328278,237.5
191,-1.18236801074304,-2.107109652214414,-1.9741976701319588,0.9495855461856189,1.1982229615031208,-1.8083486968655131,238.75
192,-1.1837302976725497,-2.109667614066997,-1.9692090211202617,0.9471539635406098,1.1995822918038308,-1.8124506439735348,240.0
193,-1.1848651482091401,-2.1117985281136726,-1.9650532247006782,0.9451283323312553,1.2007146781909779,-1.8068623686808982,241.25
194,-1.1848678413201312,-2.111803597596359,-1.9650433451362668,0.9451235136169784,1.2007173627204175,-1.793507574553289,242.5
195,-1.1848678324682542,-2.1118036030505145,-1.965043347009996,0.9451235089548871,1.200717349103977,-1.770162448900173,243.75
196,-1.1848678198246314,-2.1118036108409837,-1.9650433496863462,0.9451235022957658,1.2007173296548674,-1.7368173232470516,245.0
197,-1.1848678033892637,-2.1118036209677675,-1.965043353165318,0.9451234936396147,1.2007173043730883,-1.6934721975939333,246.25
198,-1.184867783569651,-2.11180363308687,-1.9650433578031212,0.9451234817295825,1.2007172767595649,-1.6401270843473539,247.5
199,-1.1848677604235072,-2.1118036471495722,-1.9650433636502065,0.9451234663876613,1.2007172473101293,-1.5767819819564535,248.75
200,-1.1848677321930052,-2.111803664065028,-1.9650433669744345,0.9451234588264357,1.200717214583327,-1.5034368846082555,250.0
201,-1.1848676966590292,-2.1118036848148782,-1.9650433624297754,0.9451234748744441,1.2007171807072008,-1.4200917985731152,251.25
202,-1.184867656869097,-2.1118037081126264,-1.9650433572880606,0.9451234930970953,1.2007171428315122,-1.3267467202903835,252.5
203,-1.1848676120392656,-2.1118037317085414,-1.9650433510948944,0.9451235107952868,1.2007170997998553,-1.2234016490801005,253.75
204,-1.1848675587760777,-2.1118037458726673,-1.9650433418703475,0.9451235163370014,1.2007170466189498,-1.1100565876032953,255.0
205,-1.1848675008115346,-2.111803761287193,-1.9650433318310274,0.9451235223697798,1.2007169887275808,-0.9867115349964803,256.25
206,-1.1848674378285668,-2.111803764024993,-1.965043319112496,0.9451235130550821,1.2007169257093941,-0.8533664882326009,257.5
207,-1.1848673700184582,-2.1118037624320873,-1.965043304832787,0.9451234978831649,1.2007168578247778,-0.7100214432154623,258.75
208,-1.1848673014717939,-2.111803745415133,-1.9650432883864,0.9451234651595983,1.2007167890807184,-0.5566764031607667,260.0
209,-1.184867229952219,-2.111803721548341,-1.9650432704287046,0.9451234241195513,1.2007167173067876,-0.39333136933015905,261.25
210,-1.184867168979803,-2.1118036783761247,-1.9650432521391374,0.9451233633731053,1.2007166559327325,-0.22896718897817728,262.5
211,-1.1848671147361072,-2.111803634336482,-1.965043235132637,0.9451233029748289,1.2007166012861301,-0.07457562806210155,263.75
212,-1.184867076221338,-2.1118035808215296,-1.9650432201530608,0.945123234985578,1.2007165623052096,0.06981593285399401,265.0
213,-1.1848670425110959,-2.111803529763789,-1.965043206491324,0.9451231707169339,1.200716528152817,0.20420749377009698,266.25
214,-1.1848670245112232,-2.1118034747894376,-1.9650431955784207,0.9451231051268048,1.2007165096925274,0.3285990546862056,267.5
215,-1.1848670079583843,-2.111803424234552,-1.965043185542811,0.9451230448095496,1.2007164927162852,0.4429906156023218,268.75
216,-1.1848670028961008,-2.111803375432162,-1.9650431781205193,0.9451229887362893,1.200716487254616,0.547382176518449,270.0
217,-1.1848670018629632,-2.111803330363577,-1.9650431720218444,0.9451229376713872,1.2007164858557653,0.641773737434585,271.25
218,-1.1848670009392779,-2.1118032900696364,-1.9650431665692687,0.9451228920163847,1.2007164846051113,0.7261652983507297,272.5
219,-1.1848670058692479,-2.111803254685288,-1.9650431629724476,0.9451228530564955,1.2007164892528641,0.8005568592668644,273.75
220,-1.1848670138344568,-2.111803224144318,-1.9650431606378618,0.9451228201611253,1.2007164969776596,0.8649484201830046,275.0
221,-1.1848670205626701,-2.1118031983463563,-1.965043158665835,0.9451227923744004,1.2007165035027956,0.9193399810991358,276.25
222,-1.1848670260538876,-2.1118031772914043,-1.9650431570563671,0.9451227696963211,1.2007165088282719,0.9637315420152601,277.5
223,-1.1848670303081092,-2.11180316097946,-1.9650431558094614,0.9451227521268886,1.2007165129540889,0.998123102931382,278.75
224,-1.184867033325335,-2.111803149410524,-1.9650431549251173,0.9451227396661023,1.200716515880246,1.022514663847512,280.0
225,-1.1848670351055652,-2.1118031425845953,-1.9650431544033344,0.9451227323139625,1.2007165176067436,1.0369062247636394,281.25
226,-1.185819378632281,-2.113619857823348,-1.9614973666368383,0.9433930624082759,1.2016667207879972,1.04329343456303,282.5
227,-1.1872545567624184,-2.116357649511026,-1.9561538726587433,0.9407864580727646,1.2030986732600861,1.0402141127915803,283.75
228,-1.187397752277944,-2.1166308201309647,-1.9556207197128788,0.9405263798257308,1.2032415462830641,1.0292147655845185,285.0
229,-1.1873977495957526,-2.1166308270718495,-1.9556207229093079,0.9405263785688279,1.2032415423531917,1.0086659262528963,286.25
230,-1.1873977456082851,-2.1166308373904847,-1.9556207276612645,0.940526376700259,1.2032415365108649,0.9781170869212733,287.5
231,-1.187397740315541,-2.11663085108687,-1.9556207339687486,0.9405263742200236,1.203241528756083,0.9375682475896461,288.75
232,-1.1873977335210457,-2.116630868242275,-1.9556207417360019,0.9405263713776255,1.2032415173912134,0.8870194123024495,290.0
233,-1.1873977247455962,-2.1166308890549175,-1.955620750729469,0.9405263687816043,1.203241498275718,0.8264705889997366,291.25
234,-1.1873977148180885,-2.116630913560054,-1.9556207610421905,0.9405263668902403,1.2032414766032544,0.755921766164277,292.5
235,-1.1873977154997666,-2.1166309518532755,-1.9556207661034821,0.940526410547351,1.2032414761159254,0.6753729592772109,293.75
236,-1.1873977162704825,-2.116630994930729,-1.9556207717662017,0.9405264597538647,1.2032414756064254,0.584824156535134,295.0
237,-1.1873977171360812,-2.1166310428324353,-1.955620777994663,0.9405265146813646,1.2032414751255618,0.48427536245001107,296.25
238,-1.1873977314133426,-2.1166310918020415,-1.9556207873353282,0.9405265729215337,1.2032414896306733,0.3737265787840055,297.5
239,-1.1873977487554437,-2.1166311447085855,-1.9556207978536846,0.9405266361394504,1.2032415074587337,0.253177802532689,298.75
240,-1.1873977753006553,-2.1166311974575707,-1.9556208102752184,0.9405267009708371,1.20324153448373,0.12262903304858283,300.0
241,-1.1873978125622773,-2.1166312491631496,-1.9556208248000901,0.9405267667105428,1.2032415722024634,-0.017919732992671685,301.25
242,-1.1873978594149688,-2.1166312975502084,-1.9556208408851525,0.9405268306002649,1.20324161949208,-0.16846849585046822,302.5
243,-1.1873979180040255,-2.116631340455854,-1.9556208586931256,0.9405268906228235,1.2032416784818438,-0.32901725215379996,303.75
244,-1.1873979863816035,-2.116631371320276,-1.9556208769598082,0.9405269389862951,1.203241747170398,-0.49510425316842327,305.0
245,-1.187398054787803,-2.116631394104873,-1.9556208941739646,0.9405269782334723,1.2032418158217033,-0.6522937364194655,306.25
246,-1.1873981233687665,-2.1166313981032303,-1.955620908963472,0.9405269963058784,1.203241884494634,-0.7994832196705316,307.5
247,-1.1873981878725102,-2.116631399600356,-1.9556209225771921,0.9405270107483706,1.2032419490664075,-0.9366727029216085,308.75
248,-1.1873982473398725,-2.1166313864004263,-1.9556209332179628,0.9405270076024758,1.2032420084775157,-1.0638621861726836,310.0
249,-1.1873983020773777,-2.1166313718679524,-1.955620942700293,0.9405270020170736,1.2032420631438012,-1.1810516694237798,311.25
250,-1.1873983502241368,-2.1166313527188385,-1.9556209502068822,0.9405269899165909,1.2032421111759661,-1.288241152674876,312.5
251,-1.1873983916414659,-2.116631328530022,-1.9556209556534645,0.940526970795984,1.203242152431755,-1.3854306359259836,313.75
252,-1.1873984287972936,-2.1166313068300386,-1.955620960539631,0.9405269536427274,1.2032421894426633,-1.4726201191770865,315.0
253,-1.1873984599659155,-2.1166312852242095,-1.9556209641927194,0.9405269354121113,1.2032422204619542,-1.5498096024281949,316.25
254,-1.1873984835286526,-2.1166312614663685,-1.955620965981776,0.9405269132482461,1.2032422438512191,-1.616999085679306,317.5
255,-1.1873985035844812,-2.116631241244473,-1.9556209675045617,0.9405268943830911,1.203242263759394,-1.6741885689304146,318.75
256,-1.1873985201334019,-2.116631224558526,-1.9556209687610737,0.9405268788166445,1.2032422801864797,-1.7213780521815094,320.0
257,-1.187398533175414,-2.116631211408525,-1.9556209697513163,0.9405268665489092,1.2032422931324747,-1.7585675354326051,321.25
258,-1.1873985427105174,-2.1166312017944695,-1.9556209704752896,0.9405268575798846,1.2032423025973797,-1.7857570186837017,322.5
259,-1.1873985487387122,-2.116631195716361,-1.955620970932993,0.9405268519095709,1.203242308581194,-1.8029465019347992,323.75
260,-1.1879258277848184,-2.1176530481203875,-1.9536250409369806,0.9395524592142097,1.2037683608953262,-1.8114383143709165,325.0
261,-1.1894442281635653,-2.120595692058712,-1.9478773471430975,0.9367465013128276,1.2052832284178394,-1.8111720933660582,326.25
262,-1.1898950330733509,-2.1214693556819597,-1.9461708759536833,0.9359134198553674,1.2057329826877208,-1.8022850091766027,327.5
263,-1.1898950264268866,-2.121469359774754,-1.9461708773685187,0.9359134163785334,1.2057329723878218,-1.784554693552494,328.75
264,-1.1898950160317785,-2.121469366175908,-1.9461708795813295,0.9359134109407454,1.2057329562787205,-1.7568243779283832,330.0
265,-1.1898950018880265,-2.1214693748854216,-1.9461708825921158,0.9359134035420029,1.2057329343604173,-1.7190940623042774,331.25
266,-1.1898949839956305,-2.1214693859032945,-1.9461708864008775,0.9359133941823062,1.2057329066329114,-1.6713637466801725,332.5
267,-1.1898949631103792,-2.121469398574552,-1.9461708916899854,0.9359133804567794,1.2057328796587463,-1.6136334533059877,333.75
268,-1.1898949386324749,-2.1214694134189847,-1.9461708979179082,0.9359133642739381,1.205732848229866,-1.545903160571586,335.0
269,-1.1898949070223144,-2.1214694320083285,-1.9461708964781173,0.935913370895336,1.2057328158358476,-1.4681728799920724,336.25
270,-1.1898948700678915,-2.121469453557176,-1.9461708917301606,0.935913387536916,1.2057327806137739,-1.3804426040722957,337.5
271,-1.1898948289135607,-2.1214694776558107,-1.9461708863569944,0.9359134064760316,1.2057327414850596,-1.2827123405037382,338.75
272,-1.1898947806833389,-2.1214694960426557,-1.946170878721925,0.9359134176683989,1.2057326941600288,-1.174982084053041,340.0
273,-1.18989472602618,-2.1214695105726182,-1.946170869212895,0.9359134233112513,1.2057326395827512,-1.0572518355684668,341.25
274,-1.189894666644194,-2.121469522815704,-1.9461708584206583,0.9359134254270416,1.2057325802463617,-0.929521594831445,342.5
275,-1.189894602276893,-2.1214695213402304,-1.9461708448046773,0.9359134110041116,1.2057325158071774,-0.7917913593190347,343.75
276,-1.1898945341447278,-2.121469516281919,-1.9461708299328364,0.9359133917879593,1.2057324475707565,-0.6440611252491266,345.0
277,-1.1898944659181763,-2.121469493600232,-1.9461708127247024,0.9359133526487786,1.205732379097964,-0.4863308980336395,346.25
278,-1.189894398514495,-2.1214694618645034,-1.9461707944980173,0.9359133034466848,1.205732311374304,-0.32009293345272893,347.5
279,-1.1898943404775306,-2.121469419425387,-1.9461707768175598,0.9359132440121232,1.2057322529375007,-0.16008866277119047,348.75
280,-1.189894294887295,-2.121469370754006,-1.946170760913318,0.9359131800053094,1.2057322069070586,-0.010084392089638156,350.0
281,-1.189894257995488,-2.12146931962634,-1.9461707465000215,0.935913114948144,1.205732169562454,0.12991987859193085,351.25
282,-1.1898942325761048,-2.1214692669928663,-1.9461707342810504,0.9359130504639015,1.2057321436879254,0.2599241492734964,352.5
283,-1.1898942154226093,-2.1214692147249843,-1.9461707238337569,0.9359129880307384,1.205732126089523,0.379928419955077,353.75
284,-1.18989420203863,-2.1214691661914222,-1.9461707146633487,0.9359129305623312,1.20573211229465,0.4899326906366729,355.0
285,-1.189894200958954,-2.1214691191266066,-1.9461707082517319,0.9359128771913093,1.205732110826928,0.5899369613182704,356.25
286,-1.1898941999872414,-2.1214690767680753,-1.9461707024812438,0.9359128291571599,1.2057321095059723,0.6799412319998698,357.5
287,-1.1898941994056966,-2.1214690391222946,-1.9461706974115853,0.9359127865231204,1.2057321086142876,0.7599455026814771,358.75
288,-1.1898942079618127,-2.1214690063898196,-1.946170694893174,0.935912751249323,1.2057321169086714,0.8299497733630815,360.0
289,-1.1898942152957008,-2.121468978333128,-1.9461706927345137,0.9359127210143323,1.2057321240182153,0.8899540440446868,361.25
290,-1.1898942214073613,-2.1214689549522197,-1.9461706909356016,0.9359126958181466,1.2057321299429196,0.9399583147262788,362.5
291,-1.1898942262967942,-2.121468936247094,-1.9461706894964403,0.9359126756607674,1.2057321346827843,0.9799625854078717,363.75
292,-1.1898942299639994,-2.1214689222177507,-1.946170688417031,0.9359126605421951,1.2057321382378092,1.0099668560894657,365.0
293,-1.189894232408977,-2.1214689128641897,-1.9461706876973737,0.9359126504624297,1.2057321406079944,1.029971126771057,366.25
294,-1.1900796568955812,-2.1218339641904063,-1.9454571121923097,0.9355640209147008,1.2059171186310165,1.0405568372694567,367.5
295,-1.1915049811064156,-2.124640102943223,-1.9399719532150779,0.9328841905978734,1.2073390112092577,1.043106299620158,368.75
296,-1.192357065727933,-2.126317668592448,-1.9366928228501654,0.9312821379752833,1.2081890439192602,1.0363193013368568,370.0
297,-1.1923570638003775,-2.126317673553903,-1.9366928251557758,0.931282137073927,1.2081890410363607,1.0214251549725137,371.25
298,-1.1923570605786524,-2.1263176818465035,-1.9366928290093837,0.9312821355673959,1.208189036217869,0.9965310086081736,372.5
299,-1.1923570560627579,-2.126317693470248,-1.9366928344109895,0.9312821334556902,1.2081890294637851,0.9616368622438327,373.75
300,-1.1923570502526935,-2.1263177084251375,-1.936692841360593,0.9312821307388095,1.2081890207741093,0.9167427158794949,375.0
301,-1.192357042602271,-2.1263177269469944,-1.9366928495807663,0.9312821281522361,1.2081890053790354,0.8618485787980327,376.25
302,-1.1923570332889197,-2.1263177489592118,-1.936692859161632,0.9312821254570475,1.2081889848280387,0.796954445946666,377.5
303,-1.1923570279668787,-2.126317778989292,-1.9366928671709998,0.9312821429409208,1.2081889722118102,0.7220603206655678,378.75
304,-1.1923570286773022,-2.1263178187772356,-1.9366928724624166,0.9312821883503855,1.2081889717061975,0.6371662041549783,380.0
305,-1.1923570294820691,-2.1263178633233926,-1.9366928783127288,0.9312822394156118,1.208188971234768,0.5422720973952518,381.25
306,-1.1923570350255237,-2.126317911297119,-1.936692885633183,0.931282295213808,1.2081889759920539,0.4373779975352373,382.5
307,-1.1923570513527468,-2.1263179609976604,-1.9366928955820213,0.9312823546732403,1.2081889927745426,0.32248390617788986,383.75
308,-1.1923570691030725,-2.126318015022053,-1.9366929063987535,0.9312824193006751,1.2081890110354976,0.1975898240446617,385.0
309,-1.1923571031163038,-2.126318064694127,-1.9366929200594651,0.9312824821876121,1.2081890454974722,0.06269574782317834,386.25
310,-1.192357141066645,-2.1263181172206176,-1.9366929349216573,0.9312825490762644,1.2081890839196872,-0.08219832759710717,387.5
311,-1.192357195253568,-2.126318159666295,-1.9366929518479132,0.9312826078019252,1.2081891385066932,-0.2370923970771108,388.75
312,-1.1923572558647813,-2.12631820096536,-1.9366929699658244,0.9312826665086287,1.208189199513817,-0.40188119772386244,390.0
313,-1.1923573258788551,-2.1263182241969756,-1.936692987666281,0.9312827066689789,1.208189269782437,-0.5647233082784763,391.25
314,-1.192357393230958,-2.1263182397442026,-1.9366930037966918,0.9312827376177464,1.2081893373230288,-0.7175654188331202,392.5
315,-1.1923574595856625,-2.126318241245939,-1.9366930178660193,0.9312827524981742,1.2081894037489058,-0.8604075293877594,393.75
316,-1.192357521180767,-2.1263182376632725,-1.936693030269735,0.9312827606880129,1.2081894653688214,-0.9932496399424247,395.0
317,-1.192357577869843,-2.1263182226165043,-1.936693040135765,0.9312827549496798,1.2081895219833303,-1.1160917504971013,396.25
318,-1.1923576299441292,-2.1263182087946273,-1.9366930491986403,0.9312827496784737,1.2081895739891204,-1.2289338610517744,397.5
319,-1.1923576737493848,-2.1263181850757698,-1.9366930552275061,0.9312827315816333,1.2081896176365152,-1.3317759716064592,398.75
320,-1.1923577128396337,-2.1263181622767893,-1.9366930603920425,0.9312827135873756,1.2081896565723564,-1.4246180821611425,400.0
321,-1.1923577477194824,-2.1263181419334822,-1.9366930650003034,0.9312826975312727,1.2081896913144288,-1.5074601927158884,401.25
322,-1.1923577744161706,-2.1263181185471387,-1.9366930674965328,0.9312826764109493,1.2081897178408727,-1.5803023032705912,402.5
323,-1.1923577961903726,-2.1263180966308677,-1.9366930691576338,0.9312826559736633,1.2081897394526608,-1.6431444138252813,403.75
324,-1.1923578144996687,-2.126318078202111,-1.9366930705544039,0.93128263878854,1.2081897576253884,-1.695986524379953,405.0
325,-1.192357829344059,-2.126318063260868,-1.9366930716868436,0.9312826248555801,1.2081897723590544,-1.7388286349346127,406.25
326,-1.1923578407235427,-2.1263180518071385,-1.9366930725549543,0.931282614174785,1.208189783653659,-1.7716707454892662,407.5
327,-1.1923578486381203,-2.1263180438409224,-1.9366930731587366,0.9312826067461544,1.208189791509202,-1.7945128560439416,408.75
328,-1.1923699957465785,-2.126342324651523,-1.93664556820009,0.9312593760130076,1.2082019083400073,-1.8073993750042643,410.0
329,-1.1935129346509874,-2.1286281987131734,-1.9321740898510555,0.9290731553971173,1.2093420004547903,-1.812622016516283,411.25
330,-1.1947484481924389,-2.131099232000285,-1.9273404211241438,0.9267098514525502,1.2105744356862598,-1.8081084374147123,412.5
331,-1.1947877910272282,-2.131177929533036,-1.9271864846405153,0.926634585194881,1.2106136779829435,-1.7959309497888862,413.75
332,-1.194787782859497,-2.1311779345595943,-1.927186486389096,0.926634580951502,1.2106136652308386,-1.7738947290148872,415.0
333,-1.194787770985263,-2.131177941867197,-1.9271864889311792,0.9266345747824846,1.2106136466918493,-1.7418585082409073,416.25
334,-1.194787755404526,-2.131177951455842,-1.9271864922667654,0.9266345666878288,1.2106136223659765,-1.6998222874669322,417.5
335,-1.1947877364075488,-2.131177963067253,-1.9271864966666006,0.9266345557148683,1.210613594800258,-1.6477860754637401,418.75
336,-1.1947877142299803,-2.131177976491746,-1.9271865023504913,0.926634541090176,1.210613566062517,-1.5857498764690003,420.0
337,-1.1947876876942256,-2.13117799242569,-1.9271865070133307,0.92663452973917,1.2106135335794856,-1.513713680352148,421.25
338,-1.194787653548185,-2.1311780123035216,-1.9271865026114199,0.926634545042726,1.2106135010345687,-1.4316774975258688,422.5
339,-1.194787615245775,-2.1311780346482943,-1.9271864976330795,0.9266345624000307,1.210613464575098,-1.3396413208252538,423.75
340,-1.1947875726249495,-2.131178059006168,-1.9271864919683457,0.9266345813125773,1.2106134239762234,-1.2376051513979514,425.0
341,-1.1947875212332324,-2.1311780726655503,-1.927186482984916,0.9266345865755216,1.2106133726666186,-1.1255689932270103,426.25
342,-1.1947874652526984,-2.1311780875448045,-1.927186473198827,0.9266345923102246,1.210613316761853,-1.0035328426745325,427.5
343,-1.194787404428594,-2.1311780924889536,-1.9271864610963276,0.9266345858092839,1.2106132559216367,-0.8714966984477958,428.75
344,-1.1947873388422918,-2.1311780910241414,-1.9271864471564726,0.9266345710886277,1.2106131902608865,-0.7294605568320414,430.0
345,-1.1947872718296864,-2.131178077275215,-1.9271864312917906,0.9266345421979566,1.2106131230719677,-0.57742441936783,431.25
346,-1.1947872025790118,-2.1311780543407384,-1.9271864137421975,0.9266345024783419,1.2106130535677215,-0.4153882882519261,432.5
347,-1.1947871411961535,-2.1311780148134507,-1.9271863956453559,0.9266344455697566,1.2106129917996804,-0.25002695338147607,433.75
348,-1.1947870858606082,-2.1311779736651366,-1.9271863786013756,0.9266343880334088,1.2106129360708138,-0.09433070708101006,435.0
349,-1.1947870479295524,-2.1311779212306545,-1.92718636371133,0.9266343212062593,1.2106128976677173,0.05136553921939713,436.25
350,-1.194787012662709,-2.131177872359645,-1.927186349851316,0.9266342589379151,1.210612861960991,0.18706178551972297,437.5
351,-1.1947869949121785,-2.131177818395313,-1.927186338988355,0.9266341944013701,1.2106128437436965,0.31275803181999595,438.75
352,-1.1947869785738257,-2.131177768724219,-1.9271863289896087,0.9266341349991476,1.2106128269757133,0.42845427812020337,440.0
353,-1.1947869717426265,-2.1311777211979113,-1.9271863212673253,0.9266340799151818,1.210612819741313,0.5341505244203513,441.25
354,-1.19478697072334,-2.131177676797124,-1.9271863151768371,0.9266340295219961,1.2106128183501417,0.6298467707204431,442.5
355,-1.1947869698105666,-2.131177637036104,-1.9271863097227828,0.9266339843947604,1.2106128171043444,0.7155430170205032,443.75
356,-1.1947869734055672,-2.131177602013158,-1.9271863058406313,0.9266339455213359,1.2106128204099427,0.791239263320515,445.0
357,-1.1947869813402305,-2.1311775717245327,-1.9271863034946517,0.9266339128639904,1.2106128280986437,0.8569355096205025,446.25
358,-1.1947869880671136,-2.1311775460463123,-1.927186301505766,0.9266338851776049,1.2106128346170038,0.9126317559204754,447.5
359,-1.1947869935862165,-2.1311775249784968,-1.9271862998739726,0.926633862462179,1.2106128399650231,0.9583280022204326,448.75
360,-1.194786997897539,-2.1311775085210853,-1.927186298599275,0.9266338447177143,1.210612844142701,0.9940242485203836,450.0
361,-1.194787001001081,-2.131177496674078,-1.927186297681673,0.9266338319442103,1.2106128471500384,1.019720494820353,451.25
362,-1.194787002896843,-2.131177489437474,-1.9271862971211668,0.9266338241416675,1.2106128489870345,1.0354167411203201,452.5
363,-1.1954923861303508,-2.1326105907900494,-1.9243809367356925,0.9252612049399588,1.2113164151142133,1.042800783676415,453.75
364,-1.1969176782724298,-2.1355063162802073,-1.918712439093031,0.9224877038146622,1.2127380355211717,1.0410659440660976,455.0
365,-1.1971846025802906,-2.1360486244966883,-1.9176508569265396,0.9219682881665305,1.2130042715502396,1.0310963524330672,456.25
366,-1.1971846001213686,-2.1360486307921547,-1.9176508598793027,0.9219682870190506,1.2130042677967547,1.011935107171732,457.5
367,-1.1971845963791679,-2.136048640373142,-1.9176508643730739,0.9219682852727165,1.2130042620843755,0.9827738619104103,458.75
368,-1.1971845913536885,-2.1360486532396497,-1.917650870407853,0.9219682829275276,1.2130042544131023,0.9436126166490917,460.0
369,-1.1971845849612315,-2.136048669429378,-1.917650877939331,0.921968280102774,1.2130042440442577,0.8944513723965247,461.25
370,-1.197184576552548,-2.136048689234764,-1.9176508866238071,0.9219682777237828,1.2130042252479363,0.8352901360103794,462.5
371,-1.1971845667225478,-2.136048712387847,-1.9176508967762165,0.9219682749426716,1.21300420327448,0.766128899624209,463.75
372,-1.1971845661121525,-2.136048747899098,-1.9176509023870723,0.9219683119589119,1.2130042001864503,0.6869676777070801,465.0
373,-1.197184566852567,-2.1360487891198243,-1.9176509078866446,0.9219683591072507,1.213004199686122,0.5978064599668015,466.25
374,-1.1971845676878332,-2.13604883504121,-1.9176509139324187,0.9219684118768521,1.2130041992347058,0.49864525273990573,467.5
375,-1.1971845795128402,-2.136048882563652,-1.9176509226540723,0.9219684682016076,1.2130042110429629,0.38948405430653743,468.75
376,-1.1971845962443055,-2.1360489333766077,-1.917650932899865,0.9219685290634163,1.2130042282545317,0.27032286357060126,470.0
377,-1.1971846197495704,-2.1360489853176174,-1.917650944725569,0.9219685925345258,1.2130042522511228,0.1411616801061565,471.25
378,-1.1971846557633268,-2.1360490350381296,-1.9176509588983404,0.9219686559536271,1.213004288719048,0.0020005009932148494,472.5
379,-1.1971846990499435,-2.1360490836237567,-1.9176509744486614,0.9219687195420143,1.2130043324558537,-0.1471606757754796,473.75
380,-1.197184755749793,-2.136049124904559,-1.9176509918469675,0.9219687775498111,1.213004389554536,-0.30632184585624256,475.0
381,-1.1971848199596513,-2.136049157225905,-1.917651009633361,0.9219688269256112,1.2130044540946188,-0.47011519926598416,476.25
382,-1.197184885599921,-2.1360491789229856,-1.9176510263091306,0.9219688645724504,1.2130045199769972,-0.6246232935299196,477.5
383,-1.1971849503698642,-2.136049186334664,-1.9176510409045135,0.9219688858904909,1.2130045848679756,-0.7691313877938003,478.75
384,-1.1971850121101906,-2.1360491876948173,-1.917651054059431,0.9219688997599224,1.2130046466756401,-0.9036394820576055,480.0
385,-1.197185069042787,-2.136049179477781,-1.9176510649319267,0.9219689018385354,1.21300470359058,-1.028147576321167,481.25
386,-1.1971851212580615,-2.1360491656197893,-1.9176510740638386,0.9219688965957646,1.2130047557364292,-1.14265567058471,482.5
387,-1.1971851686864867,-2.1360491522830287,-1.9176510822590596,0.9219688909863664,1.2130048030954852,-1.2471637648482428,483.75
388,-1.19718520800584,-2.136049129378858,-1.9176510874794115,0.9219688729378446,1.2130048422575677,-1.3416718591117531,485.0
389,-1.1971852431647725,-2.136049108898204,-1.9176510921473888,0.9219688567990543,1.2130048772758701,-1.4261799533752604,486.25
390,-1.1971852741632838,-2.1360490908410643,-1.9176510962629927,0.9219688425699957,1.2130049081503924,-1.5006880476387505,487.5
391,-1.197185298194127,-2.1360490713317137,-1.9176510987215052,0.9219688253070356,1.2130049320387122,-1.5651961419022458,488.75
392,-1.1971853168567481,-2.136049052578371,-1.9176511001523486,0.9219688078268418,1.2130049505603173,-1.6197042361657585,490.0
393,-1.197185332095544,-2.136049037265497,-1.9176511013206912,0.9219687935535468,1.2130049656839674,-1.664212330429297,491.25
394,-1.1971853439105142,-2.1360490253930937,-1.9176511022265301,0.9219687824871492,1.213004977409663,-1.6987204246928256,492.5
395,-1.197185352301659,-2.13604901696116,-1.9176511028698684,0.9219687746276506,1.2130049857374035,-1.7232285189563512,493.75
396,-1.197185357268978,-2.136049011969695,-1.9176511032507064,0.9219687699750511,1.213004990667189,-1.7377366132198742,495.0
397,-1.1969484627582234,-2.135583441523233,-1.9186034158906704,0.9224556070612433,1.2127688841794504,-1.7427774296671992,496.25
398,-1.1965712783909375,-2.1348421703864933,-1.9201196753207102,0.9232307464754423,1.2123929545225127,-1.7390518758888642,497.5
399,-1.1964618255077577,-2.1346270775804883,-1.9205596527152131,0.9234556749500007,1.212283865753689,-1.7259281053917392,498.75
400,-1.1962689721390207,-2.134248089188186,-1.921334882386947,0.9238519935556246,1.21209165394576,-1.7028043348946267,500.0
401,-1.195992718284727,-2.133705205209587,-1.9224453643359127,0.9244197022923148,1.211816319098726,-1.6696805643975126,501.25
402,-1.1956312849494042,-2.1329992295865625,-1.923889458506983,0.9251579693297399,1.2114560746128205,-1.626556752276852,502.5
403,-1.1951830106065602,-2.1321309134969737,-1.925665632483073,0.9260660174290614,1.2110092518583664,-1.5734328755849207,503.75
404,-1.1946503534267026,-2.1310991462167608,-1.9277761521595689,0.927144995843688,1.2104783195128441,-1.5103089988930152,505.0
405,-1.1940306764600288,-2.1299050743227848,-1.9302186790258196,0.9283937182985101,1.2098606312557882,-1.4371850533169608,506.25
406,-1.1933236982599547,-2.1285488204569774,-1.932992962945127,0.9298120579029149,1.209155904639705,-1.354061044774217,507.5
407,-1.192528449145089,-2.1270307773236903,-1.9360982035577738,0.9313996098541791,1.2083631656474498,-1.260936960128851,508.75
408,-1.1916444051322177,-2.1253511682738164,-1.9395339454204605,0.9331561433101034,1.2074818882882945,-1.1578127989028622,510.0
409,-1.1906680822780316,-2.1235114136819444,-1.9432972931208168,0.9350801914904265,1.2065085755859402,-1.0446884877878484,511.25
410,-1.1896006475930005,-2.1215109948385495,-1.9473893047157649,0.9371722910380003,1.2054443992006507,-0.9215640686134637,512.5
411,-1.188440000211707,-2.1193507448812965,-1.9518082822468938,0.9394315822163307,1.2042872506113151,-0.788439507077496,513.75
412,-1.1871833683593604,-2.1170317196139634,-1.9565520746540495,0.9418569765840527,1.2030343482388186,-0.6453147591501218,515.0
413,-1.1858287203617597,-2.1145546342549997,-1.961619225744153,0.9444477383074669,1.2016836536281947,-0.492189804262646,516.25
414,-1.1843848580871106,-2.111937749969229,-1.9669723841370088,0.9471847748307217,1.2002439369530638,-0.33017449889495193,517.5
415,-1.182979656744498,-2.109414588105777,-1.9721338565485986,0.9498238485461417,1.198842701481664,-0.17371203134252333,518.75
416,-1.1816545334132043,-2.1070562324339868,-1.9769582272739585,0.9522906023671079,1.1975212572648022,-0.02724937684865367,520.0
417,-1.1804115974162066,-2.10486185452859,-1.9814471845156745,0.9545858909549851,1.1962817212614922,0.10921342933787462,521.25
418,-1.1792530104206254,-2.1028306440767595,-1.9856023789641477,0.9567105493400665,1.195126262694822,0.23567635465221357,522.5
419,-1.178179508013853,-2.1009623083927638,-1.989424407116935,0.9586648795639756,1.1940556198420178,0.3521393921206051,523.75
420,-1.1771915630522782,-2.09925663075788,-1.992913711066842,0.9604491059507876,1.1930702674902363,0.45860253457158795,525.0
421,-1.1762938846100304,-2.0977120112844916,-1.9960735473149875,0.9620648729914344,1.1921749300155131,0.555065716557416,526.25
422,-1.1754836744184136,-2.0963293612568794,-1.9989020616552353,0.9635112450888224,1.191366800333806,0.6415289837074782,527.5
423,-1.1747663628446103,-2.095106883083151,-2.0014029121956,0.9647900686340556,1.1906513261240426,0.7179922616904747,528.75
424,-1.1741383838782966,-2.0940457254721156,-2.003573761857533,0.9659001646339775,1.1900249302317976,0.7844556043477855,530.0
425,-1.1736048899229985,-2.0931442284451864,-2.0054179879138605,0.9668432368346835,1.1894927811630196,0.8409189470051084,531.25
426,-1.173164955857102,-2.0924026830477427,-2.006934998347824,0.967618986720528,1.1890539509546136,0.8873823014344273,532.5
427,-1.1728175548118225,-2.091821412213976,-2.008124136278667,0.9682270830706473,1.1887074095841395,0.9238456870948806,533.75
428,-1.1725654277075077,-2.091399553575002,-2.008987155855631,0.9686684103895576,1.1884559063907836,0.9503090727553267,535.0
429,-1.1724085745441581,-2.0911371071308187,-2.0095240570787167,0.9689429686772589,1.1882994413745467,0.9667724584157795,536.25
430,-1.1722223730840569,-2.0908261584569354,-2.0101601964509976,0.9692682827211299,1.1881136996241282,0.9734714315409391,537.5
431,-1.171674166147316,-2.08991170475274,-2.012031012229472,0.9702250087450173,1.1875668443342426,0.9712851147589935,538.75
432,-1.1716739013842168,-2.089911792328952,-2.0120308457803073,0.9702249304596722,1.1875665792919694,0.9600162286080962,540.0
433,-1.1716734016705685,-2.0899119576202203,-2.0120305316242955,0.9702247827039783,1.1875660790514082,0.9387473424571988,541.25
434,-1.1716726670063708,-2.089912200626545,-2.012030069761436,0.9702245654779357,1.1875653436125588,0.9074784563063081,542.5
435,-1.171671697204456,-2.089912521422161,-2.0120294601007416,0.9702242789846864,1.1875643713676725,0.8662095949920794,543.75
436,-1.171670492362213,-2.0899129199684308,-2.0120287026895336,0.9702239231183162,1.1875631631544805,0.8149407389777283,545.0
437,-1.1716691561009174,-2.08991336419046,-2.0120278629158803,0.9702235308945959,1.1875618231411764,0.753671884271701,546.25
438,-1.1716691568443378,-2.089913399596835,-2.012027867471499,0.9702235708913842,1.1875618236703902,0.6824030470556327,547.5
439,-1.1716691576928113,-2.0899134399765846,-2.0120278726616867,0.9702236165231657,1.1875618242800794,0.6011342109397009,548.75
440,-1.1716691586496384,-2.089913485353632,-2.0120278784657546,0.9702236678918805,1.1875618249979403,0.5098653803438544,550.0
441,-1.1716691685792027,-2.0899135333064063,-2.01202788647218,0.9702237237853697,1.1875618350700718,0.4085965569414073,551.25
442,-1.1716691851921146,-2.089913584453361,-2.0120278962767153,0.9702237844878496,1.1875618521034574,0.2973277402511296,552.5
443,-1.1716692046601125,-2.08991363939614,-2.0120279071423326,0.9702238500082127,1.187561872027608,0.17605893030692726,553.75
444,-1.1716692407787554,-2.089913690024746,-2.0120279208866663,0.970223913906036,1.1875619085684646,0.04479012928316278,555.0
445,-1.171669279648883,-2.0899137445101594,-2.0120279356780792,0.9702239826712898,1.1875619478928376,-0.09647866788543966,556.25
446,-1.1716693367044893,-2.089913787180016,-2.0120279527163047,0.970224041708675,1.18756200532474,-0.2477474643518383,557.5
447,-1.171669399579459,-2.0899138292609174,-2.012027970873394,0.9702241012180539,1.187562068576097,-0.40901625285086396,558.75
448,-1.1716694729074146,-2.0899138540432594,-2.0120279890059343,0.9702241433346681,1.187562142154895,-0.5713891619568665,560.0
449,-1.171669543689461,-2.0899138697482327,-2.01202800547965,0.970224174760201,1.187562213115437,-0.7237943566584328,561.25
450,-1.1716696131691924,-2.089913871509397,-2.012028019939841,0.9702241902711647,1.1875622826646273,-0.8661995513599438,562.5
451,-1.1716696776308568,-2.0899138670610244,-2.012028032593779,0.9702241978305226,1.1875623471436278,-0.9986047460614598,563.75
452,-1.1716697369574833,-2.089913851283791,-2.0120280427762456,0.9702241916657602,1.1875624063957266,-1.121009940762933,565.0
453,-1.1716697914373717,-2.0899138367954975,-2.0120280521268388,0.9702241860046295,1.1875624608071758,-1.2334151354643856,566.25
454,-1.1716698370464944,-2.08991381120787,-2.0120280582690957,0.9702241661495505,1.1875625062547706,-1.335820330165818,567.5
455,-1.1716698779063095,-2.0899137872091305,-2.0120280636370245,0.9702241471539719,1.1875625469615474,-1.428225524867242,568.75
456,-1.171669914344316,-2.089913765807513,-2.012028068424038,0.9702241302140743,1.1875625832630778,-1.5106307195686581,570.0
457,-1.1716699419502392,-2.0899137408210056,-2.0120280709519083,0.9702241075275622,1.1875626106976656,-1.5830359142700625,571.25
458,-1.1716699646572872,-2.0899137177629017,-2.012028072717331,0.9702240860527476,1.1875626332443778,-1.6454411089714802,572.5
459,-1.1716699837256885,-2.0899136983996995,-2.0120280741998546,0.9702240680191219,1.1875626521781362,-1.6978463036729192,573.75
460,-1.1716699991554433,-2.0899136827313995,-2.0120280753994804,0.9702240534266856,1.1875626674989403,-1.7402514983743673,575.0
461,-1.1716700109465505,-2.0899136707580004,-2.01202807631621,0.97022404227544,1.1875626792067902,-1.7726566930758128,576.25
462,-1.1716700190990106,-2.089913662479503,-2.012028076950044,0.9702240345653852,1.1875626873016851,-1.7950618877772555,577.5
463,-1.1716993582425956,-2.089965177616311,-2.011927586008462,0.9701750365593758,1.187591971390838,-1.8075598494014484,578.75
464,-1.1730507206821041,-2.0923385431793085,-2.0072982404064854,0.9679180354390285,1.1889407990973386,-1.8123384191071115,580.0
465,-1.1743636949588547,-2.094644497802643,-2.0028003885136543,0.9657251434670315,1.1902513096303142,-1.8073602498246677,581.25
466,-1.174383094317272,-2.094678580224664,-2.002733916386763,0.9656927323873362,1.190270669996428,-1.794651715198132,582.5
467,-1.1743830855163582,-2.0946785856577446,-2.0027339182083264,0.9656927276796623,1.1902706565696242,-1.7720059659626595,583.75
468,-1.1743830728291016,-2.094678593489986,-2.0027339208342623,0.9656927208931549,1.1902706372137586,-1.7393602167271915,585.0
469,-1.1743830562555029,-2.0946786037213894,-2.002733924264571,0.9656927120278144,1.1902706119288318,-1.6967144674917076,586.25
470,-1.1743830361639325,-2.09467861605152,-2.0027339288066552,0.9656926999942756,1.1902705838121288,-1.6440687288552212,587.5
471,-1.1743830127230797,-2.0946786303428,-2.0027339346012853,0.9656926842936782,1.1902705542820067,-1.581423002530995,588.75
472,-1.1743829844125662,-2.0946786474208747,-2.0027339386490666,0.9656926741579005,1.190270521022828,-1.5087772801280357,590.0
473,-1.1743829483034656,-2.0946786685985046,-2.002733934011482,0.9656926905468126,1.1902704865919582,-1.4261315702924164,591.25
474,-1.174382907831931,-2.094678692391666,-2.0027339287665304,0.9656927091448586,1.19027044805165,-1.333485867247197,592.5
475,-1.1743828625354236,-2.094678717470679,-2.0027339226448952,0.965692728390095,1.1902704047288313,-1.2308401713040578,593.75
476,-1.1743828082805106,-2.094678731914588,-2.0027339132968645,0.9656927340930297,1.1902703505553651,-1.1181944859211626,595.0
477,-1.1743827492071082,-2.0946787476414226,-2.0027339031181284,0.9656927403041187,1.1902702915552612,-0.9955488086882086,596.25
478,-1.1743826850198873,-2.094678751642668,-2.002733890431424,0.9656927322952817,1.1902702273433,-0.8629031374895302,597.5
479,-1.1743826158559019,-2.0946787499072936,-2.0027338760095557,0.9656927168461636,1.1902701581059127,-0.7202574684076444,598.75
480,-1.1743825455357904,-2.0946787338017105,-2.0027338595445716,0.9656926850257073,1.1902700876016092,-0.5676118038355141,600.0
481,-1.1743824725426888,-2.0946787091791896,-2.002733841460407,0.9656926431144325,1.1902700143569491,-0.4049661455925484,601.25
482,-1.1743824089724166,-2.094678665884232,-2.0027338229650646,0.9656925820628588,1.1902699503969327,-0.24002107242960385,602.5
483,-1.1743823520255308,-2.0946786212704143,-2.0027338056642003,0.9656925208221951,1.1902698930553792,-0.08492600947107881,603.75
484,-1.1743823123525299,-2.094678565734964,-2.002733790538458,0.9656924506819062,1.190269852916459,0.06016905348741537,605.0
485,-1.1743822764669354,-2.094678513409026,-2.0027337765937974,0.965692384886878,1.1902698165930858,0.19526411644586375,606.25
486,-1.1743822579088454,-2.094678456346764,-2.00273376561248,0.965692317152226,1.1902697975743068,0.32035917940430836,607.5
487,-1.1743822408342748,-2.094678403846019,-2.002733755508993,0.9656922548322255,1.1902697800758744,0.43545424236272584,608.75
488,-1.1743822345800523,-2.0946783534247455,-2.0027337478889327,0.9656921969604877,1.1902697734228216,0.5405493053211265,610.0
489,-1.1743822335095182,-2.094678306581357,-2.0027337417830027,0.9656921441204243,1.19026977198561,0.6356443682795114,611.25
490,-1.1743822325515594,-2.094678264663924,-2.002733736319154,0.9656920968369105,1.1902697706995324,0.7207394312378826,612.5
491,-1.1743822369214802,-2.0946782278033167,-2.002733732584885,0.9656920562748872,1.1902697747851538,0.7958344941962552,613.75
492,-1.174382245172207,-2.094678195963221,-2.002733730278452,0.9656920221111227,1.1902697827939401,0.860929557154622,615.0
493,-1.1743822521554448,-2.0946781690144487,-2.002733728326336,0.9656919931956458,1.1902697895724053,0.9160246201130076,616.25
494,-1.1743822578711938,-2.0946781469570004,-2.002733726728535,0.9656919695284562,1.1902697951205485,0.9611196830714266,617.5
495,-1.174382262319454,-2.094678129790874,-2.0027337254850526,0.9656919511095547,1.1902697994383702,0.9962147460298361,618.75
496,-1.174382265500225,-2.09467811751607,-2.0027337245958883,0.9656919379389419,1.1902698025258702,1.021309808988243,620.0
497,-1.1743822674135076,-2.094678110132588,-2.0027337240610423,0.9656919300166175,1.1902698043830484,1.0364048719466477,621.25
498,-1.175278221217845,-2.096277018343381,-1.9996125472905941,0.9641690126855118,1.1911640153049932,1.0432950099057787,622.5
499,-1.1768418669241687,-2.099067491341682,-1.99416536949219,0.9615111740744872,1.19272461916243,1.0408750440880867,623.75
500,-1.1770573048126771,-2.099451966523048,-1.9934148584259155,0.9611449761968585,1.1929396373599674,1.0303389221146926,625.0
501,-1.1770573021553987,-2.0994519734584443,-1.9934148615408105,0.9611449749108819,1.1929396335547153,1.0104064831383615,626.25
502,-1.177057298164978,-2.099451983873293,-1.993414866218432,0.9611449729797374,1.192939627840388,0.980474044162033,627.5
503,-1.1770572928414147,-2.099451997767593,-1.99341487245878,0.9611449704034254,1.1929396202169862,0.9405416051856935,628.75
504,-1.1770572860308521,-2.099452015201635,-1.9934148801908869,0.9611449673631551,1.1929396093834865,0.8906091693368354,630.0
505,-1.1770572771370742,-2.0994520364090494,-1.9934148891397454,0.9611449645611378,1.1929395902982476,0.8306767468141443,631.25
506,-1.1770572667593286,-2.0994520611550187,-1.9934148995817615,0.961144961291591,1.1929395680285486,0.7607443242914566,632.5
507,-1.1770572670218271,-2.099452099975461,-1.9934149048084888,0.9611450041163612,1.1929395666723488,0.6808119177378449,633.75
508,-1.1770572678038895,-2.0994521440975356,-1.9934149103998149,0.9611450542615524,1.1929395661373623,0.5908795150633391,635.0
509,-1.177057268683726,-2.0994521932010923,-1.9934149165470068,0.9611451103045225,1.1929395656347086,0.49094712175882543,636.25
510,-1.1770572823237395,-2.0994522437036753,-1.9934149256625826,0.9611451699107568,1.192939579377124,0.38101473814953957,637.5
511,-1.1770573000097566,-2.099452298021405,-1.9934149361292084,0.9611452344824369,1.1929395975435468,0.26108236205429014,638.75
512,-1.1770573260875052,-2.099452352801698,-1.9934149483894632,0.9611453011901732,1.1929396241033912,0.13114999289568485,640.0
513,-1.177057364111159,-2.0994524059554696,-1.9934149629154507,0.9611453683689704,1.1929396625798552,-0.00878237249622136,641.25
514,-1.1770574109815297,-2.0994524566961683,-1.9934149789578188,0.9611454345661302,1.1929397098900432,-0.15871473513165174,642.5
515,-1.1770574707984975,-2.0994525008691802,-1.9934149968363433,0.9611454959147177,1.1929397701038837,-0.31864709111726497,643.75
516,-1.1770575402174668,-2.099452534120989,-1.9934150153142798,0.9611455468662771,1.1929398398416735,-0.4849056162836937,645.0
517,-1.177057610601025,-2.0994525578182768,-1.993415032786327,0.9611455872675181,1.192939910469658,-0.6427155473486545,646.25
518,-1.1770576808463975,-2.09945256335586,-1.9934150479408443,0.9611456072307416,1.1929399808163632,-0.790525478413564,647.5
519,-1.177057747251123,-2.099452565004512,-1.9934150618147346,0.961145622071726,1.1929400472886451,-0.9283354094784688,648.75
520,-1.1770578085172896,-2.0994525525392653,-1.9934150728520055,0.9611456200440522,1.1929401085070173,-1.0561453405433356,650.0
521,-1.1770578649099788,-2.099452537553111,-1.9934150825685415,0.9611456142297534,1.1929401648280582,-1.1739552716081831,651.25
522,-1.177057914813299,-2.0994525186103075,-1.9934150904508168,0.9611456026990524,1.1929402146232428,-1.2817652026730135,652.5
523,-1.1770579575282067,-2.099452493564106,-1.9934150960843682,0.9611455829023448,1.1929402571760506,-1.379575133737827,653.75
524,-1.1770579958759824,-2.099452471078608,-1.9934151011419439,0.9611455651296319,1.1929402953782995,-1.4673850648026392,655.0
525,-1.1770580284331276,-2.099452449163862,-1.9934151050797562,0.9611455468658533,1.1929403277896533,-1.545194995867435,656.25
526,-1.177058052802088,-2.0994524244682533,-1.9934151069819088,0.9611455238749584,1.1929403519841977,-1.61300492693224,657.5
527,-1.177058073577333,-2.099452403414531,-1.9934151086035488,0.9611455042745544,1.192940372610748,-1.6708148579970554,658.75
528,-1.177058090758863,-2.0994523860026977,-1.9934151099446729,0.9611454880646393,1.1929403896693047,-1.718624789061898,660.0
529,-1.1770581043466772,-2.0994523722327507,-1.9934151110052851,0.9611454752452153,1.1929404031598667,-1.7564347201267305,661.25
530,-1.177058114340776,-2.0994523621046897,-1.993415111785386,0.9611454658162826,1.1929404130824346,-1.7842446511915608,662.5
531,-1.1770581207411588,-2.099452355618515,-1.993415112284975,0.961145459777841,1.192940419437008,-1.8020545822563956,663.75
532,-1.1775312659286885,-2.1003103032452426,-1.991739052498642,0.9603270196909661,1.1934126104427734,-1.8109972670611747,665.0
533,-1.179139415005357,-2.1032263682005565,-1.9860423391470456,0.9575452562184472,1.195017516223746,-1.8113080208871177,666.25
534,-1.1796960104693903,-2.1042356536558318,-1.984070642276958,0.9565824546453034,1.195572987478323,-1.802834287261454,667.5
535,-1.1796960038643833,-2.104235657730674,-1.9840706436517688,0.9565824511349506,1.1955729773288228,-1.7856385741747733,668.75
536,-1.1796959934182987,-2.1042356641752007,-1.9840706458260873,0.9565824455831863,1.1955729612769797,-1.7584428610880833,670.0
537,-1.1796959791311366,-2.1042356729894127,-1.9840706487999136,0.9565824379900105,1.1955729393227932,-1.7212471480013916,671.25
538,-1.1796959610028968,-2.10423568417331,-1.984070652573248,0.9565824283554232,1.1955729114662637,-1.6740514349147047,672.5
539,-1.1796959397785605,-2.104235697103684,-1.9840706577875902,0.9565824144074033,1.1955728840394682,-1.6168557431782893,673.75
540,-1.1796959149168291,-2.104235712233354,-1.9840706639768322,0.9565823977967821,1.195572852441569,-1.5496600533473308,675.0
541,-1.1796958830079718,-2.1042357311091107,-1.9840706630570217,0.9565824027574792,1.195572819336741,-1.47246437490245,676.25
542,-1.1796958453773225,-2.1042357531392057,-1.9840706582076895,0.9565824197695492,1.1955727834597483,-1.3852687014993543,677.5
543,-1.1796958034438725,-2.1042357777950187,-1.9840706527148462,0.9565824391562103,1.1955727435780243,-1.2880730407391596,678.75
544,-1.1796957545241744,-2.104235797317633,-1.9840706451005583,0.9565824514976661,1.1955726956917172,-1.1808773866174365,680.0
545,-1.1796956987722538,-2.104235812150634,-1.9840706354558013,0.9565824573133961,1.195572640019785,-1.0636817405553471,681.25
546,-1.1796956382009438,-2.1042358256025255,-1.9840706246436972,0.9565824606276103,1.1955725795010708,-0.9364861023866112,682.5
547,-1.1796955724993594,-2.1042358239890357,-1.9840706108887858,0.9565824459350205,1.195572513728586,-0.7992904697179877,683.75
548,-1.1796955026478813,-2.1042358197979953,-1.984070595952174,0.9565824275302683,1.195572443782491,-0.6520948380953514,685.0
549,-1.1796954329709872,-2.104235796383004,-1.9840705786204136,0.9565823875447621,1.1955723738618205,-0.4948992134140506,686.25
550,-1.179695363331012,-2.1042357646845415,-1.9840705602487236,0.956582338252631,1.1955723039123571,-0.32881002045645413,687.5
551,-1.1796953036566602,-2.1042357206829125,-1.9840705423765495,0.9565822770803794,1.1955722438391092,-0.16826700059882047,688.75
552,-1.1796952559439533,-2.1042356710751524,-1.9840705262624954,0.9565822119492808,1.1955721956929457,-0.01772398074122617,690.0
553,-1.179695217991227,-2.104235618090248,-1.9840705117343482,0.9565821449340374,1.1955721572880678,0.1228190391163291,691.25
554,-1.1796951909647952,-2.1042355640559323,-1.9840704993270253,0.9565820788805574,1.1955721298102344,0.25336205897386666,692.5
555,-1.1796951733044743,-2.104235509886296,-1.9840704888343368,0.9565820145108208,1.195572111705222,0.37390507883136886,693.75
556,-1.1796951587438662,-2.1042354597761963,-1.9840704794943222,0.9565819553131911,1.1955720967347248,0.48444809868886846,695.0
557,-1.1796951576278238,-2.104235410977374,-1.9840704730930607,0.9565819002252964,1.1955720952303777,0.5849911185463526,696.25
558,-1.179695156622783,-2.1042353670320812,-1.9840704673284633,0.9565818506164371,1.1955720938756536,0.6755341384038264,697.5
559,-1.1796951557287436,-2.1042353279403163,-1.984070462200533,0.9565818064866143,1.1955720926705515,0.7560771582613056,698.75
560,-1.1796951643022966,-2.104235293931898,-1.984070459668124,0.9565817699282746,1.1955721009812645,0.826620178118767,700.0
561,-1.1796951718826065,-2.104235264749883,-1.9840704575412054,0.9565817386020268,1.1955721083362223,0.8871631979762417,701.25
562,-1.1796951782108633,-2.104235240387916,-1.984070455765591,0.9565817124499907,1.1955721144763485,0.9377062178337378,702.5
563,-1.1796951832870664,-2.104235220845995,-1.9840704543412837,0.9565816914721674,1.195572119401643,0.97824923769125,703.75
564,-1.179695187111216,-2.1042352061241196,-1.9840704532682838,0.9565816756685576,1.1955721231121057,1.0087922575487387,705.0
565,-1.179695189683312,-2.10423519622229,-1.9840704525465915,0.956581665039161,1.195572125607737,1.0293352774062392,706.25
566,-1.17984153300984,-2.104504813372205,-1.9835433323997442,0.9563240651027272,1.1957181630563072,1.0403226596163033,707.5
567,-1.181316975007236,-2.1072231860378925,-1.9782288313945797,0.9537269593307023,1.1971905215349665,1.0433681444552025,708.75
568,-1.1822965859419088,-2.109028038618859,-1.9747002971631598,0.9520026251851997,1.1981680848083127,1.036945997846642,710.0
569,-1.1822965840337627,-2.109028043572613,-1.9747002994074436,0.9520026242634768,1.1981680820199543,1.0225060469120917,711.25
570,-1.1822965808041812,-2.1090280519569564,-1.974700303205946,0.9520026227034396,1.1981680773005932,0.9980660959775443,712.5
571,-1.1822965762531645,-2.109028063771888,-1.9747003085586665,0.9520026205050879,1.1981680706502291,0.9636261450429855,713.75
572,-1.1822965703807125,-2.10902807901741,-1.974700315465606,0.9520026176684216,1.1981680620688626,0.9191861941084228,715.0
573,-1.182296562655665,-2.1090280979106817,-1.9747003236717142,0.9520026148574834,1.1981680470160079,0.8647462539784629,716.25
574,-1.1822965531894312,-2.1090281204061556,-1.9747003332304882,0.9520026119329908,1.1981680264440253,0.800306319894742,717.5
575,-1.1822965472404459,-2.109028150694304,-1.9747003414992137,0.9520026276146023,1.198168012720642,0.7258663926868311,718.75
576,-1.18229654796297,-2.109028191496383,-1.9747003467234534,0.9520026739594809,1.1981680121977312,0.6414264750798467,720.0
577,-1.182296548781216,-2.109028237199803,-1.9747003525051787,0.952002726089374,1.198168011700146,0.5469865665582233,721.25
578,-1.1822965537700802,-2.1090282866402137,-1.9747003596349146,0.9520027832062257,1.198168015789733,0.44254666495978956,722.5
579,-1.1822965704361648,-2.109028337706973,-1.974700369538935,0.9520028439816468,1.198168032906386,0.3281067719539576,723.75
580,-1.1822965885608019,-2.1090283932340195,-1.9747003803104624,0.9520029100602193,1.1981680515378326,0.20366688858437973,725.0
581,-1.1822966225648606,-2.109028444758095,-1.974700393874139,0.9520029747030786,1.1981680859918826,0.06922701078371302,726.25
582,-1.182296661330057,-2.1090284988046033,-1.9747004087449542,0.9520030431097508,1.1981681252251306,-0.07521286599791674,727.5
583,-1.182296715993891,-2.1090285432269487,-1.9747004256807088,0.9520031038157211,1.1981681802908335,-0.22965273712003575,728.75
584,-1.1822967774117408,-2.109028586751197,-1.9747004438985412,0.9520031648386525,1.1981682421085391,-0.3940601418161357,730.0
585,-1.182296849350171,-2.1090286108803373,-1.9747004618303807,0.9520032061124214,1.198168314300549,-0.5573605281905292,731.25
586,-1.18229691832148,-2.1090286280018535,-1.9747004782598003,0.9520032389209274,1.1981683834668644,-0.7106609145649135,732.5
587,-1.1822969865251562,-2.1090286296582033,-1.9747004925684468,0.9520032541830383,1.1981684517411375,-0.8539613009392473,733.75
588,-1.1822970498701755,-2.1090286268650393,-1.9747005053082267,0.9520032634857121,1.19816851511706,-0.9872616873135569,735.0
589,-1.1822971081679596,-2.1090286113811643,-1.9747005153945898,0.9520032575220119,1.198168573339942,-1.11056207368785,736.25
590,-1.1822971617376359,-2.109028597153078,-1.9747005246629123,0.9520032520419797,1.1981686268407914,-1.2238624600621006,737.5
591,-1.182297207019121,-2.1090285732740988,-1.9747005309935473,0.9520032340781368,1.1981686719692455,-1.3271628464363596,738.75
592,-1.1822972472659747,-2.1090285497118435,-1.974700536323646,0.9520032154814688,1.1981687120613693,-1.4204632328105986,740.0
593,-1.182297283199144,-2.109028528675009,-1.9747005410824574,0.9520031988780027,1.1981687478563932,-1.5037636191848334,741.25
594,-1.1822973109834702,-2.10902850481654,-1.974700543798825,0.9520031774998098,1.1981687754731425,-1.5770640055590666,742.5
595,-1.1822973334537772,-2.109028482088804,-1.9747005455601832,0.9520031563495244,1.1981687977804545,-1.6403643919333026,743.75
596,-1.1822973523742948,-2.1090284629515264,-1.9747005470432852,0.952003138540495,1.1981688165637263,-1.6936647783075598,745.0
597,-1.1822973677450226,-2.1090284474047074,-1.9747005482481317,0.9520031240727217,1.1981688318229584,-1.736965164681826,746.25
598,-1.1822973795659606,-2.1090284354483457,-1.9747005491747254,0.9520031129462057,1.1981688435581497,-1.7702655510560898,747.5
599,-1.1822973878371086,-2.1090284270824413,-1.9747005498230659,0.952003105160947,1.1981688517693003,-1.7935659374303508,748.75
600,-1.1823010067119009,-2.1090351877552562,-1.9746873137711838,0.951996627458612,1.1981724627851458,-1.8068782850770497,750.0
601,-1.1834480200117807,-2.1111823164634758,-1.9704865116106476,0.9499422289364842,1.199316992779899,-1.8124424857385135,751.25
602,-1.1848013029515243,-2.113715578138679,-1.965530256863617,0.9475183782694735,1.2006673449748106,-1.808308107519745,752.5
603,-1.184863133256956,-2.1138313316652897,-1.9653037946419016,0.9474076243879646,1.2007290389393204,-1.796443119309623,753.75
604,-1.184863125032519,-2.1138313367362875,-1.9653037963633582,0.9474076200463097,1.200729026209579,-1.7747817152472587,755.0
605,-1.1848631130112657,-2.1138313441483136,-1.9653037988795254,0.9474076137003274,1.2007290076031456,-1.7431203111849058,756.25
606,-1.1848630971931964,-2.113831353901369,-1.9653038021904043,0.9474076053500176,1.2007289831200192,-1.7014589071225368,757.5
607,-1.1848630778527192,-2.113831365759948,-1.9653038065398907,0.9474075941324234,1.2007289551177363,-1.6497975115417018,758.75
608,-1.184863055291442,-2.1138313794652013,-1.9653038121960575,0.9474075790990468,1.2007289261875211,-1.5881361307190391,760.0
609,-1.1848630284414725,-2.113831395673401,-1.96530381723928,0.9474075661681921,1.2007288932194373,-1.5164747521851076,761.25
610,-1.1848629936262887,-2.113831416020741,-1.9653038127365314,0.9474075818462268,1.2007288600308508,-1.4348133877167164,762.5
611,-1.1848629545532705,-2.1138314389013875,-1.965303807645323,0.947407599622254,1.2007288228258506,-1.3431520288386,763.75
612,-1.184862911225087,-2.113831464335451,-1.9653038019477478,0.9474076195823123,1.2007287816275063,-1.241490677227637,765.0
613,-1.1848628587626528,-2.1138314783135645,-1.9653037928370047,0.947407625041862,1.2007287292505495,-1.129829337314592,766.25
614,-1.1848628015907514,-2.1138314935172873,-1.965303782904074,0.9474076309605013,1.2007286721541834,-1.0081680046248298,767.5
615,-1.18486273947216,-2.113831499175754,-1.9653037707440775,0.9474076251256831,1.2007286100250907,-0.8765066783443447,768.75
616,-1.1848626724595657,-2.113831497567035,-1.9653037566550375,0.9474076101197806,1.200728542938968,-0.7348453548459406,770.0
617,-1.184862603776626,-2.1138314840925694,-1.9653037407095417,0.9474075814328184,1.2007284740872899,-0.583184035246083,771.25
618,-1.1848625329952478,-2.113831460396516,-1.9653037230280936,0.9474075408308502,1.2007284030545824,-0.42152272206294156,772.5
619,-1.1848624695808878,-2.1138314202674686,-1.9653037047812063,0.9474074831882293,1.2007283392625654,-0.25593454850375535,773.75
620,-1.1848624122764249,-2.11383137813881,-1.9653036875456733,0.947407424498647,1.2007282815694995,-0.09985930495184822,775.0
621,-1.184862373215978,-2.1138313239837507,-1.9653036725592636,0.9474073558686876,1.2007282420389391,0.046215938600032556,776.25
622,-1.1848623369198445,-2.113831273444773,-1.9653036586058754,0.9474072918520715,1.2007282053042159,0.18229118215187665,777.5
623,-1.1848623181376214,-2.113831217934483,-1.9653036476483945,0.9474072256901254,1.200728186058185,0.30836642570371575,778.75
624,-1.184862301341198,-2.1138311665369613,-1.965303637625865,0.9474071645471325,1.2007281688328233,0.4244416692555162,780.0
625,-1.1848622937778368,-2.1138311174998896,-1.9653036298168005,0.9474071078783537,1.2007281608674178,0.5305169128072994,781.25
626,-1.1848622927261014,-2.1138310715459157,-1.9653036237493333,0.9474070559610754,1.2007281594440489,0.6265921563590766,782.5
627,-1.184862291783836,-2.113831030375069,-1.9653036183133932,0.9474070094476094,1.2007281581688312,0.7126673999108437,783.75
628,-1.1848622951029515,-2.1138309940870306,-1.965303614381912,0.9474069692676892,1.2007281611980107,0.7887426434626084,785.0
629,-1.184862303276179,-2.1138309626960323,-1.965303612079509,0.9474069355540442,1.2007281691249374,0.8548178870143849,786.25
630,-1.184862310212449,-2.1138309360558303,-1.9653036101255574,0.9474069069427098,1.2007281758521824,0.9108931305661622,787.5
631,-1.1848623159117613,-2.113830914166425,-1.9653036085200544,0.9474068834336855,1.2007281813797457,0.9569683741179691,788.75
632,-1.184862320374116,-2.113830897027815,-1.965303607263004,0.9474068650269727,1.2007281857076273,0.9930436176697806,790.0
633,-1.184862323599513,-2.113830884640001,-1.9653036063544058,0.9474068517225713,1.2007281888358268,1.0191188612215751,791.25
634,-1.1848623255879525,-2.1138308770029814,-1.9653036057942601,0.9474068435204814,1.2007281907643446,1.0351941047733675,792.5
635,-1.185554575683864,-2.1151474389615967,-1.9627259195145996,0.9461453022754821,1.2014188887618213,1.0428400022393123,793.75
636,-1.1870746410890938,-2.1180384014457005,-1.9570657441067267,0.943375172730095,1.2029355459429765,1.0414429041333177,795.0
637,-1.1873930357214741,-2.11864395130954,-1.9558801541538455,0.9427949354670363,1.2032532260838193,1.0317025851285921,796.25
638,-1.187393033250297,-2.1186439576912943,-1.9558801570705993,0.9427949342763493,1.2032532223993806,1.0128380089711604,797.5
639,-1.1873930294691641,-2.1186439674559785,-1.9558801615335066,0.9427949324544861,1.2032532167618424,0.9839734328137388,798.75
640,-1.1873930243780748,-2.1186439806035926,-1.9558801675425679,0.9427949300014465,1.203253209171205,0.9451088566562988,800.0
641,-1.1873930179131127,-2.1186439971613877,-1.9558801750658288,0.9427949270018929,1.203253199075195,0.8962442818316686,801.25
642,-1.187393009352113,-2.1186440174372643,-1.9558801837422508,0.9427949244123811,1.2032531802339226,0.8373797215627254,802.5
643,-1.1873929993367576,-2.118644041157637,-1.9558801938926367,0.9427949213829592,1.2032531581918664,0.7685151612937998,803.75
644,-1.1873929983658131,-2.1186440773160413,-1.955880199646797,0.9427949578580435,1.2032531543689742,0.6896506151422046,805.0
645,-1.1873929991197356,-2.118644119654797,-1.955880205085758,0.9427950060422353,1.2032531538458793,0.6007860732770074,806.25
646,-1.1873929999709165,-2.118644166840889,-1.9558802110626823,0.942795060004307,1.2032531533718545,0.5019215422256647,807.5
647,-1.1873930116209745,-2.118644215825599,-1.9558802196567648,0.9427951176899885,1.2032531649369256,0.3930570196202867,808.75
648,-1.1873930287204468,-2.118644268093452,-1.9558802298637623,0.9427951799621959,1.2032531825127641,0.2741925047541852,810.0
649,-1.187393052272371,-2.118644321819663,-1.955880241603159,0.9427952451315434,1.2032532065560924,0.14532799722302026,811.25
650,-1.187393089087115,-2.1186443730132294,-1.9558802557877688,0.9427953100253755,1.2032532438218113,0.006463494171277069,812.5
651,-1.1873931328919933,-2.1186444235126056,-1.9558802713354324,0.9427953755174958,1.2032532880770854,-0.1424010067670887,813.75
652,-1.1873931908656936,-2.1186444660704207,-1.9558802888109974,0.9427954348677308,1.203253346446655,-0.3012655009579794,815.0
653,-1.1873932574162898,-2.1186445004601464,-1.9558803070246016,0.9427954867160772,1.2032534133341017,-0.4676346022302055,816.25
654,-1.1873933265544736,-2.1186445235620743,-1.9558803243339282,0.9427955263684948,1.203253482719618,-0.6265083183624898,817.5
655,-1.1873933950242943,-2.118644531078928,-1.9558803395139546,0.9427955483448239,1.203253551309454,-0.7753820344948867,818.75
656,-1.18739346031894,-2.1186445326278154,-1.9558803532723288,0.9427955629762712,1.2032536166728511,-0.9142557506274409,820.0
657,-1.1873935206413568,-2.1186445222520685,-1.9558803644750706,0.9427955632027047,1.2032536769627673,-1.043129466760121,821.25
658,-1.1873935761646375,-2.118644507510797,-1.9558803741235562,0.9427955575675973,1.2032537324139174,-1.1620031828929185,822.5
659,-1.1873936258076077,-2.1186444903127652,-1.9558803822370296,0.9427955480062487,1.2032537819597204,-1.2708768990258696,823.75
660,-1.1873936679419343,-2.1186444656811037,-1.9558803878416853,0.942795528594789,1.203253823929968,-1.3697506151588672,825.0
661,-1.1873937058148345,-2.118644443540669,-1.9558803928794855,0.9427955111465841,1.2032538616553836,-1.4586243312919795,826.25
662,-1.1873937386287994,-2.118644422782454,-1.9558803970431677,0.9427954942558154,1.203253894328754,-1.5374980474251465,827.5
663,-1.1873937627817175,-2.118644398397403,-1.9558803989448945,0.9427954715727915,1.2032539183041355,-1.6063717635583838,828.75
664,-1.1873937834277948,-2.1186443775528963,-1.9558804005705037,0.9427954521831899,1.203253938798453,-1.6652454796916614,830.0
665,-1.1873938005670317,-2.1186443602489375,-1.9558804019199914,0.9427954360870089,1.2032539558117077,-1.7141191958249626,831.25
666,-1.1873938141994271,-2.1186443464855236,-1.9558804029933612,0.9427954232842504,1.2032539693438975,-1.7529929119582914,832.5
667,-1.1873938243249813,-2.1186443362626544,-1.955880403790614,0.9427954137749148,1.2032539793950234,-1.7818666280915962,833.75
668,-1.187393830943694,-2.11864432958033,-1.9558804043117495,0.942795407559002,1.2032539859650853,-1.8007403442248913,835.0
669,-1.1877061269405018,-2.1192477459377197,-1.9546981375711494,0.9422163782817563,1.2035655570726982,-1.8104887154786353,836.25
670,-1.1892041542656282,-2.12214227162751,-1.9490269567383705,0.9394388648076704,1.2050601071776534,-1.8119059126125907,837.5
671,-1.1898903099784868,-2.1234680867664983,-1.9464293206853154,0.9381666470220213,1.205744668640752,-1.8042765966134304,838.75
672,-1.1898903039557378,-2.123468090477976,-1.9464293219529747,0.9381666438645375,1.205744659250629,-1.7882310876022074,840.0
673,-1.189890294179447,-2.1234680965025476,-1.9464293240106736,0.9381666387392233,1.2057446440083246,-1.7621855785909817,841.25
674,-1.1898902806496143,-2.123468104840214,-1.946429326858413,0.9381666316460792,1.205744622913839,-1.7261400695797255,842.5
675,-1.18989026336624,-2.123468115490975,-1.9464293304961917,0.9381666225851046,1.205744595967172,-1.6800945605684887,843.75
676,-1.1898902429453622,-2.1234681279123118,-1.9464293354893316,0.9381666095588943,1.2057445685174804,-1.6240490699243226,845.0
677,-1.1898902190448872,-2.1234681424054913,-1.9464293415239042,0.9381665936766268,1.205744537594322,-1.5580035837701074,846.25
678,-1.1898901888547646,-2.123468160278886,-1.946429341898553,0.9381665947170366,1.2057445049917566,-1.4819581070289365,847.5
679,-1.1898901526104915,-2.123468181427943,-1.9464293371928947,0.9381666109759645,1.2057444704450264,-1.395912637142221,848.75
680,-1.189890112165455,-2.123468205119231,-1.946429331864449,0.9381666294859061,1.2057444319835524,-1.299867178525954,850.0
681,-1.1898900654593556,-2.123468225424601,-1.9464293247605702,0.9381666430575855,1.2057443865280524,-1.1938217266818794,851.25
682,-1.189890011585697,-2.123468239746695,-1.9464293153586976,0.93816664859001,1.2057443327364628,-1.0777762831221074,852.5
683,-1.1898899530552218,-2.1234682547616233,-1.9464293050744377,0.9381666539861978,1.205744274275605,-0.9517308478749764,853.75
684,-1.1898898894762595,-2.1234682532720046,-1.9464292916469643,0.9381666397288787,1.2057442106257408,-0.8156854188937951,855.0
685,-1.1898898212422027,-2.1234682516027066,-1.94642927722751,0.9381666243475286,1.2057441423150028,-0.669639990286297,856.25
686,-1.1898897537453534,-2.1234682290921323,-1.9464292602905942,0.9381665856418926,1.2057440745749255,-0.5135945687324275,857.5
687,-1.1898896846799356,-2.1234682007633037,-1.94642924228148,0.9381665400736607,1.2057440052172426,-0.3480236024710116,858.75
688,-1.1898896260325953,-2.1234681577741257,-1.9464292245625336,0.9381664800570911,1.2057439461664952,-0.18633456182354663,860.0
689,-1.1898895773938607,-2.1234681110066354,-1.9464292084430816,0.9381664177658995,1.2057438971020866,-0.03464552117597194,861.25
690,-1.1898895400584788,-2.123468059154793,-1.9464291940253116,0.9381663519854735,1.205743859309185,0.10704351947174671,862.5
691,-1.1898895116391155,-2.1234680072931686,-1.9464291814625132,0.9381662879581867,1.2057438304399757,0.2387325601196465,863.75
692,-1.1898894942448615,-2.1234679541896377,-1.9464291710358865,0.9381662247137935,1.205743812595283,0.3604216007676262,865.0
693,-1.1898894782800096,-2.1234679054499828,-1.9464291614660787,0.9381661666666117,1.2057437962170081,0.4721106414157423,866.25
694,-1.1898894771655544,-2.1234678575114776,-1.9464291550906596,0.938166112460013,1.2057437947086151,0.5737996820639581,867.5
695,-1.1898894761755043,-2.1234678142832686,-1.9464291493447683,0.9381660635825393,1.2057437933633477,0.6654887227122607,868.75
696,-1.1898894752934337,-2.123467775769715,-1.946429144225546,0.9381660200358514,1.205743792164801,0.747177763360639,870.0
697,-1.1898894826376205,-2.1234677421610626,-1.9464291414475277,0.9381659836405156,1.2057437992398743,0.8188668040090783,871.25
698,-1.1898894901772028,-2.1234677132691124,-1.9464291393146431,0.938165952595571,1.2057438065491777,0.8805558446575513,872.5
699,-1.189889496494594,-2.1234676890606456,-1.9464291375275038,0.9381659265831143,1.205743812673619,0.9322448853060806,873.75
700,-1.1898895015897937,-2.1234676695356605,-1.9464291360861115,0.9381659056031465,1.2057438176131976,0.9739339259546123,875.0
701,-1.1898895054628016,-2.123467654694157,-1.9464291349904674,0.9381658896556688,1.2057438213679135,1.0056229666031555,876.25
702,-1.1898895081136178,-2.123467644536135,-1.9464291342405722,0.938165878740681,1.2057438239377667,1.0273120072516537,877.5
703,-1.189946800653038,-2.1235801019754326,-1.9462086342288343,0.9380578050197508,1.2058009788106347,1.0391988967597745,878.75
704,-1.1912379871513452,-2.126114711702249,-1.9412391700509743,0.9356222486369739,1.2070890636600102,1.0433877413836337,880.0
705,-1.1923475454476917,-2.1282927895731163,-1.9369687453618947,0.9335292956162352,1.2081959562495228,1.0378733146047816,881.25
706,-1.1923523341478572,-2.128302197626878,-1.936950310231534,0.9335202586621721,1.2082007325473327,1.0246465823730713,882.5
707,-1.1923523311337207,-2.1283022053701655,-1.9369503138024093,0.9335202572138847,1.2082007279627043,1.0014377566800339,883.75
708,-1.192352326820881,-2.1283022164498075,-1.9369503189118698,0.9335202551415727,1.2082007214026942,0.968228930986971,885.0
709,-1.1923523212093392,-2.1283022308658044,-1.9369503255599154,0.9335202524452361,1.2082007128673022,0.9250201052938827,886.25
710,-1.1923523138922445,-2.128302248798964,-1.9369503335347484,0.9335202496948601,1.2082006988035296,0.8718112865236254,887.5
711,-1.1923523047899751,-2.1283022702846717,-1.9369503427949195,0.9335202470019932,1.2082006785160386,0.8086024741842225,888.75
712,-1.1923522976615188,-2.128302298073842,-1.9369503516011641,0.9335202568115546,1.208200662075698,0.7353936666609497,890.0
713,-1.192352298357599,-2.128302337143928,-1.9369503566647617,0.9335203012806192,1.2082006615765197,0.6521848706613252,891.25
714,-1.1923522991457554,-2.1283023809645245,-1.9369503622871498,0.9335203513306158,1.2082006610913862,0.5589760822465994,892.5
715,-1.1923523022197466,-2.1283024289170562,-1.9369503688911327,0.9335204065681434,1.208200663085457,0.45576730092433276,893.75
716,-1.192352318307365,-2.128302477982782,-1.9369503785387558,0.9335204650950211,1.2082006796206515,0.3425585294943657,895.0
717,-1.1923523358179502,-2.128302531380771,-1.9369503890404651,0.9335205287848924,1.2082006976331146,0.21934976680486382,896.25
718,-1.1923523667840752,-2.128302582069135,-1.9369504020168287,0.9335205920476546,1.208200729059997,0.08614101000914391,897.5
719,-1.192352404292633,-2.128302634093945,-1.9369504165359412,0.9335206580978819,1.2082007670342727,-0.057067744949259314,898.75
720,-1.1923524553940374,-2.1283026786917567,-1.9369504329366383,0.9335207184781786,1.208200818549868,-0.21027649503059448,900.0
721,-1.192352514236142,-2.1283027217606665,-1.9369504507561306,0.9335207786719769,1.2082008777994868,-0.37348523887494156,901.25
722,-1.1923525841835616,-2.128302746643275,-1.9369504685548038,0.933520820579868,1.20820094801402,-0.5379691701786797,902.5
723,-1.1923526513927831,-2.1283027658072484,-1.9369504850465924,0.9335208555019315,1.208201015440706,-0.6924965731368093,903.75
724,-1.192352718529355,-2.1283027673604478,-1.9369504992586108,0.933520870569116,1.2082010826491743,-0.8370239760950696,905.0
725,-1.1923527809725942,-2.1283027667076437,-1.9369505122073836,0.9335208822200085,1.2082011451419552,-0.971551379053462,906.25
726,-1.1923528384384776,-2.1283027514540276,-1.9369505222397683,0.9335208764341721,1.2082012025323643,-1.0960787820120328,907.5
727,-1.192352891289646,-2.1283027374253365,-1.9369505314665079,0.9335208711129547,1.2082012553141193,-1.2106061849706686,908.75
728,-1.1923529365444323,-2.1283027155292364,-1.9369505380960972,0.9335208554214107,1.2082013004278056,-1.315133587929429,910.0
729,-1.1923529763435738,-2.1283026922937207,-1.936950543414783,0.9335208371386766,1.2082013400699807,-1.409660990888303,911.25
730,-1.1923530119323882,-2.128302671516279,-1.936950548170803,0.9335208207900602,1.2082013755184342,-1.4941883938472316,912.5
731,-1.1923530402011013,-2.1283026488835626,-1.9369505511604515,0.9335208008992477,1.2082014036250182,-1.5687157968062566,913.75
732,-1.1923530625588237,-2.128302626350049,-1.9369505529291577,0.9335207799476855,1.208201425816231,-1.6332431997652925,915.0
733,-1.1923530814517047,-2.12830260730862,-1.936950554423761,0.933520762243047,1.2082014445684073,-1.6877706027243966,916.25
734,-1.1923530968797447,-2.1283025917592764,-1.9369505556442608,0.933520747785332,1.208201459881547,-1.7322980056835053,917.5
735,-1.192353108842943,-2.128302579702017,-1.9369505565906597,0.9335207365745424,1.208201471755649,-1.7668254086426396,918.75
736,-1.1923531173412998,-2.128302571136842,-1.936950557262958,0.9335207286106777,1.2082014801907144,-1.791352811601728,920.0
737,-1.1923531223748147,-2.1283025660637502,-1.9369505576611552,0.9335207238937385,1.2082014851867424,-1.8058802145608213,921.25
738,-1.1932479208075941,-2.1300870009451263,-1.9334495220987484,0.9318036625556677,1.2090940597871886,-1.8124005440219373,922.5
739,-1.194631846427086,-2.132846881771283,-1.928034683760911,0.929147991031258,1.2104745453012413,-1.8094954829150254,923.75
740,-1.1947830564349542,-2.1331484411268136,-1.9274430350846623,0.9288578184382849,1.2106253772032778,-1.798649773773316,925.0
741,-1.194783048882438,-2.133148445778496,-1.9274430366832762,0.9288578145063237,1.2106253653412855,-1.778299375460394,926.25
742,-1.1947830376186845,-2.1331484527159725,-1.927443039067434,0.9288578086422327,1.210625347650418,-1.747948977147455,927.5
743,-1.1947830226436935,-2.1331484619392427,-1.9274430422371363,0.9288578008460118,1.2106253241306755,-1.707598578834507,928.75
744,-1.194783004123251,-2.133148473298463,-1.927443046349503,0.9288577905635353,1.21062529623684,-1.6572481856085508,930.0
745,-1.1947829825205147,-2.1331484863750116,-1.9274430518434822,0.9288577762467345,1.210625268033155,-1.5968978090231318,931.25
746,-1.1947829573096647,-2.133148501630996,-1.9274430581765876,0.9288577597651144,1.210625235190779,-1.5265474325899941,932.5
747,-1.1947829238661605,-2.133148521116987,-1.927443053816777,0.9288577747106905,1.210625203317433,-1.4461970721714192,933.75
748,-1.1947828862643337,-2.133148543056064,-1.927443048888932,0.9288577916363158,1.2106251675116655,-1.3558467156961496,935.0
749,-1.1947828445101498,-2.133148567491131,-1.927443043354021,0.9288578107261383,1.2106251278262263,-1.255496368226272,936.25
750,-1.1947827944917062,-2.1331485826547425,-1.9274430348337093,0.9288578179001812,1.2106250781685424,-1.1451460309418602,937.5
751,-1.194782739285806,-2.1331485973289865,-1.9274430251530763,0.9288578235256819,1.2106250230406588,-1.0247957011394284,938.75
752,-1.1947826793056224,-2.1331486050899837,-1.9274430135906666,0.9288578203825095,1.2106249630692076,-0.8944453782266734,940.0
753,-1.1947826144987232,-2.1331486036102856,-1.927442999838821,0.9288578058262968,1.2106248981888457,-0.7540950589594413,941.25
754,-1.1947825473602651,-2.1331485932850462,-1.927442984457733,0.9288577808365774,1.210624830902583,-0.6037447427947199,942.5
755,-1.1947824788310157,-2.1331485705175055,-1.9274429671799969,0.9288577415470366,1.210624762122785,-0.44339443317122423,943.75
756,-1.1947824152346282,-2.1331485340468452,-1.9274429491661778,0.9288576877941572,1.21062469816612,-0.2772485286202119,945.0
757,-1.1947823588331368,-2.1331484928243944,-1.9274429320447006,0.9288576301165753,1.2106246413711699,-0.11986649430643373,946.25
758,-1.1947823184216808,-2.1331484417278412,-1.927442916995004,0.9288575644901663,1.2106246004982577,0.027515540007468302,947.5
759,-1.1947822826555372,-2.1331483921815244,-1.92744290311738,0.9288575015348154,1.2106245642877003,0.16489757432156002,948.75
760,-1.1947822620862298,-2.1331483388940358,-1.9274428919369546,0.9288574373851564,1.210624543256344,0.2922796086357403,950.0
761,-1.194782245509885,-2.1331482884022783,-1.9274428819528202,0.9288573771805868,1.2106245262447834,0.4096616429500753,951.25
762,-1.1947822362056078,-2.133148240656675,-1.927442873844742,0.928857321517367,1.2106245165346297,0.5170436772645066,952.5
763,-1.1947822351682233,-2.1331481953931766,-1.9274428677868196,0.9288572702957428,1.2106245151193944,0.6144257115790102,953.75
764,-1.1947822342373664,-2.133148154777716,-1.9274428623509694,0.9288572243339794,1.2106245138494875,0.7018077458936396,955.0
765,-1.1947822362291836,-2.1331481188745984,-1.9274428581347804,0.9288571842646246,1.210624515544097,0.7791897802083017,956.25
766,-1.1947822443672231,-2.1331480877574385,-1.9274428558222856,0.9288571508117304,1.2106245234302524,0.8465718145230392,957.5
767,-1.1947822512975164,-2.1331480612582987,-1.9274428538529822,0.9288571223234967,1.2106245301460432,0.9039538488377998,958.75
768,-1.1947822570200637,-2.133148039377182,-1.927442852226867,0.9288570987999222,1.2106245356914693,0.951335883152596,960.0
769,-1.1947822615348647,-2.133148022114084,-1.927442850943944,0.9288570802410088,1.2106245400665305,0.9887179174673753,961.25
770,-1.1947822648419197,-2.1331480094690063,-1.9274428500042133,0.9288570666467566,1.2106245432712275,1.0160999517821803,962.5
771,-1.1947822669412282,-2.1331480014419486,-1.9274428494076754,0.9288570580171654,1.2106245453055593,1.0334819860969824,963.75
772,-1.1952571948169202,-2.1341101555983695,-1.9255538451023422,0.9279299768910666,1.211098252349672,1.042119469905723,965.0
773,-1.1967130375310648,-2.1370595591203454,-1.919763284339045,0.9250881109328737,1.2125503527262316,1.0420694131933446,966.25
774,-1.1971798624250694,-2.138005308625534,-1.91790650236249,0.9241768466895132,1.213015977025563,1.0333526237392359,967.5
775,-1.1971798601748662,-2.1380053143761177,-1.9179065050388862,0.9241768456111459,1.2130159735342914,1.0158776600220318,968.75
776,-1.1971798566369896,-2.138005323417457,-1.9179065092468424,0.9241768439156859,1.2130159680451487,0.9884026963047955,970.0
777,-1.1971798518114403,-2.1380053357495514,-1.9179065149863583,0.9241768416031331,1.2130159605581354,0.9509277325875689,971.25
778,-1.1971798456982181,-2.138005351372401,-1.917906522257435,0.9241768386734874,1.2130159510732514,0.9034527688703669,972.5
779,-1.1971798375426166,-2.1380053706354474,-1.9179065306509262,0.9241768362432526,1.2130159329298473,0.8459778133625053,973.75
780,-1.1971798279204842,-2.138005393272063,-1.9179065404790148,0.9241768334605243,1.2130159112100694,0.7785028583322362,975.0
781,-1.1971798254266537,-2.138005426492681,-1.9179065469290335,0.9241768625133373,1.213015904187233,0.7010279150295836,976.25
782,-1.197179826150557,-2.1380054669936706,-1.9179065522100098,0.9241769086646451,1.2130159036725958,0.6135529764676498,977.5
783,-1.1971798269717009,-2.138005512217519,-1.9179065580099346,0.924176960491383,1.2130159032279155,0.5160780505961934,978.75
784,-1.1971798362606396,-2.138005559749417,-1.917906565999996,0.9241770162725168,1.2130159121977913,0.40860313154366146,980.0
785,-1.1971798527549922,-2.1380056099399805,-1.917906575940542,0.9241770762109374,1.21301592916271,0.2911282205062922,981.25
786,-1.197179873362275,-2.138005662818926,-1.9179065870954792,0.9241771399909551,1.2130159502729123,0.16365331730562474,982.5
787,-1.1971799089392812,-2.13800571204032,-1.917906600934194,0.9241772025831168,1.2130159862979635,0.02617841949193023,983.75
788,-1.1971799492696429,-2.1380057626630684,-1.9179066159517444,0.924177267702902,1.2130160270918433,-0.12129647703322727,985.0
789,-1.1971800053680748,-2.1380058036045213,-1.9179066330232908,0.9241773250523228,1.2130160835842798,-0.27877136667738495,986.25
