AdelaJim/TFM_AdelaJimenez/workspace/ros_ur_driver/src/trayectories/data/saved_trajectories/20250105_1745_trajectory.csv
,shoulder_pan_joint,shoulder_lift_joint,elbow_joint,wrist_1_joint,wrist_2_joint,wrist_3_joint,time_from_start
0,4.827580975943023,-2.044352869641024,-1.86860742293596,0.5324807203549234,-4.999255826782757,0.7043513023825947,0.0
1,4.830706488990546,-2.0443323438403316,-1.8710687771252505,0.5374807203549234,-4.999661465245717,0.7089551920626695,1.25
2,4.840083028133115,-2.044270766438254,-1.8784528396931224,0.5524807203549235,-5.0008783806345996,0.7227668611028939,2.5
3,4.855711625669336,-2.0441727733321677,-1.8907525865892436,0.5774807283816128,-5.002912850477159,0.7457805402246398,3.75
4,4.877701435304452,-2.0445278767235067,-1.9072264541980277,0.6124818340890228,-5.006427750474462,0.777387263277934,5.0
5,4.906233989701098,-2.046153066889211,-1.9266362815864717,0.6574848279616441,-5.012529323480694,0.8165697312837559,6.25
6,4.940459806115192,-2.049689890044934,-1.9471743768233507,0.7108408897516825,-5.021952470410609,0.8609347027622912,7.5
7,4.975366392644723,-2.0549170827818495,-1.965246419519569,0.7645515413223151,-5.033710979778608,0.9033353801995254,8.75
8,5.009578387416229,-2.061470781416504,-1.9803025031493386,0.8165077697633517,-5.047104737431692,0.9421646631640966,10.0
9,5.038383661168306,-2.0679972682732823,-1.991055732279494,0.8597522634820033,-5.059683452585274,0.9728497426711955,11.25
10,5.060730282883169,-2.0736418540120676,-1.9982190842683147,0.8929990818301603,-5.070164697876314,0.9953892331769096,12.5
11,5.07645813085372,-2.0779062150240257,-2.002665540746646,0.9162466919042827,-5.07790253902405,1.0106120034835901,13.75
12,5.086990714570764,-2.0808750216935583,-2.005412483565492,0.9317562332643138,-5.083224304219211,1.0184468602595054,15.0
13,5.097475622798293,-2.0838392226338804,-2.008128994675481,0.947191193575038,-5.088532691799223,1.0165437379091857,16.25
14,5.106515862107126,-2.086395088093591,-2.0104710599534754,0.9604996308144496,-5.0931095342376,1.0046433955463998,17.5
15,5.111334289168831,-2.0877574822463454,-2.011719166309812,0.9675932650208278,-5.095548805019454,0.9839812726246601,18.75
16,5.111513486407202,-2.087808364592319,-2.0117652198829696,0.9678575418136506,-5.095639215798183,0.9583245702186128,20.0
17,5.111513147510371,-2.0878085745154475,-2.0117646150181425,0.9678577038602832,-5.095638609402085,0.9229208854253653,21.25
18,5.111512703187069,-2.0878088320962402,-2.0117638506139155,0.9678578673946321,-5.095637750597199,0.8775172125950309,22.5
19,5.111512149821585,-2.0878091329985,-2.011762930884255,0.9678580159149409,-5.095636609151802,0.8221135522925633,23.75
20,5.111511510015116,-2.0878094813900177,-2.011761867873596,0.9678581878703572,-5.095635288838698,0.7567098922974624,25.0
21,5.111511504091402,-2.0878095116038797,-2.0117618796899155,0.967858202516841,-5.095635245313796,0.6813062453320806,26.25
22,5.111511497581681,-2.0878095453143244,-2.011761893498891,0.9678582168704104,-5.095635197688297,0.5959026006832935,27.5
23,5.111511491070164,-2.0878095810275017,-2.011761910546197,0.9678582243882479,-5.0956351508551565,0.5004989643426558,28.75
24,5.111511477755307,-2.087809626689803,-2.011761922753451,0.9678582673997002,-5.095635126507421,0.3950953340609167,30.0
25,5.111511460772144,-2.0878096791900465,-2.0117619334487493,0.9678583284332335,-5.09563511090927,0.2796917091002639,31.25
26,5.111511438174341,-2.087809734008931,-2.011761945454192,0.9678583936013334,-5.09563508951647,0.15428808846240938,32.5
27,5.1115114009271565,-2.087809786144574,-2.011761959776401,0.9678584596571905,-5.09563505190291,0.018884469355225444,33.75
28,5.111511358047771,-2.0878098392103452,-2.011761975374143,0.9678585278595997,-5.095635008623337,-0.1265191439096399,35.0
29,5.11151129919264,-2.087809882698944,-2.0117619930418265,0.9678585883268627,-5.095634949378879,-0.281922749049513,36.25
30,5.111511232271687,-2.0878099208358503,-2.0117620116779062,0.9678586443386799,-5.095634882104661,-0.44663412464771857,37.5
31,5.111511159950364,-2.0878099451987784,-2.011762029653191,0.9678586858885516,-5.095634809535444,-0.6067756897183929,38.75
32,5.111511088987576,-2.0878099558601004,-2.011762045589236,0.9678587117405689,-5.095634738432396,-0.7569172547890646,40.0
33,5.111511020611191,-2.087809957556334,-2.011762059842543,0.967858726990183,-5.095634669987538,-0.8970588198597325,41.25
34,5.111510957345164,-2.0878099490257886,-2.0117620717329485,0.9678587297238521,-5.095634606736648,-1.0272003849303972,42.5
35,5.111510899114657,-2.0878099335386855,-2.0117620816959647,0.9678587236396097,-5.0956345485794134,-1.1473419500010593,43.75
36,5.111510846425719,-2.0878099172059357,-2.011762090412832,0.967858715521799,-5.0956344959747994,-1.2574835150717187,45.0
37,5.111510802144199,-2.08780989122174,-2.011762096163945,0.9678586948928791,-5.095634451859414,-1.3576250801423766,46.25
38,5.111510762284571,-2.087809867832293,-2.0117621013407545,0.9678586763239321,-5.095634412149329,-1.447766645213033,47.5
39,5.111510726938796,-2.0878098469089585,-2.0117621059078603,0.9678586596521317,-5.095634376937583,-1.52790821028369,48.75
40,5.111510701416226,-2.0878098210252514,-2.0117621078213013,0.9678586354768497,-5.0956343515955345,-1.5980497753543457,50.0
41,5.11151067953238,-2.087809798831754,-2.011762109461945,0.9678586147482093,-5.095634329866472,-1.6581913404250037,51.25
42,5.111510661287253,-2.087809780328467,-2.011762110829789,0.9678585974662084,-5.095634311750394,-1.7083329054956624,52.5
43,5.111510646680852,-2.0878097655153907,-2.0117621119248352,0.9678585836308488,-5.095634297247303,-1.7484744705663224,53.75
44,5.111510635713171,-2.0878097543925227,-2.011762112747086,0.967858573242131,-5.095634286357197,-1.7786160356369818,55.0
45,5.111510628384214,-2.0878097469598638,-2.0117621132965398,0.967858566300055,-5.095634279080078,-1.7987576007076398,56.25
46,5.111313583151378,-2.0881569396343442,-2.0110871979199088,0.9675306895599249,-5.095437604480474,-1.8094500143681533,57.5
47,5.109739174457947,-2.0909311231901664,-2.005694459393353,0.9649109038776819,-5.093866157081117,-1.812067457648437,58.75
48,5.108797538558514,-2.092590338587088,-2.0024691135128876,0.9633440338471803,-5.092926293617665,-1.8053218156998443,60.0
49,5.108797544344966,-2.0925903421573184,-2.00246911472392,0.9633440307599497,-5.092926302388932,-1.7904117143684204,61.25
50,5.108797554012309,-2.0925903481220534,-2.0024691167471764,0.9633440256021562,-5.092926317042968,-1.7655016130369965,62.5
51,5.108797567560546,-2.092590356481292,-2.002469119582656,0.9633440183737996,-5.092926337579773,-1.730591511705572,63.75
52,5.108797584989676,-2.0925903672350357,-2.0024691232303584,0.9633440090748798,-5.092926363999347,-1.6856814103741473,65.0
53,5.108797605739659,-2.0925903799344607,-2.0024691281495484,0.9633439960832864,-5.092926391592936,-1.6307713248513447,66.25
54,5.108797629993571,-2.092590394726285,-2.002469134190097,0.963343979929275,-5.092926421899801,-1.5658612464625867,67.5
55,5.1087976602502225,-2.092590412805631,-2.002469135840638,0.96334397732341,-5.092926455075831,-1.4909511757291505,68.75
56,5.10879769734973,-2.09259043454644,-2.002469131128746,0.9633439942107713,-5.092926490453784,-1.4060411138301698,70.0
57,5.108797738809127,-2.092590458924205,-2.00246912579543,0.9633440134127453,-5.092926529919056,-1.3111310616042355,71.25
58,5.108797786201103,-2.0925904813929055,-2.0024691189580457,0.9633440294191826,-5.092926575800325,-1.2062210162498321,72.5
59,5.108797841547788,-2.092590496128466,-2.0024691094517446,0.963344035268264,-5.092926631065447,-1.09131097939665,73.75
60,5.108797901713348,-2.0925905121471287,-2.002469099117232,0.9633440416283698,-5.092926691159833,-0.9664009517161501,75.0
61,5.108797967092922,-2.092590512059265,-2.002469085656055,0.9633440287550682,-5.0929267565971745,-0.831490929898347,76.25
62,5.108798037355915,-2.0925905103338835,-2.002469070981599,0.9633440130752209,-5.092926826934844,-0.686580908802062,77.5
63,5.108798107477794,-2.092590489266985,-2.002469053843319,0.9633439756296506,-5.09292689727957,-0.5316708936675963,78.75
64,5.108798180172135,-2.0925904621799445,-2.0024690354,0.9633439308978871,-5.092926970245588,-0.3668689670851531,80.0
65,5.108798241454547,-2.0925904169666523,-2.0024690169678077,0.9633438679728243,-5.092927031932419,-0.20403821226886543,81.25
66,5.108798294078223,-2.092590369570782,-2.0024690000353105,0.9633438042811175,-5.092927084970535,-0.05120745745257627,82.5
67,5.108798333132465,-2.0925903150173113,-2.0024689849714,0.963343735176988,-5.092927124484209,0.09162329736371025,83.75
68,5.108798364746784,-2.0925902615244576,-2.00246897157448,0.9633436687223201,-5.092927156543566,0.22445405218000192,85.0
69,5.108798382968991,-2.0925902056025367,-2.0024689606190975,0.9633436021485791,-5.092927175218893,0.3472848069962924,86.25
70,5.108798399707674,-2.092590154233382,-2.0024689505556155,0.9633435409947929,-5.092927192373809,0.46011556181258406,87.5
71,5.108798402553701,-2.0925901041179937,-2.002468943511279,0.9633434839695199,-5.092927195614879,0.5629463166288791,88.75
72,5.108798403598551,-2.09259005847092,-2.0024689374133016,0.9633434323311438,-5.092927197018286,0.655777071445173,90.0
73,5.108798404530845,-2.092590017741084,-2.002468931972212,0.9633433862554031,-5.0929271982705115,0.7386078262614691,91.25
74,5.108798397980101,-2.0925899821094904,-2.002468928727367,0.9633433473870683,-5.092927191993627,0.8114385810777662,92.5
75,5.108798390016105,-2.092589951427075,-2.0024689264110695,0.963343314371629,-5.092927184263552,0.8742693358940634,93.75
76,5.108798383319641,-2.0925899256280047,-2.002468924463426,0.9633432866108509,-5.09292717776378,0.927100090710359,95.0
77,5.108798377890708,-2.0925899047122787,-2.002468922884438,0.9633432641047344,-5.092927172494306,0.9699308455266531,96.25
78,5.108798373729307,-2.092589888679895,-2.0024689216741076,0.9633432468532805,-5.092927168455136,1.0027616003429491,97.5
79,5.108798370835436,-2.0925898775308545,-2.0024689208324347,0.9633432348564893,-5.092927165646266,1.0255923551592439,98.75
80,5.108785029997243,-2.092613753247544,-2.0024224572124267,0.9633206369465148,-5.092913850873638,1.0384664970357065,100.0
81,5.10751853037975,-2.0948812419198846,-1.9980109857552586,0.9611757043977347,-5.091649821535336,1.043610733256898,101.25
82,5.106161115082849,-2.097311508913206,-1.9932828331664003,0.9588767982564627,-5.090295054075824,1.0390079091041002,102.5
83,5.106123321654927,-2.0973791800267136,-1.993151187274004,0.9588127881494205,-5.090257335029067,1.026689033785576,103.75
84,5.106123324603065,-2.0973791877388823,-1.993151190763461,0.9588127867639227,-5.090257339172403,1.004491607543921,105.0
85,5.106123328879345,-2.0973791989254043,-1.993151195824927,0.9588127847542542,-5.090257345182324,0.9722941813022699,106.25
86,5.106123334483769,-2.0973792135862785,-1.993151202458403,0.9588127821204154,-5.090257353058829,0.9300967550606171,107.5
87,5.106123341760794,-2.0973792318520443,-1.9931512105092792,0.9588127792490537,-5.09025736571464,0.8778993357305271,108.75
88,5.106123350957093,-2.0973792538161833,-1.9931512198668373,0.9588127764170556,-5.090257385235617,0.815701926079893,110.0
89,5.10612335936338,-2.097379281287192,-1.99315122947482,0.9588127818607836,-5.090257403436493,0.743504519615195,111.25
90,5.106123358651605,-2.097379321517255,-1.9931512347294849,0.9588128276323165,-5.09025740394935,0.6613071264917117,112.5
91,5.106123357846589,-2.097379366689235,-1.9931512405819074,0.9588128791755746,-5.090257404468147,0.5691097395641347,113.75
92,5.10612335618619,-2.0973794166026853,-1.9931512471637145,0.9588129364124357,-5.090257404122555,0.4669123597621783,115.0
93,5.106123339642068,-2.097379467320851,-1.9931512571114958,0.9588129968830363,-5.090257387137809,0.35471499104815934,116.25
94,5.106123321621586,-2.0973795225578797,-1.993151267947507,0.9588130627374993,-5.0902573686239645,0.2325176300334815,117.5
95,5.106123291380309,-2.0973795760040486,-1.9931512810839562,0.9588131289280826,-5.090257337916405,0.1003202751880078,118.75
96,5.106123252740838,-2.0973796299043346,-1.9931512960178421,0.9588131972525816,-5.0902572988161054,-0.041877077287352724,120.0
97,5.106123201638807,-2.097379677732212,-1.9931513127351712,0.9588132611744556,-5.090257247292826,-0.19407442554615445,121.25
98,5.106123140973949,-2.0973797224224966,-1.993151331017721,0.9588133234336638,-5.0902571862247985,-0.35627176741478905,122.5
99,5.106123069289485,-2.097379750699764,-1.993151349449584,0.9588133693508377,-5.09025711425765,-0.5215365787966209,123.75
100,5.106122999661239,-2.097379773005209,-1.993151366685491,0.9588134081337368,-5.090257044395585,-0.6770815572585883,125.0
101,5.106122929528234,-2.097379774709224,-1.9931513813618607,0.9588134237934769,-5.0902569741911075,-0.8226265357205066,126.25
102,5.106122864222051,-2.0973797759390957,-1.9931513949819955,0.9588134379731822,-5.09025690882119,-0.9581715141824151,127.5
103,5.106122804125774,-2.0973797599678625,-1.9931514053042998,0.9588134317431015,-5.09025684880139,-1.083716492644318,128.75
104,5.106122748816326,-2.097379745268785,-1.9931514148043965,0.9588134260092596,-5.090256793562327,-1.1992614711062162,130.0
105,5.106122700962704,-2.097379723661161,-1.993151421874461,0.958813411027484,-5.090256745839841,-1.3048064495681073,131.25
106,5.106122659236165,-2.0973796992176967,-1.993151427314942,0.9588133916488479,-5.090256704271913,-1.4003514280299973,132.5
107,5.106122621876841,-2.0973796773325555,-1.9931514321860015,0.9588133742984306,-5.090256667054597,-1.485896406491884,133.75
108,5.106122591563888,-2.0973796542683827,-1.9931514354522042,0.9588133542386312,-5.090256636898797,-1.5614413849537656,135.0
109,5.106122568008411,-2.0973796304281835,-1.993151437225204,0.9588133319803129,-5.0902566135121905,-1.62698636341565,136.25
110,5.106122548046722,-2.097379610225212,-1.9931514387277012,0.9588133131178788,-5.09025659369361,-1.6825313418775387,137.5
111,5.106122531678821,-2.097379593659469,-1.993151439959695,0.9588132976513277,-5.090256577443052,-1.7280763203394356,138.75
112,5.106122518904708,-2.0973795807309528,-1.9931514409211883,0.9588132855806617,-5.0902565647605185,-1.7636212988013282,140.0
113,5.106122509724383,-2.097379571439664,-1.993151441612181,0.9588132769058807,-5.090256555646008,-1.7891662772632198,141.25
114,5.106122504137846,-2.0973795657856025,-1.9931514420326735,0.9588132716269848,-5.090256550099523,-1.8047112557251124,142.5
115,5.105308212719521,-2.098860813462459,-1.9902672535205328,0.9574097456038461,-5.0894439051016835,-1.8119547328834789,143.75
116,5.103745000289401,-2.101704411838442,-1.9847303953703277,0.954715361201878,-5.087883853808061,-1.8100017697296467,145.0
117,5.10348460650244,-2.1021780964964214,-1.9838080746969518,0.9542665327595292,-5.087623988573955,-1.7998262936368281,146.25
118,5.1034846139674634,-2.1021781010990193,-1.9838080762682397,0.9542665288017732,-5.087623999972881,-1.7803649582916017,147.5
119,5.103484625268312,-2.102178108066613,-1.9838080786469177,0.9542665228103664,-5.0876240172290235,-1.7509036229463768,148.75
120,5.103484640404981,-2.102178117399202,-1.983808081832985,0.9542665147853089,-5.087624040342384,-1.7114422876011512,150.0
121,5.103484659269532,-2.1021781290080113,-1.983808085917821,0.9542665044039454,-5.087624068395498,-1.6619809556226022,151.25
122,5.103484681239339,-2.102178142380974,-1.9838080914285072,0.9542664898051726,-5.0876240960963734,-1.6025196435550262,152.5
123,5.103484706903951,-2.1021781580029564,-1.9838080978659622,0.954266472751228,-5.087624128455886,-1.5330583314874544,153.75
124,5.1034847408112505,-2.102178177891436,-1.9838080944146856,0.9542664855542078,-5.0876241614921565,-1.4535970345290665,155.0
125,5.10348477941816,-2.102178200496375,-1.983808089476401,0.9542665031470952,-5.0876241982829535,-1.364135741640299,156.25
126,5.103484822330507,-2.1021782257079713,-1.9838080839159158,0.9542665230473815,-5.087624239100363,-1.2646744587918344,157.5
127,5.103484873365678,-2.1021782425372146,-1.9838080755484373,0.9542665320282301,-5.087624289579696,-1.155213185088241,158.75
128,5.103484930196958,-2.102178257657912,-1.9838080657475627,0.9542665379886048,-5.087624346333933,-1.035751919006839,160.0
129,5.103484991942576,-2.10217826723092,-1.9838080542190832,0.954266536706832,-5.087624408059048,-0.906290660054788,161.25
130,5.103485058730175,-2.1021782656258043,-1.9838080402143596,0.9542665217845352,-5.087624474918826,-0.7668294052083692,162.5
131,5.103485128429612,-2.1021782566916993,-1.98380802465759,0.9542664980258022,-5.087624544750175,-0.6173681528497116,163.75
132,5.10348519911174,-2.102178233015104,-1.983808006985514,0.9542664574501827,-5.087624615679999,-0.4579069071729588,165.0
133,5.103485266196233,-2.10217819671574,-1.9838079884193136,0.9542664033470087,-5.08762468310973,-0.29157260121366435,166.25
134,5.10348532502919,-2.1021781534397705,-1.9838079706527172,0.9542663429967927,-5.087624742336611,-0.13329516222870919,167.5
135,5.103485368574161,-2.10217810119875,-1.9838079548813794,0.9542662755386843,-5.087624786334127,0.014982276756236389,168.75
136,5.103485405915438,-2.1021780491777267,-1.9838079404200895,0.9542662095466016,-5.087624824121008,0.1532597157411748,170.0
137,5.103485428848107,-2.10217799406568,-1.9838079285343126,0.9542661428977695,-5.087624847511851,0.2815371547261026,171.25
138,5.103485446176547,-2.1021779410160573,-1.9838079180737322,0.9542660796748687,-5.087624865277351,0.3998145937110227,172.5
139,5.10348545720211,-2.1021778911663427,-1.983807909330214,0.9542660212977372,-5.087624876709212,0.5080920326959397,173.75
140,5.103485458292814,-2.1021778435516105,-1.9838079029288778,0.9542659673913513,-5.087624878180103,0.6063694716808518,175.0
141,5.103485459272537,-2.1021778007818117,-1.983807897178889,0.9542659189700857,-5.087624879501325,0.6946469106657623,176.25
142,5.103485458102139,-2.1021777629059577,-1.983807892507845,0.9542658764895546,-5.087624878631646,0.7729243496506715,177.5
143,5.103485449553164,-2.102177730049725,-1.983807890012113,0.9542658411179692,-5.087624870337233,0.84120178863558,178.75
144,5.103485442256281,-2.1021777020056573,-1.9838078878819088,0.9542658109269507,-5.087624863257631,0.8994792276204916,180.0
145,5.103485436211493,-2.102177678773757,-1.983807886117229,0.9542657859164975,-5.0876248573928375,0.9477566666054098,181.25
146,5.103485431418798,-2.1021776603540214,-1.9838078847180778,0.9542657660866114,-5.087624852742854,0.9860341055903288,182.5
147,5.103485427878197,-2.1021776467464512,-1.983807883684456,0.9542657514372932,-5.087624849307682,1.0143115445752453,183.75
148,5.10348542558969,-2.1021776379510455,-1.9838078830163626,0.9542657419685424,-5.08762484708732,1.032588983560163,185.0
149,5.103085937620868,-2.1029159569068376,-1.9823691118905087,0.95356501503373,-5.087226196142941,1.041876416413002,186.25
150,5.101507403805912,-2.1058333704693615,-1.9766839474718483,0.9507961779877431,-5.085650969669413,1.0426581576840832,187.5
151,5.100884020886321,-2.106985498915644,-1.9744388015714733,0.9497027272299811,-5.085028893305254,1.034538894825756,188.75
152,5.1008840230858565,-2.1069855046382537,-1.9744388041835663,0.9497027261973883,-5.085028896461816,1.0178327194988124,190.0
153,5.100884026601992,-2.10698551378631,-1.9744388083592086,0.9497027245467051,-5.085028901507837,0.9911265441718682,191.25
154,5.100884031434729,-2.106985526359812,-1.9744388140984004,0.9497027222779315,-5.0850289084433165,0.9544203688449238,192.5
155,5.100884037584065,-2.10698554235876,-1.9744388214011417,0.9497027193910675,-5.085028917268254,0.907714193517977,193.75
156,5.100884045781839,-2.106985562072995,-1.974438829925154,0.9497027167608103,-5.085028934238509,0.8510080329297958,195.0
157,5.100884055546199,-2.1069855853116835,-1.9744388398957988,0.9497027138112474,-5.08502895523514,0.7843018745864824,196.25
158,5.1008840589756375,-2.1069856187761467,-1.9744388470271925,0.949702740294261,-5.085028963845357,0.7075957268534632,197.5
159,5.100884058233447,-2.1069856605962043,-1.9744388525215384,0.9497027879228631,-5.085028964378164,0.6208895849877909,198.75
160,5.100884057392467,-2.106985707331793,-1.9744388585681167,0.94970284143971,-5.085028964859073,0.5241834550956106,200.0
161,5.100884048952837,-2.1069857568245,-1.974438866630916,0.9497028993084573,-5.085028956908916,0.41747733189310404,201.25
162,5.100884031956257,-2.106985808802269,-1.9744388768938292,0.9497029613479587,-5.085028939448994,0.30077121684224556,202.5
163,5.1008840119471515,-2.1069858643207633,-1.9744388882429935,0.9497030279690771,-5.0850289189342055,0.17406510983682513,203.75
164,5.100883975257178,-2.1069859153659607,-1.9744389024822784,0.9497030927703776,-5.085028881800236,0.037359008612159725,205.0
165,5.100883934824823,-2.10698596907566,-1.974438917843271,0.949703161313334,-5.085028840899675,-0.10934709190397045,206.25
166,5.100883876934012,-2.1069860115952856,-1.974438935362103,0.9497032206699734,-5.08502878261853,-0.266053185412482,207.5
167,5.100883812269357,-2.1069860507197626,-1.974438953841545,0.949703277529528,-5.085028717585072,-0.4319550145719129,208.75
168,5.100883741328249,-2.1069860744382667,-1.9744389716156263,0.9497033182449988,-5.085028646393488,-0.592989208973651,210.0
169,5.100883672172919,-2.1069860866278827,-1.9744389875197028,0.9497033456035674,-5.0850285770817685,-0.7440234033754318,211.25
170,5.100883605046801,-2.106986088223111,-1.9744390016249844,0.9497033606115278,-5.085028509886053,-0.8850575977772435,212.5
171,5.100883542869816,-2.106986081433856,-1.974439013614515,0.9497033651872766,-5.085028447710984,-1.0160917921790968,213.75
172,5.100883485642563,-2.106986066234005,-1.9744390234847744,0.9497033593012418,-5.085028390557374,-1.1371259865809666,215.0
173,5.100883433429041,-2.1069860514168717,-1.9744390323667957,0.9497033528603851,-5.085028338418663,-1.2481601809828688,216.25
174,5.100883389845285,-2.106986025925629,-1.9744390380730867,0.9497033326802047,-5.0850282950027355,-1.3491943753848008,217.5
175,5.100883350575291,-2.1069860029574197,-1.9744390432145855,0.9497033144973837,-5.085028255883959,-1.4402285697867527,218.75
176,5.100883315619059,-2.106985982512242,-1.9744390477912939,0.9497032983119229,-5.085028221062332,-1.52126276418872,220.0
177,5.100883289974572,-2.1069859576365335,-1.974439049863565,0.9497032752962014,-5.085028195595905,-1.5922969585906908,221.25
178,5.10088326830829,-2.1069859357507124,-1.974439051501276,0.9497032548705201,-5.085028174087039,-1.653331152992679,222.5
179,5.100883250191866,-2.106985917450722,-1.974439052870657,0.9497032377914335,-5.08502815610224,-1.7043653473946763,223.75
180,5.100883235625302,-2.106985902736561,-1.9744390539717107,0.9497032240589429,-5.085028141641509,-1.7453995417966786,225.0
181,5.100883224608597,-2.106985891608229,-1.9744390548044386,0.9497032136730491,-5.0850281307048455,-1.776433736198682,226.25
182,5.100883217141753,-2.1069858840657263,-1.9744390553688407,0.9497032066337523,-5.085028123292252,-1.797467930600679,227.5
183,5.100777678558066,-2.107184042201387,-1.9740525912799791,0.9495148312777881,-5.084922813782771,-1.8088367719313572,228.75
184,5.099359666299251,-2.1098466400641644,-1.9688598770247154,0.9469837827363171,-5.083507879108299,-1.812383507220394,230.0
185,5.098317460990274,-2.1118035945961737,-1.965043344105579,0.94512351618147,-5.082467936969129,-1.8063491040781212,231.25
186,5.0983174662714985,-2.1118035978502427,-1.9650433452234872,0.9451235133999636,-5.082467945092997,-1.7924208878659074,232.5
187,5.098317475344469,-2.1118036034406265,-1.9650433471440163,0.9451235086214274,-5.082467959049534,-1.768492671653695,233.75
188,5.098317488209185,-2.111803611367324,-1.9650433498671669,0.9451235018458615,-5.082467978838742,-1.7345644554414767,235.0
189,5.098317504865646,-2.111803621630336,-1.9650433533929386,0.9451234930732655,-5.082468004460619,-1.6906362392292564,236.25
190,5.098317524859247,-2.1118036338459034,-1.9650433581187179,0.9451234809015034,-5.082468032009553,-1.636708036779978,237.5
191,5.098317548218451,-2.1118036480380526,-1.9650433640196248,0.94512346541836,-5.0824680617300695,-1.5727798438299736,238.75
192,5.098317576941481,-2.1118036652065806,-1.96504336672441,0.9451234597093163,-5.082468094459953,-1.498851656876389,240.0
193,5.098317612724056,-2.111803686101599,-1.965043362147956,0.9451234758695983,-5.082468128573081,-1.4149234802822035,241.25
194,5.098317652761835,-2.1118037095503572,-1.9650433569692547,0.9451234942295057,-5.082468166679252,-1.3209953121893685,242.5
195,5.098317698117032,-2.1118037325001295,-1.9650433505793632,0.9451235111049955,-5.082468210351845,-1.2170671511030977,243.75
196,5.098317751654227,-2.1118037467371207,-1.965043341307362,0.9451235166752189,-5.082468263806332,-1.103138999067297,245.0
197,5.0983178098929205,-2.1118037622245636,-1.9650433312205253,0.9451235227366499,-5.082468321972527,-0.979210856473198,246.25
198,5.0983178731750876,-2.111803763935171,-1.9650433183072025,0.9451235121995147,-5.082468385298462,-0.8452827195260829,247.5
199,5.09831794126103,-2.1118037623357746,-1.9650433039694173,0.9451234969658331,-5.0824684534592155,-0.7013545839673445,248.75
200,5.098318009757824,-2.1118037440635966,-1.965043287369487,0.9451234628355707,-5.082468522163305,-0.5474264537394338,250.0
201,5.098318081461416,-2.1118037199877167,-1.9650432693463047,0.945123421523268,-5.082468594123101,-0.3834986876278221,251.25
202,5.098318141605952,-2.111803675878061,-1.9650432511061413,0.9451233598821835,-5.082468654676158,-0.21969021727193022,252.5
203,5.098318194762472,-2.111803631114323,-1.9650432342307103,0.9451232988811654,-5.0824687082405156,-0.06588174691490498,253.75
204,5.098318233121708,-2.1118035778154782,-1.9650432193116245,0.9451232311664727,-5.08246874706402,0.07792672344214,255.0
205,5.098318265757774,-2.111803526436952,-1.9650432058309169,0.9451231667476708,-5.082468780143915,0.21173519379919234,256.25
206,5.0983182836732714,-2.111803471720296,-1.965043194969168,0.9451231014649981,-5.082468798517671,0.3355436641562532,257.5
207,5.098318300141735,-2.111803421423104,-1.9650431849847132,0.9451230414551994,-5.08246881540738,0.449352134513323,258.75
208,5.098318304346732,-2.1118033726731698,-1.965043177747173,0.9451229856102172,-5.082468820010605,0.5531606048703963,260.0
209,5.098318305373487,-2.11180332788299,-1.9650431716861716,0.9451229348607613,-5.0824688214008145,0.6469690752274817,261.25
210,5.09831830629079,-2.111803287867454,-1.9650431662712693,0.9451228895212045,-5.082468822642827,0.7307775455845724,262.5
211,5.0983183008119335,-2.111803252774256,-1.9650431628263665,0.945122850998142,-5.0824688174433605,0.8045860159416565,263.75
212,5.098318292918853,-2.1118032225098458,-1.9650431605129213,0.945122818400652,-5.082468809788516,0.868394486298746,265.0
213,5.098318286262767,-2.1118031969884448,-1.965043158562035,0.9451227909118076,-5.082468803333332,0.922202956655827,266.25
214,5.098318280843678,-2.111803176210053,-1.965043156973708,0.9451227685316086,-5.082468798077805,0.9660114270129008,267.5
215,5.098318276661585,-2.111803160174669,-1.9650431557479422,0.945122751260056,-5.08246879402194,0.9998198973699756,268.75
216,5.098318273716487,-2.1118031488822933,-1.9650431548847382,0.94512273909715,-5.082468791165733,1.0236283677270515,270.0
217,5.098318272008385,-2.111803142332925,-1.965043154384096,0.9451227320428905,-5.0824687895091865,1.037436838084132,271.25
218,5.097272737393851,-2.113797632063945,-1.961150394922487,0.9432238064784904,-5.081425604678858,1.0433882336884022,272.5
219,5.095884188760295,-2.116446472238353,-1.9559805129151018,0.9407018915856022,-5.080040176935647,1.0397372057130816,273.75
220,5.095787555022204,-2.1166308204429467,-1.9556207198565534,0.9405263797692351,-5.079943761073164,1.0282911277126732,275.0
221,5.095787557780504,-2.116630827580785,-1.9556207231436835,0.9405263784766664,-5.079943765114549,1.0071591978220003,276.25
222,5.095787561844082,-2.1166308380963734,-1.9556207279863416,0.9405263765724317,-5.07994377106839,0.9760272679313264,277.5
223,5.095787567212934,-2.1166308519897123,-1.9556207343845269,0.9405263740565306,-5.079943778934685,0.9348953380406628,278.75
224,5.095787574130439,-2.1166308693614706,-1.9556207422196235,0.9405263712380248,-5.079943790816305,0.8837634131290493,280.0
225,5.095787582990397,-2.1166308903745406,-1.9556207512996986,0.9405263686170037,-5.079943810115884,0.8226314992672856,281.25
226,5.095787592324074,-2.116630915662375,-1.9556207613200585,0.9405263692870426,-5.079943830603087,0.751499586829969,282.5
227,5.095787591637461,-2.116630954232801,-1.9556207664179888,0.9405264132601858,-5.079943831093944,0.6703676893838524,283.75
228,5.095787590860995,-2.116630997593038,-1.9556207721123708,0.9405264628066572,-5.079943831599887,0.5792357968291965,285.0
229,5.095787589990377,-2.11663104577253,-1.955620778376951,0.9405265180526862,-5.079943832083539,0.47810391218503373,286.25
230,5.095787574794614,-2.1166310947665488,-1.9556207879246168,0.9405265764639926,-5.079943816550633,0.3669720386431217,287.5
231,5.0957875573685065,-2.116631147928887,-1.9556207984939669,0.9405266399872707,-5.079943798635272,0.245840172403619,288.75
232,5.095787529779026,-2.1166312003714776,-1.9556208110937734,0.94052670467566,-5.079943770570182,0.11470831273488241,290.0
233,5.09578749236282,-2.116631252291556,-1.955620825678912,0.9405267706880558,-5.07994373269499,-0.02642354384965571,291.25
234,5.0957874444485345,-2.1166312999786254,-1.955620841893067,0.940526833997482,-5.079943684348743,-0.17755539688012037,292.5
235,5.095787385646691,-2.1166313430400985,-1.9556208597657152,0.9405268942380347,-5.079943625144739,-0.3386872434229609,293.75
236,5.095787316689805,-2.116631372688619,-1.9556208779936166,0.9405269413433099,-5.07994355588629,-0.5045443690844388,295.0
237,5.095787248537356,-2.116631395388698,-1.955620895143916,0.9405269804449002,-5.079943487489645,-0.6611507617764448,296.25
238,5.095787179920581,-2.116631398193522,-1.9556209097845199,0.9405269971769095,-5.079943418790611,-0.8077571544684604,297.5
239,5.095787115690995,-2.1166313996842847,-1.9556209233403776,0.9405270115580171,-5.079943354493285,-0.9443635471604902,298.75
240,5.095787056519786,-2.116631385519005,-1.955620933793084,0.9405270072637114,-5.079943295386462,-1.0709699398525216,300.0
241,5.095787002054633,-2.11663137105884,-1.9556209432282332,0.9405270017060996,-5.079943240992176,-1.1875763325445705,301.25
242,5.095786954423446,-2.116631351240082,-1.9556209505398534,0.9405269887476734,-5.079943193481492,-1.2941827252366238,302.5
243,5.095786913254602,-2.116631327196387,-1.9556209559537583,0.940526969741781,-5.079943152473219,-1.3907891179286773,303.75
244,5.095786876347258,-2.116631305641525,-1.9556209608072477,0.9405269527032389,-5.079943115709826,-1.47739551062074,305.0
245,5.095786845743469,-2.1166312837418344,-1.955620964304348,0.9405269340291929,-5.079943085258255,-1.5540019033128014,306.25
246,5.095786822385216,-2.1166312601901707,-1.9556209660778783,0.9405269120576725,-5.079943062071969,-1.6206082960048693,307.5
247,5.095786802533872,-2.1166312401744536,-1.9556209675851375,0.9405268933848621,-5.079943042366773,-1.6772146886969312,308.75
248,5.095786786189436,-2.116631223694684,-1.955620968826124,0.9405268780107601,-5.079943026142667,-1.7238210813889792,310.0
249,5.095786773351909,-2.1166312107508607,-1.9556209698008407,0.9405268659353692,-5.07994301339965,-1.7604274740810277,311.25
250,5.095786764021291,-2.1166312013429835,-1.9556209705092877,0.9405268571586892,-5.079943004137725,-1.787033866773081,312.5
251,5.095786758197581,-2.116631195471052,-1.9556209709514654,0.9405268516807203,-5.07994299835689,-1.803640259465131,313.75
252,5.0951776529044555,-2.117811626720024,-1.953315298488898,0.9394012464688855,-5.079335310164089,-1.8116971886201771,315.0
253,5.093666692836657,-2.120739851992349,-1.9475957681730989,0.9366090376615984,-5.077827865709385,-1.810848255442033,316.25
254,5.093290274390867,-2.1214693558572315,-1.946170876014273,0.9359134197064737,-5.0774523249329535,-1.8015257167611907,317.5
255,5.093290281255911,-2.121469360084624,-1.9461708774756379,0.9359134161152984,-5.077452335571582,-1.7832123105780315,318.75
256,5.093290291869598,-2.121469366620376,-1.946170879734978,0.935913410563169,-5.077452352019413,-1.75489890439487,320.0
257,5.093290306231931,-2.121469375464488,-1.9461708827922939,0.9359134030500853,-5.0774523742764455,-1.7165854982117135,321.25
258,5.09329032432266,-2.121469386599413,-1.9461708866658645,0.935913393511624,-5.0774524021668785,-1.6682720927234584,322.5
259,5.0932903453972695,-2.121469399379945,-1.946170892027885,0.9359133795787707,-5.077452429226032,-1.609958709430002,323.75
260,5.093290370085905,-2.1214694143521737,-1.9461708983094237,0.9359133632566109,-5.077452460925484,-1.54164532613655,325.0
261,5.0932904021964305,-2.12146943319718,-1.9461708962163113,0.9359133718127298,-5.0774524932875185,-1.4633319559466165,326.25
262,5.093290439395754,-2.121469454894647,-1.9461708914319502,0.9359133885880335,-5.07745252873745,-1.375018590219792,327.5
263,5.093290480795625,-2.1214694791370614,-1.9461708860267266,0.9359134076401464,-5.077452568099619,-1.2767052360921913,328.75
264,5.093290529555752,-2.121469496855984,-1.9461708781896574,0.9359134179842226,-5.077452616074254,-1.1683918897653176,330.0
265,5.093290584483746,-2.121469511457959,-1.9461708686334718,0.935913423655163,-5.077452670922983,-1.0500785512944866,331.25
266,5.093290644160282,-2.1214695227326135,-1.9461708576538634,0.9359134246148113,-5.077452730562162,-0.9217652203757835,332.5
267,5.093290708800086,-2.1214695212508823,-1.9461708439802483,0.9359134101307727,-5.077452795274155,-0.7834518943236992,333.75
268,5.093290776894329,-2.12146951499885,-1.9461708289593993,0.9359133895739162,-5.077452863482231,-0.6351385700798793,335.0
269,5.093290845373097,-2.1214694922333157,-1.94617081168765,0.9359133502900474,-5.077452932208148,-0.47682525262370035,336.25
270,5.093290912148756,-2.121469459317099,-1.9461707934367496,0.9359132998791302,-5.077452999312947,-0.310488689939014,337.5
271,5.093290969974221,-2.12146941703264,-1.9461707758207232,0.935913240661161,-5.077453057536793,-0.15106750981651912,338.75
272,5.093291014515762,-2.12146936767254,-1.9461707600446287,0.9359131760843122,-5.077453102523288,-0.001646329694013876,340.0
273,5.093291051253921,-2.1214693167578114,-1.94617074569136,0.9359131112980967,-5.077453139712359,0.13777485042850104,341.25
274,5.093291075642929,-2.121469263825597,-1.9461707336479772,0.9359130466806485,-5.077453164558069,0.26719603055102314,342.5
275,5.093291092713077,-2.1214692118116805,-1.9461707232514454,0.9359129845508422,-5.077453182070961,0.3866172106735604,343.75
276,5.093291105206875,-2.121469163317909,-1.9461707142718911,0.9359129273037954,-5.077453194974548,0.49603839079610557,345.0
277,5.093291106280256,-2.1214691165275124,-1.946170707897658,0.935912874243962,-5.077453196433711,0.5954595709186526,346.25
278,5.0932911072456735,-2.1214690744433993,-1.9461707021645538,0.9359128265210006,-5.0774531977461095,0.6848807510412015,347.5
279,5.093291107241435,-2.1214690370853235,-1.9461706972548625,0.9359127843280007,-5.077453198049132,0.7643019311637547,348.75
280,5.093291098756586,-2.121469004625489,-1.946170694757428,0.9359127493480115,-5.077453189823835,0.833723111286312,350.0
281,5.093291091493965,-2.1214689768414368,-1.9461706926197446,0.9359127194068289,-5.077453182783379,0.8931442914088704,351.25
282,5.093291085453572,-2.1214689537331695,-1.946170690841809,0.9359126945044511,-5.0774531769277615,0.9425654715314116,352.5
283,5.093291080635405,-2.1214689353006846,-1.9461706894236244,0.9359126746408799,-5.077453172256983,0.9819866516539539,353.75
284,5.093291077039467,-2.1214689215439817,-1.946170688365192,0.9359126598161156,-5.077453168771045,1.011407831776501,355.0
285,5.093291074665757,-2.1214689124630612,-1.9461706876665115,0.935912650030158,-5.0774531664699465,1.0308290118990417,356.25
286,5.0930469779767416,-2.1219494763771047,-1.9452313202389906,0.9354537078078476,-5.077209657501933,1.040979646839093,357.5
287,5.091592318610568,-2.1248133698010587,-1.9396332687964635,0.9327187229405877,-5.075758500404283,1.0429465963677973,358.75
288,5.090828241528516,-2.12631766879029,-1.936692822942104,0.9312821379393409,-5.074996263375284,1.03572538327337,360.0
289,5.090828243531534,-2.1263176739459815,-1.9366928253379765,0.9312821370026974,-5.074996266371046,1.0202481463499795,361.25
290,5.09082824682872,-2.126317682432818,-1.936692829281847,0.9312821354608793,-5.074996271302401,0.9947709094265959,362.5
291,5.090828251420077,-2.1263176942507984,-1.936692834773715,0.9312821333138862,-5.074996278169347,0.9592936725032115,363.75
292,5.090828257305604,-2.126317709399924,-1.9366928418135805,0.9312821305617185,-5.074996286971886,0.9138164355798336,365.0
293,5.090828265080967,-2.12631772813738,-1.9366928500988836,0.9312821280064845,-5.074996302911916,0.8583392087272528,366.25
294,5.0908282744780005,-2.126317750347383,-1.9366928597658362,0.931282125287079,-5.074996323647568,0.7928619853168426,367.5
295,5.090828279173581,-2.1263177811806164,-1.9366928674624249,0.9312821454418507,-5.074996334995623,0.7173847704295142,368.75
296,5.090828278458279,-2.1263178212418414,-1.9366928727901855,0.9312821911632077,-5.074996335504708,0.6319075633598847,370.0
297,5.090828277647775,-2.126317866067019,-1.936692878671668,0.9312822425649745,-5.07499633597208,0.5364303667906841,371.25
298,5.09082827124106,-2.1263179140763553,-1.9366928861895107,0.9312822985387736,-5.074996330249123,0.43095317705463904,372.5
299,5.090828254830853,-2.126317964029014,-1.9366928961889567,0.9312823582995391,-5.074996313380406,0.31547599571017454,373.75
300,5.090828236997658,-2.126318018305629,-1.936692907056189,0.931282423228699,-5.074996295034198,0.18999882301790652,375.0
301,5.090828201922339,-2.126318067657378,-1.9366929208978978,0.9312824859611217,-5.074996259514533,0.05452165661343096,376.25
302,5.09082816381928,-2.126318120395239,-1.936692935819907,0.931282553118909,-5.074996220937722,-0.09095550934814506,377.5
303,5.090828108558502,-2.1263181621251745,-1.9366929528762076,0.9312826112493088,-5.07499616528202,-0.24643266882273304,378.75
304,5.090828047114309,-2.126318202359141,-1.9366929710277638,0.9312826689180497,-5.074996103450002,-0.4116509130013031,380.0
305,5.090827977350935,-2.126318225507571,-1.9366929886648392,0.9312827089345971,-5.074996033432994,-0.5739099329968735,381.25
306,5.090827909952014,-2.1263182398346543,-1.9366930046441029,0.931282738514011,-5.074995965855655,-0.7261689529924706,382.5
307,5.0908278438681736,-2.12631824133026,-1.936693018655998,0.9312827533336954,-5.074995899700934,-0.8684279729880771,383.75
308,5.090827782566636,-2.126318236752281,-1.9366930308670645,0.9312827603405913,-5.074995838383097,-1.000686992983688,385.0
309,5.090827726146644,-2.1263182217769354,-1.9366930406862628,0.931282754629496,-5.074995782037317,-1.1229460129793214,386.25
310,5.090827674341442,-2.12631820802648,-1.9366930497023072,0.9312827493855275,-5.074995730300258,-1.235205032974951,387.5
311,5.090827631035292,-2.1263181836789635,-1.936693055543918,0.931282730479194,-5.074995687157621,-1.3374640529705921,388.75
312,5.090827592190548,-2.126318161023171,-1.936693060676018,0.931282712597948,-5.074995648466315,-1.429723072966232,390.0
313,5.090827557556203,-2.126318140823052,-1.9366930652518435,0.9312826966548574,-5.074995613968777,-1.511982092961881,391.25
314,5.090827531398656,-2.1263181171734735,-1.9366930676006473,0.9312826751299836,-5.074995587984133,-1.5842411129575298,392.5
315,5.090827509826488,-2.126318095460556,-1.9366930692463356,0.9312826548823281,-5.074995566572873,-1.6465001329531765,393.75
316,5.090827491719228,-2.126318077235153,-1.9366930706276926,0.9312826378868353,-5.074995548600674,-1.6987591529488117,395.0
317,5.090827477076873,-2.1263180624972637,-1.936693071744719,0.9312826241435062,-5.074995534067536,-1.741018172944442,396.25
318,5.090827465899425,-2.126318051246888,-1.9366930725974172,0.9312826136523416,-5.0749955229734605,-1.773277192940077,397.5
319,5.090827458186883,-2.1263180434840256,-1.9366930731857868,0.9312826064133417,-5.074995515318446,-1.7955362129357089,398.75
320,5.09079644096564,-2.1263800650855837,-1.9365717425383697,0.9312232806083273,-5.074964575374794,-1.8079068315841773,400.0
321,5.089581435526099,-2.128810072845751,-1.9318183197552716,0.9288992103963442,-5.073752596224508,-1.8126287516363608,401.25
322,5.088415055276028,-2.1311428399430836,-1.9272551184292215,0.9266681446909523,-5.072589122195227,-1.8076047507087107,402.5
323,5.088397516526851,-2.1311779297635054,-1.927186484720688,0.9266345850003214,-5.07257162978133,-1.794920584109388,403.75
324,5.088397524910705,-2.131177934923069,-1.927186486515537,0.92663458064466,-5.072571642870862,-1.7723012727763563,405.0
325,5.088397537001061,-2.131177942363676,-1.9271864891038888,0.9266345743633602,-5.072571661747279,-1.7396819614433399,406.25
326,5.088397552797921,-2.1311779520853276,-1.9271864924857438,0.9266345661564221,-5.07257168641058,-1.697062650110325,407.5
327,5.088397571967042,-2.1311779637906114,-1.927186496972869,0.9266345549268387,-5.072571713927818,-1.6444433488180317,408.75
328,5.0883975943530615,-2.1311779773412836,-1.9271865027101833,0.9266345401646862,-5.07257174293567,-1.5818240592642554,410.0
329,5.08839762136211,-2.131177993518224,-1.9271865067713914,0.9266345305802908,-5.072571775388849,-1.5092047735311405,411.25
330,5.0883976557508515,-2.1311780135373413,-1.9271865023381927,0.9266345459926202,-5.072571808165085,-1.426585500145828,412.5
331,5.088397694295205,-2.131178036028983,-1.927186497323495,0.9266345634826526,-5.072571844849186,-1.3339662336411355,413.75
332,5.088397737425303,-2.131178059769161,-1.9271864914665442,0.9266345816065574,-5.0725718860694435,-1.2313469743374648,415.0
333,5.088397789084487,-2.1311780734996337,-1.9271864824363605,0.9266345868968924,-5.072571937646088,-1.1187277256074875,416.25
334,5.088397845332626,-2.1311780884500306,-1.927186472603453,0.9266345926591433,-5.072571993819098,-0.9961084850698537,417.5
335,5.088397906448494,-2.1311780924063792,-1.9271864603104474,0.9266345849794175,-5.0725720549596485,-0.8634892506630947,418.75
336,5.088397972304042,-2.131178090935543,-1.9271864463133752,0.9266345701982819,-5.0725721208899515,-0.720870018509731,420.0
337,5.088398039270507,-2.131178075976786,-1.9271864302982258,0.9266345399492424,-5.072572188042583,-0.5682507908709041,421.25
338,5.088398108770381,-2.13117805295978,-1.9271864126854799,0.9266345000866957,-5.0725722577969385,-0.40563156951364426,422.5
339,5.088398169335354,-2.131178012369513,-1.9271863946193588,0.9266344421394602,-5.072572318755248,-0.2406739067024599,423.75
340,5.088398223602179,-2.1311779705089253,-1.9271863777050933,0.926634384010854,-5.072572373420387,-0.08556075096103158,425.0
341,5.088398261381431,-2.131177918284292,-1.9271863628746382,0.9266343174511532,-5.07257241166979,0.059552404780339185,426.25
342,5.088398295590665,-2.1311778690951666,-1.9271863491941799,0.9266342550338895,-5.072572446320619,0.19466556052163556,427.5
343,5.088398313258852,-2.1311778153811693,-1.927186338381611,0.9266341907967218,-5.072572464453406,0.319778716262858,428.75
344,5.088398329514863,-2.13117776596041,-1.9271863284332564,0.926634131693877,-5.072572481136881,0.4348918720040187,430.0
345,5.088398335499318,-2.13117771848156,-1.9271863208947213,0.9266340768322281,-5.072572487523383,0.5400050277451336,431.25
346,5.088398336512394,-2.1311776743513144,-1.927186314841343,0.9266340267460951,-5.0725724889060775,0.6351181834861963,432.5
347,5.0883983374189565,-2.1311776348608342,-1.9271863094243988,0.9266339819259122,-5.072572490143398,0.7202313392272128,433.75
348,5.088398333278198,-2.131177600120481,-1.9271863056940355,0.9266339434806414,-5.072572486289192,0.7953444949681885,435.0
349,5.088398325413959,-2.131177570100683,-1.9271863033688779,0.9266339111131479,-5.072572478668732,0.8604576507091359,436.25
350,5.0883983187575,-2.1311775446912913,-1.927186301400814,0.9266338837166145,-5.072572472218614,0.9155708064500765,437.5
351,5.088398313308821,-2.131177523892304,-1.9271862997898421,0.9266338612910405,-5.072572466938835,0.9606839621910008,438.75
352,5.088398309067924,-2.131177507703721,-1.9271862985359665,0.9266338438364277,-5.072572462829399,0.9957971179319154,440.0
353,5.088398306034806,-2.1311774961255416,-1.9271862976391865,0.9266338313527759,-5.072572459890304,1.0209102736728453,441.25
354,5.088398304209468,-2.1311774891577664,-1.927186297099502,0.9266338238400851,-5.072572458121549,1.0360234294137793,442.5
355,5.087608415299865,-2.132782278537144,-1.9240448509124408,0.925096763715353,-5.0717846040050585,1.0429740260884173,443.75
356,5.086207854486827,-2.1356277584701635,-1.9184747114549683,0.9223713876243059,-5.070387651245882,1.0406566298496884,445.0
357,5.086000704707442,-2.1360486247735686,-1.9176508570564048,0.9219682881160636,-5.070181035794429,1.030253623861455,446.25
358,5.08600070724119,-2.1360486312606106,-1.9176508600990227,0.9219682869336651,-5.070181039662135,1.01050928804108,447.5
359,5.086000711058219,-2.1360486410331734,-1.9176508646826482,0.9219682851524121,-5.070181045488734,0.9807649522207256,448.75
360,5.086000716158524,-2.1360486540912564,-1.917650870807282,0.9219682827723046,-5.070181053274229,0.9410206164003703,450.0
361,5.0860007226696355,-2.136048670492302,-1.917650878405413,0.9219682799750973,-5.070181064144097,0.8912762821062655,451.25
362,5.086000731161194,-2.1360486904928893,-1.9176508871754825,0.9219682775726588,-5.070181083125674,0.8315319551610838,452.5
363,5.086000741074071,-2.136048713841173,-1.9176508974134858,0.9219682747681004,-5.070181105284386,0.761787628215877,453.75
364,5.08600074102668,-2.1360487501747993,-1.917650902691645,0.9219683145589779,-5.070181107022008,0.6820433166873778,455.0
365,5.086000740280628,-2.1360487916703157,-1.917650908222429,0.921968362038094,-5.070181107518536,0.5922990091406514,456.25
366,5.086000739440451,-2.136048837861729,-1.9176509143037537,0.9219684151179929,-5.070181107972607,0.4925547113547016,457.5
367,5.086000726729756,-2.1360488854094895,-1.9176509232278327,0.92196847161038,-5.070181095173182,0.3828104230451394,458.75
368,5.0860007099163,-2.136048936470974,-1.9176509335238796,0.9219685327695762,-5.0701810778763505,0.2630661423231699,460.0
369,5.086000685401137,-2.1360489881186844,-1.9176509455240067,0.9219685961073283,-5.070181052873993,0.1333218686773847,461.25
370,5.086000649236485,-2.1360490380475183,-1.9176509597561702,0.9219686597921171,-5.07018101625329,-0.006422400974825951,462.5
371,5.086000604921333,-2.136049085959593,-1.9176509754331297,0.9219687228243334,-5.070180971492855,-0.15616666791757408,463.75
372,5.086000548013763,-2.1360491273916296,-1.9176509928951737,0.9219687810446434,-5.070180914184991,-0.3159109282391533,465.0
373,5.0860004832758765,-2.1360491585295946,-1.9176510106353408,0.9219688291876574,-5.070180849126362,-0.47939896592152464,466.25
374,5.086000417883324,-2.136049180144794,-1.9176510272481782,0.9219688666924232,-5.0701807834926145,-0.6333239696264094,467.5
375,5.0860003530836835,-2.136049186416749,-1.9176510416984156,0.9219688867275136,-5.070180718581509,-0.7772489733312469,468.75
376,5.0860002916110005,-2.1360491877710066,-1.917651054796306,0.9219689005368211,-5.070180657041779,-0.9111739770360159,470.0
377,5.086000234966985,-2.1360491786365086,-1.917651065486295,0.9219689015202646,-5.070180600423406,-1.0350989807407183,471.25
378,5.086000183017597,-2.136049164849084,-1.9176510745717052,0.9219688963041903,-5.070180548543091,-1.1490239844453491,472.5
379,5.086000136086202,-2.1360491508809716,-1.9176510825786182,0.921968889881543,-5.070180501686831,-1.2529489881499312,473.75
380,5.08600009700944,-2.136049128118114,-1.9176510877667616,0.9219688719443755,-5.070180462766369,-1.346873991854462,475.0
381,5.086000062093097,-2.1360491077787724,-1.9176510924025303,0.9219688559169397,-5.070180427989686,-1.4307989955589506,476.25
382,5.086000031337177,-2.136049089862946,-1.9176510964859264,0.9219688417992363,-5.0701803973567845,-1.5047239992634085,477.5
383,5.086000007803261,-2.1360490701437675,-1.917651098812143,0.9219688241997379,-5.070180373967608,-1.5686490029678417,478.75
384,5.085999989340279,-2.136049051591035,-1.9176511002276804,0.9219688069065355,-5.070180355644134,-1.6225740066722578,480.0
385,5.0859999743011235,-2.1360490364787714,-1.9176511013807165,0.9219687928202316,-5.070180340718616,-1.6664990103766568,481.25
386,5.085999962685793,-2.136049024806979,-1.9176511022712492,0.9219687819408253,-5.070180329191052,-1.7004240140810607,482.5
387,5.085999954494288,-2.1360490165756554,-1.9176511028992815,0.921968774268318,-5.070180321061443,-1.7243490177854683,483.75
388,5.0859999497266095,-2.1360490117848014,-1.9176511032648134,0.9219687698027098,-5.070180316329789,-1.7382740214898837,485.0
389,5.086280967469889,-2.1354967271105427,-1.9187807886570873,0.9225462830918184,-5.070460399273248,-1.7428071065674329,486.25
390,5.086618121159718,-2.134834128208423,-1.9201361257851373,0.9232391564026696,-5.0707964314141485,-1.7385611867707302,487.5
391,5.086732437046473,-2.1346094788055128,-1.920595651423417,0.9234740784739627,-5.070910367008907,-1.7248543257145013,488.75
392,5.086930153418787,-2.134220933816306,-1.9213904293389286,0.9238803906763218,-5.071107425642771,-1.7011474646582783,490.0
393,5.087211270276656,-2.133668493240802,-1.9225204595316716,0.9244580930097468,-5.07138760731574,-1.6674406036020535,491.25
394,5.087577843990666,-2.1329530863748425,-1.9239838462222567,0.9252062239413983,-5.071752977188347,-1.6237336947301708,492.5
395,5.088031038617071,-2.1320752396006406,-1.9257795155804844,0.9261242388260312,-5.0722047042936484,-1.5700267274791484,493.75
396,5.08856861608049,-2.1310339416358146,-1.927909530639119,0.92721318402597,-5.07274054099002,-1.5063197602281306,495.0
397,5.089193518912956,-2.1298304719338783,-1.9303712818777665,0.9284717357887731,-5.073363440266088,-1.432612716404872,496.25
398,5.089905456357912,-2.1284647043446743,-1.9331650265857192,0.9299000246298357,-5.074073110332851,-1.3489056173030183,497.5
399,5.090706052232225,-2.1269373124978417,-1.9362893915100425,0.9314973552750958,-5.074871181774508,-1.2551984331957373,498.75
400,5.091595094857562,-2.125248206505948,-1.939744559941826,0.9332638206234369,-5.0757574421027565,-1.1514911814106592,500.0
401,5.092576888066704,-2.123399151300989,-1.9435269339367716,0.9351975978721194,-5.0767362113011,-1.0377837693533825,501.25
402,5.0936498788156666,-2.1213894626348395,-1.9476379091268057,0.9372993947928788,-5.07780593018089,-0.9140762481018538,502.5
403,5.094816169481479,-2.1192199731208645,-1.9520757886397508,0.9395683522186578,-5.078968708773406,-0.7803685836979454,503.75
404,5.096077920854781,-2.116891500139446,-1.956838907267701,0.9420036276484167,-5.08022671547295,-0.6366607452298745,505.0
405,5.097438342165245,-2.1144052210140347,-1.9619248671099514,0.9446040085089195,-5.081583170549118,-0.4829526869366507,506.25
406,5.098884298827452,-2.1117859947093516,-1.967282818480105,0.9473434983803263,-5.083024979842692,-0.3207767852686841,507.5
407,5.100284936556372,-2.1092724855612044,-1.9724245471144854,0.9499724798634495,-5.084421668814021,-0.1648973951580745,508.75
408,5.101605418936105,-2.106923748766375,-1.9772292430741607,0.9524291764469102,-5.085738488888868,-0.01901781953712749,510.0
409,5.102843635224627,-2.1047389564501566,-1.9816985934215845,0.9547144421965146,-5.086973321691657,0.11686190635479543,511.25
410,5.103997422304696,-2.1027172988431864,-1.98583424772168,0.956829111554344,-5.088123996551603,0.24274174996504239,512.5
411,5.105065550052416,-2.1008583172763617,-1.9896371402879236,0.9587736571158595,-5.089189279062163,0.3586216968743301,513.75
412,5.106048569064579,-2.0991621452897147,-1.9931070002319213,0.9605479431098257,-5.090169721233035,0.46450175619459305,515.0
413,5.106941237809509,-2.0976269999582846,-1.996247456656078,0.9621538022271283,-5.091060064485244,0.5603818535854702,516.25
414,5.107745984109588,-2.0962536742391817,-1.999056896075119,0.9635904202874233,-5.091862744305947,0.6462620301764096,517.5
415,5.1084581552395605,-2.0950406245743984,-2.0015384596956407,0.9648593828478553,-5.092573093113241,0.7221422220030395,518.75
416,5.1090806248740845,-2.0939887766212886,-2.0036902642434926,0.9659597398477304,-5.093193993562187,0.7880224741012447,520.0
417,5.1096086094975925,-2.093096589252285,-2.0055154451857398,0.9668930730483899,-5.0937206471876655,0.8439027261994694,521.25
418,5.110043223653105,-2.092364413103335,-2.0070132892921873,0.9676590228141383,-5.094154171955975,0.8897829925771455,522.5
419,5.110385069364835,-2.091792437444148,-2.008183411569701,0.9682573950194928,-5.094495171740066,0.9256632876784927,523.75
420,5.110631641135599,-2.091379873979752,-2.009027415493335,0.9686889981936381,-5.094741133347039,0.9515435827798324,525.0
421,5.110782938965398,-2.091126722710148,-2.0095453010630906,0.9689538323365744,-5.094892056776893,0.9674238778811719,526.25
422,5.111007693604412,-2.0907514815555572,-2.0103129722648267,0.9693464113378029,-5.095116256680923,0.9735996157709774,527.5
423,5.1115111500198935,-2.0899117077255935,-2.012031006579204,0.9702250060875498,-5.095618471842446,0.9709025821959174,528.75
424,5.1115114284827365,-2.0899117998332972,-2.0120308315173925,0.9702249237514543,-5.095618750598908,0.9590506054859214,530.0
425,5.111511941896131,-2.0899119696560575,-2.0120305087487336,0.9702247719450099,-5.095619264553659,0.9371986287759182,531.25
426,5.111512690260074,-2.089912217193874,-2.012030038273227,0.9702245506682169,-5.095620013706699,0.905346652065922,532.5
427,5.111513673776395,-2.089912542526796,-2.0120294199927584,0.9702242601401243,-5.0956209997916835,0.86349470194982,533.75
428,5.111514892321541,-2.089912945605809,-2.012028653967367,0.9702239002264175,-5.095622221746116,0.8116427553763639,535.0
429,5.111516151038185,-2.089913366118578,-2.0120278631639645,0.9702235330726934,-5.09562348400959,0.7497908112073245,536.25
430,5.111516150288682,-2.0899134018146324,-2.0120278677568555,0.9702235733967182,-5.095623483476047,0.6779388834321667,537.5
431,5.111516149433861,-2.0899134424859787,-2.0120278729826575,0.9702236193639052,-5.095623482859809,0.5960869571431401,538.75
432,5.111516148470922,-2.089913488152927,-2.012027878823806,0.9702236710608001,-5.095623482137362,0.5042350359881755,540.0
433,5.111516137672703,-2.089913536162547,-2.012027887019671,0.9702237271751354,-5.095623471158447,0.4023831227006032,541.25
434,5.111516120972689,-2.089913587577492,-2.012027896875625,0.9702237881955755,-5.095623454035418,0.2905312159307387,542.5
435,5.111516100488972,-2.0899136422423576,-2.0120279079150056,0.9702238536003938,-5.09562343309774,0.1686793159982753,543.75
436,5.1115160642098925,-2.0899136930958506,-2.0120279217203936,0.970223917782034,-5.095623396394579,0.03682742462332724,545.0
437,5.111516024526631,-2.0899137471433753,-2.0120279366235967,0.9702239862138777,-5.095623356259854,-0.10502446307136033,546.25
438,5.11151596701784,-2.0899137897408506,-2.01202795374563,0.9702240452582478,-5.09562329837498,-0.2568763496247225,547.5
439,5.111515903214189,-2.089913830743215,-2.0120279719579495,0.9702241037371602,-5.095623234202547,-0.4187282063828307,548.75
440,5.111515830134977,-2.08991385544149,-2.0120279900289795,0.9702241457109052,-5.095623160873345,-0.5805503105253024,550.0
441,5.111515759304876,-2.08991386985432,-2.0120280063506883,0.9702241756945347,-5.095623089874716,-0.7323724146677579,551.25
442,5.111515690109636,-2.089913871608273,-2.0120280207516705,0.970224191141987,-5.095623020610303,-0.8741945188101863,552.5
443,5.111515625956385,-2.089913866105681,-2.0120280332103477,0.9702241974572341,-5.0956229564481275,-1.006016622952584,553.75
444,5.111515566912367,-2.0899138504036054,-2.012028043344308,0.9702241913218378,-5.095622897478281,-1.1278387270949466,555.0
445,5.111515512715087,-2.0899138359904685,-2.012028052646396,0.970224185690074,-5.095622843349086,-1.2396608312372956,556.25
446,5.111515467629196,-2.0899138097372236,-2.0120280585980432,0.9702241649854985,-5.0956227984302975,-1.341482935379624,557.5
447,5.1115154270272125,-2.08991378588992,-2.0120280639320995,0.9702241461097846,-5.0956227579803866,-1.4333050395219438,558.75
448,5.111515390847037,-2.089913764639738,-2.01202806868524,0.9702241292897521,-5.095622721935722,-1.5151271436642562,560.0
449,5.111515363805424,-2.0899137393750675,-2.0120280710626153,0.9702241061809099,-5.095622695068052,-1.5869492478065563,561.25
450,5.111515341310541,-2.0899137165324095,-2.0120280728115425,0.9702240849067478,-5.0956226727320075,-1.648771351948863,562.5
451,5.111515322454306,-2.089913697384654,-2.0120280742775707,0.9702240670737744,-5.095622654008917,-1.7005934560911984,563.75
452,5.111515307236718,-2.0899136819318,-2.0120280754607007,0.9702240526819906,-5.09562263889878,-1.7424155602335496,565.0
453,5.111515295657776,-2.089913670173847,-2.0120280763609353,0.9702240417313976,-5.095622627401599,-1.774237664375891,566.25
454,5.1115152877174825,-2.0899136621107957,-2.0120280769782735,0.9702240342219954,-5.095622619517371,-1.7960597685182302,567.5
455,5.111456861046187,-2.090016263581237,-2.0118279404895176,0.9701264550256763,-5.095564302458473,-1.808061965804935,568.75
456,5.110032795613096,-2.0925173164622244,-2.0069495361437113,0.9677480275343308,-5.094142908130148,-1.8123146254445617,570.0
457,5.1088069498273985,-2.0946702495362652,-2.0027501590302768,0.9657006543690565,-5.092919362762448,-1.8068504418883569,571.25
458,5.10880221326879,-2.094678580475594,-2.002733916470893,0.9656927321699094,-5.092914637803282,-1.7936058084893927,572.5
459,5.108802222296312,-2.094678586048567,-2.002733918339358,0.9656927273410207,-5.0929146515758035,-1.770376968694823,573.75
460,5.108802235210177,-2.094678594020702,-2.0027339210121964,0.9656927204332988,-5.092914671277388,-1.7371481289002517,575.0
461,5.108802252010386,-2.094678604391998,-2.002733924489408,0.9656927114467436,-5.092914696908032,-1.6939192891056778,576.25
462,5.108802272279738,-2.0946786168222,-2.00273392911914,0.9656926991475969,-5.092914724959915,-1.640690461246022,577.5
463,5.108802295938773,-2.0946786312464996,-2.0027339349677047,0.9656926833008623,-5.092914754764896,-1.5774616443627059,578.75
464,5.108802324752555,-2.0946786485853717,-2.0027339383940594,0.9656926750590795,-5.092914788050013,-1.504232832362078,580.0
465,5.108802361116417,-2.094678669912416,-2.0027339337237553,0.9656926915636204,-5.092914822723802,-1.4210040319673691,581.25
466,5.1088024018419524,-2.0946786938609963,-2.0027339284408536,0.9656927103028782,-5.092914861500622,-1.3277752391056126,582.5
467,5.108802447675482,-2.0946787182776863,-2.0027339221226046,0.9656927287087284,-5.092914905477525,-1.224546453286628,583.75
468,5.108802502211237,-2.0946787327963614,-2.002733912726185,0.9656927344411833,-5.092914959931411,-1.111317677344629,585.0
469,5.10880256156563,-2.094678748598012,-2.002733902498999,0.9656927406819291,-5.0929150192132,-0.9880889101220995,586.25
470,5.108802626059469,-2.0946787515448273,-2.00273388961825,0.9656927314242246,-5.092915083740195,-0.8548601487367832,587.5
471,5.108802695506174,-2.0946787498023482,-2.002733875137439,0.9656927159119051,-5.092915153260602,-0.7116313891091022,588.75
472,5.108802765776744,-2.094678732407557,-2.002733858520628,0.9656926826526466,-5.092915223725169,-0.5584026343650572,590.0
473,5.108802839031528,-2.094678707696764,-2.0027338403716297,0.9656926405911185,-5.0929152972324125,-0.3951738858833217,591.25
474,5.108802901714013,-2.094678663290618,-2.00273382191898,0.965692578464345,-5.092915360312601,-0.23070308018268582,592.5
475,5.108802957542419,-2.0946786179271117,-2.0027338047536123,0.9656925165996633,-5.092915416540619,-0.07619110778327191,593.75
476,5.108802997055987,-2.0946785626148405,-2.0027337896886546,0.9656924467412455,-5.092915456518234,0.06832086461612558,595.0
477,5.1088030318354845,-2.094678509956545,-2.0027337759293866,0.9656923807886776,-5.092915491737208,0.2028328370154986,596.25
478,5.108803050307071,-2.0946784531602605,-2.002733764999255,0.965692313369749,-5.0929155106673365,0.3273448094148394,597.5
479,5.10880306729514,-2.0946784009254933,-2.002733754946953,0.9656922513654715,-5.0929155280771194,0.4418567818141529,598.75
480,5.108803072665047,-2.0946783505581124,-2.0027337475152733,0.9656921937268808,-5.0929155338447165,0.5463687542134499,600.0
481,5.108803073729017,-2.094678304001951,-2.0027337414467823,0.9656921412108146,-5.092915535273116,0.640880726612731,601.25
482,5.108803074680411,-2.094678262371746,-2.0027337360203736,0.9656920942512982,-5.092915536550381,0.7253926990120124,602.5
483,5.1088030697422155,-2.094678225812461,-2.0027337324406713,0.965692054138741,-5.09291553189367,0.7999046714112954,603.75
484,5.1088030615653945,-2.094678194257574,-2.002733730154899,0.9656920202809993,-5.092915523956622,0.8644166438105584,605.0
485,5.108803054656064,-2.0946781675940107,-2.002733728223442,0.9656919916715451,-5.092915517249896,0.9189286162098471,606.25
486,5.10880304901422,-2.0946781458217707,-2.0027337266463014,0.965691968310378,-5.092915511773492,0.9634405886091693,607.5
487,5.108803044639867,-2.0946781289408527,-2.0027337254234787,0.9656919501974992,-5.092915507527408,0.9979525610084748,608.75
488,5.108803041533001,-2.094678116951257,-2.0027337245549743,0.9656919373329091,-5.092915504511647,1.022464533407785,610.0
489,5.108803039693625,-2.094678109852984,-2.0027337240407883,0.9656919297166074,-5.092915502726208,1.036976505807093,611.25
490,5.107809994869918,-2.096450286358182,-1.99927431703571,0.9640039801406505,-5.091924389650148,1.0434282830907242,612.5
491,5.106284703571434,-2.0991723126965134,-1.993960751953694,0.9614113351038643,-5.09040206561693,1.0404258977453278,613.75
492,5.106128002485252,-2.0994519668319174,-1.9934148585646378,0.9611449761395875,-5.090245669989087,1.0294512259655506,615.0
493,5.106128005220263,-2.0994519739701976,-1.993414861770654,0.9611449748159917,-5.090245673905655,1.0089356964301295,616.25
494,5.10612800928842,-2.0994519845879296,-1.9934148665393967,0.9611449728472281,-5.090245679731299,0.9784201668946974,617.5
495,5.106128014689717,-2.0994519986851135,-1.9934148728708654,0.9611449702332967,-5.090245687466017,0.937904637359261,618.75
496,5.10612802162658,-2.09945201634107,-1.9934148806716923,0.9611449672126077,-5.090245698821514,0.887389111910702,620.0
497,5.106128030606888,-2.099452037754814,-1.9934148897076152,0.9611449643833292,-5.0902457180924365,0.8268735988289212,621.25
498,5.1061280408116865,-2.099452062932597,-1.9934149000931263,0.9611449620830119,-5.0902457400320875,0.7563580861534442,622.5
499,5.106128040114745,-2.099452102412092,-1.9934149051186596,0.9611450068812599,-5.090245740538492,0.6758425895980671,623.75
500,5.106128039326812,-2.0994521468258145,-1.9934149107413637,0.9611450573753975,-5.090245741070152,0.585327097104516,625.0
501,5.106128038441842,-2.0994521962158834,-1.9934149169244235,0.9611451137453697,-5.09024574157574,0.4848116132409056,626.25
502,5.10612802386515,-2.099452246746612,-1.9934149262488572,0.9611451735282889,-5.090245726785387,0.37429613975582365,627.5
503,5.106128006093016,-2.09945230132831,-1.9934149367664866,0.9611452384134805,-5.090245708529544,0.2537806736701673,628.75
504,5.106127978949559,-2.0994523557967604,-1.9934149492079567,0.9611453049755172,-5.09024568090815,0.12326521432367424,630.0
505,5.1061279407674665,-2.0994524091720113,-1.9934149637944816,0.9611453724342012,-5.090245642271382,-0.017250241615512262,631.25
506,5.10612789281287,-2.099452459196026,-1.9934149799696081,0.9611454380379949,-5.090245593881896,-0.16776569442232497,632.5
507,5.106127832777817,-2.0994525035300873,-1.9934149979133144,0.9611454996102515,-5.090245533448526,-0.3282811406462321,633.75
508,5.106127762735673,-2.099452535543982,-1.9934150163634556,0.9611455492923225,-5.090245463096789,-0.4943819099267881,635.0
509,5.106127692612174,-2.099452559153711,-1.9934150337709449,0.9611455895442851,-5.090245392729766,-0.6516087504326451,636.25
510,5.1061276223289,-2.099452563455275,-1.9934150487774582,0.961145608125672,-5.090245322354862,-0.7988355909384651,637.5
511,5.106127556205142,-2.0994525650969527,-1.9934150625926452,0.9611456229038622,-5.090245256163831,-0.936062431444266,638.75
512,5.106127495242674,-2.099452551630513,-1.9934150734412115,0.9611456196914766,-5.090245195257292,-1.063289271950043,640.0
513,5.1061274391290965,-2.0994525367185313,-1.9934150831096558,0.9611456139059547,-5.090245139215007,-1.1805161124558006,641.25
514,5.106127389755724,-2.099452517079584,-1.9934150907951174,0.9611456014891571,-5.090245089955687,-1.2877429529615276,642.5
515,5.10612734729546,-2.0994524921826945,-1.993415096395084,0.9611455818104667,-5.090245047656556,-1.3849697934672458,643.75
516,5.1061273092023285,-2.0994524698465087,-1.993415101419075,0.9611455641557712,-5.090245009707985,-1.4721966339729526,645.0
517,5.106127277226864,-2.099452447623898,-1.9934151051983704,0.9611455454321917,-5.090244977881215,-1.5494234744786586,646.25
518,5.10612725306745,-2.099452423140644,-1.9934151070841666,0.9611455226389931,-5.090244953894716,-1.616650314984374,647.5
519,5.106127232501751,-2.0994524022992773,-1.9934151086894498,0.9611455032362852,-5.090244933476212,-1.6738771554900926,648.75
520,5.106127215529767,-2.0994523850997986,-1.9934151100142175,0.9611454872240663,-5.090244916625703,-1.7211039959958314,650.0
521,5.106127202151499,-2.099452371542206,-1.9934151110584735,0.9611454746023389,-5.090244903343187,-1.7583308365015742,651.25
522,5.106127192366946,-2.0994523616265006,-1.9934151118222179,0.9611454653711025,-5.090244893628665,-1.7855576770073078,652.5
523,5.106127186176109,-2.0994523553526814,-1.9934151123054507,0.9611454595303572,-5.090244887482138,-1.802784517513046,653.75
524,5.105571089916535,-2.1004607190484696,-1.9914452057376202,0.9601835312446906,-5.089689912686273,-1.811289757404346,655.0
525,5.1039630121920565,-2.10337665518843,-1.9857487443920736,0.9574018908612243,-5.088085078173334,-1.8110177910765481,656.25
526,5.103489296989872,-2.1042356538283737,-1.9840706423351713,0.9565824544966636,-5.087612320131026,-1.8021061670152316,657.5
527,5.10348930381885,-2.1042356580413895,-1.9840706437566005,0.956582450867278,-5.087612330624686,-1.78432736336944,658.75
528,5.103489314488903,-2.1042356646240905,-1.9840706459775381,0.9565824451964807,-5.087612347020689,-1.7565485597236608,660.0
529,5.103489329000036,-2.104235673576476,-1.9840706489979831,0.956582437484272,-5.087612369319035,-1.7187697560778723,661.25
530,5.103489347352245,-2.104235684898547,-1.9840706528179364,0.9565824277306515,-5.087612397519723,-1.6709909524320885,662.5
531,5.103489368749111,-2.104235697924064,-1.9840706581231917,0.95658241350672,-5.087612424853459,-1.6132121714925964,663.75
532,5.10348939382658,-2.1042357131850222,-1.9840706643661403,0.9565823967519607,-5.08761245672555,-1.5454333911025342,665.0
533,5.1034894262473385,-2.1042357323243004,-1.9840706627895301,0.9565824036958723,-5.0876124898218364,-1.4676546230564542,666.25
534,5.103489464129074,-2.1042357545060026,-1.9840706579039926,0.9565824208400165,-5.087612525933997,-1.3798758596920024,667.5
535,5.10348950631392,-2.1042357793110242,-1.9840706523770573,0.9565824403485086,-5.087612566053544,-1.2820971085208057,668.75
536,5.10348955577561,-2.10423579814777,-1.9840706445607923,0.9565824518231144,-5.0876126146033025,-1.1743183645231516,670.0
537,5.103489611805054,-2.1042358130546184,-1.9840706348679904,0.956582457667914,-5.087612670553392,-1.0565396284725952,671.25
538,5.103489672678164,-2.104235825511674,-1.9840706238691859,0.9565824598003057,-5.087612731382029,-0.9287609001188633,672.5
539,5.1034897386589835,-2.1042358238913152,-1.9840706100558247,0.9565824450452218,-5.087612797434051,-0.7909821769064906,673.75
540,5.103489808472808,-2.104235818473584,-1.984070594971846,0.956582425268587,-5.087612867351987,-0.6432034551112789,675.0
541,5.103489878408155,-2.104235794971739,-1.9840705775757956,0.9565823851347613,-5.087612937532013,-0.4854247401905544,676.25
542,5.103489947430179,-2.1042357620436003,-1.984070559176051,0.956582334581124,-5.087613006872775,-0.31917436298613017,677.5
543,5.103490006887794,-2.1042357182017852,-1.9840705413687876,0.9565822736310493,-5.0876130667278385,-0.1592144336876004,678.75
544,5.10349005352276,-2.104235667882148,-1.9840705253869926,0.9565822079107734,-5.087613113801016,-0.009254504389102882,680.0
545,5.103490091318026,-2.1042356151170702,-1.98407051091912,0.9565821411735652,-5.087613152046558,0.13070542490934858,681.25
546,5.103490117284771,-2.1042355607739767,-1.9840704986913087,0.956582074980612,-5.087613178466274,0.26066535420778936,682.5
547,5.1034901348596655,-2.1042355068663694,-1.9840704882493754,0.9565820109222447,-5.0876131964837095,0.38062528350620906,683.75
548,5.103490148503844,-2.1042354567975314,-1.9840704791035912,0.9565819519506432,-5.087613210536686,0.4905852128046049,685.0
549,5.103490149613413,-2.104235408281714,-1.9840704727394531,0.9565818971822262,-5.087613212032309,0.5905451421029853,686.25
550,5.103490150611982,-2.104235364619426,-1.9840704670119793,0.9565818478928443,-5.08761321337831,0.680505071401362,687.5
551,5.103490151160272,-2.104235325818998,-1.984070461992202,0.9565818041583726,-5.087613214235063,0.7604650006997432,688.75
552,5.103490142400915,-2.1042352920979894,-1.984070459534461,0.9565817679596151,-5.087613205736108,0.8304249299981095,690.0
553,5.103490134893611,-2.1042352631970274,-1.9840704574280268,0.9565817369350708,-5.087613198451987,0.8903848592964945,691.25
554,5.10349012863836,-2.1042352391161128,-1.9840704556728965,0.956581711084738,-5.087613192382697,0.940344788594901,692.5
555,5.103490123635163,-2.104235219855244,-1.984070454269073,0.9565816904086181,-5.0876131875282375,0.9803047178933094,693.75
556,5.103490119884019,-2.104235205414421,-1.9840704532165576,0.9565816749067115,-5.08761318388861,1.0102646471917014,695.0
557,5.103490117384929,-2.104235195793644,-1.9840704525153496,0.9565816645790184,-5.087613181463815,1.030224576490105,696.25
558,5.103287563710434,-2.1046083759824623,-1.9833408640288288,0.9562251221083798,-5.087411051138623,1.0407743005634436,697.5
559,5.1017736039302015,-2.1073977147457645,-1.9778876227786668,0.9535602166022041,-5.085900255381018,1.0432373863851796,698.75
560,5.10088872131266,-2.1090280388135225,-1.974700297251351,0.9520026251489795,-5.085017222480845,1.0363785634898108,700.0
561,5.100888723297858,-2.109028043967311,-1.9747002995862601,0.9520026241900371,-5.085017225381798,1.0213555219961634,701.25
562,5.100888726604491,-2.1090280525516882,-1.9747003034753874,0.9520026225927802,-5.085017230213754,0.9963324805025122,702.5
563,5.100888731232559,-2.109028064566655,-1.9747003089187334,0.9520026203572092,-5.0850172369767135,0.9613094390088637,703.75
564,5.100888737182063,-2.1090280800122105,-1.9747003159162977,0.9520026174833235,-5.085017245670675,0.9162863975151971,705.0
565,5.100888745035558,-2.1090280991265296,-1.9747003241883523,0.9520026146994189,-5.085017261275465,0.861263367808707,706.25
566,5.100888754587448,-2.1090281218255558,-1.9747003338336198,0.9520026117484637,-5.085017282033595,0.7962403431658893,707.5
567,5.100888759899361,-2.109028152940772,-1.974700341786848,0.9520026301662439,-5.085017294487735,0.7212173263596073,708.75
568,5.100888759171847,-2.1090281940246056,-1.9747003470471636,0.9520026768311523,-5.085017295014257,0.6361943181935262,710.0
569,5.100888758347745,-2.1090282400156886,-1.9747003528597413,0.9520027293063742,-5.085017295508008,0.5411713198561472,711.25
570,5.100888752477707,-2.1090282894953587,-1.9747003601886468,0.9520027866041854,-5.085017290432873,0.4361483283818533,712.5
571,5.100888735726579,-2.109028340822196,-1.9747003701432473,0.9520028476888398,-5.085017273227923,0.3211253453867159,713.75
572,5.100888717517015,-2.109028396609426,-1.9747003809652477,0.9520029140770383,-5.085017254509175,0.1961023714580342,715.0
573,5.100888682428044,-2.109028447806774,-1.9747003947129698,0.9520029785618173,-5.0850172189746035,0.061079403471099636,716.25
574,5.10088864350636,-2.1090285020714536,-1.9747004096438248,0.9520030472445978,-5.085017179582998,-0.08394356385584939,717.5
575,5.100888587745012,-2.1090285457601965,-1.97470042671334,0.9520031073411164,-5.085017123424908,-0.2389665251500113,718.75
576,5.100888525452239,-2.1090285881987105,-1.9747004449742778,0.9520031673146774,-5.085017060740228,-0.40385657872484837,720.0
577,5.1008884537706765,-2.109028612241695,-1.9747004628420877,0.9520032084410717,-5.085016988805991,-0.5665738745401523,721.25
578,5.1008883847505455,-2.1090286281016066,-1.9747004791215377,0.952003239840087,-5.085016919600909,-0.7192911703554257,722.5
579,5.10088831682439,-2.1090286297512173,-1.9747004933719623,0.952003255040096,-5.085016851604444,-0.8620084661706767,723.75
580,5.1008882537803135,-2.1090286259277122,-1.974700505918812,0.9520032631246951,-5.085016788537964,-0.9947257619858686,725.0
581,5.1008881957582215,-2.1090286105170613,-1.9747005159574758,0.9520032571891974,-5.085016730590419,-1.1174430578010575,726.25
582,5.100888142464237,-2.1090285963621977,-1.9747005251780996,0.9520032517373679,-5.085016677364908,-1.2301603536162324,727.5
583,5.100888097695279,-2.1090285718308714,-1.9747005313200248,0.9520032329390606,-5.085016632754632,-1.332877649431381,728.75
584,5.100888057699953,-2.1090285484158717,-1.9747005366168127,0.9520032144586141,-5.0850165929130675,-1.42559494524653,730.0
585,5.10088802201831,-2.1090285275262914,-1.9747005413423127,0.9520031979713696,-5.085016557368604,-1.508312241061661,731.25
586,5.100887994788436,-2.1090285033927323,-1.9747005439091678,0.9520031761748238,-5.085016530308975,-1.5810295368768048,732.5
587,5.100887972525114,-2.1090284808743527,-1.9747005456543008,0.9520031552193637,-5.085016508207146,-1.6437468326919442,733.75
588,5.100887953811582,-2.1090284619464317,-1.974700547121178,0.9520031376051598,-5.085016489629357,-1.6964641285071114,735.0
589,5.100887938647839,-2.109028446608969,-1.9747005483098,0.952003123332212,-5.085016474575609,-1.7391814243222878,736.25
590,5.100887927033885,-2.1090284348619632,-1.9747005492201688,0.9520031124005217,-5.085016463045902,-1.7718987201374476,737.5
591,5.100887918969722,-2.109028426705415,-1.9747005498522847,0.9520031048100887,-5.0850164550402335,-1.7946160159526117,738.75
592,5.100871468103038,-2.1090592085852213,-1.9746403173315372,0.9519736437359116,-5.085000039812912,-1.8073894929285181,740.0
593,5.09964102725645,-2.1113625087340906,-1.9701339703562144,0.9497698191043608,-5.083772262892042,-1.8124734986109747,741.25
594,5.098354766941373,-2.113770308911369,-1.9654231778763163,0.9474660113167707,-5.082488788321251,-1.807809732368703,742.5
595,5.09832217429795,-2.1138313318967032,-1.96530379472046,0.947407624189835,-5.082456268821184,-1.7954546088386056,743.75
596,5.098322182743775,-2.113831337104204,-1.9653037964882552,0.9474076197313098,-5.082456281893589,-1.7732101142171515,745.0
597,5.098322194986418,-2.1138313446527333,-1.9653037990507616,0.947407613268457,-5.082456300842686,-1.7409656195956948,746.25
598,5.0983222110258755,-2.1138313545422913,-1.9653038024079794,0.9474076048012768,-5.082456325668478,-1.6987211249742291,747.5
599,5.098322230541941,-2.113831366498066,-1.965303806844513,0.9474075933227776,-5.082456353619933,-1.6464766401893804,748.75
600,5.0983222533165655,-2.1138313803329205,-1.965303812554166,0.9474075781472403,-5.082456382823722,-1.5842321688076209,750.0
601,5.0983222806511055,-2.113831396791427,-1.965303816991867,0.947407567029654,-5.0824564157837635,-1.5119877006681977,751.25
602,5.098322315714882,-2.113831417284054,-1.9653038124569675,0.9474075828196354,-5.082456449209329,-1.4297432456407027,752.5
603,5.098322355035729,-2.113831440315736,-1.9653038073284894,0.9474076007322023,-5.082456486644713,-1.3374987969524796,753.75
604,5.09832239887642,-2.1138314651394046,-1.9653038014436666,0.9474076199146799,-5.082456528465469,-1.23525435546157,755.0
605,5.09832245162146,-2.1138314791657344,-1.9653037922802838,0.9474076253735138,-5.082456581128585,-1.123009924993316,756.25
606,5.098322509067504,-2.1138314944423735,-1.9653037822996873,0.9474076313206605,-5.082456638499757,-1.0007655023161806,757.5
607,5.098322571484994,-2.113831499085075,-1.9653037699498586,0.9474076242798113,-5.082456700936208,-0.8685210858523271,758.75
608,5.098322638773419,-2.113831497469723,-1.9653037558028368,0.947407609212094,-5.082456768298464,-0.7262766718122061,760.0
609,5.09832270740995,-2.113831482751117,-1.965303739708581,0.9474075791343091,-5.082456837113515,-0.5740322620390692,761.25
610,5.098322778446627,-2.1138314589695955,-1.965303721963358,0.9474075383858952,-5.082456908402425,-0.4117878586158576,762.5
611,5.098322841040869,-2.113831417736879,-1.9653037037459011,0.9474074796628568,-5.082456971382535,-0.2465594028518207,763.75
612,5.098322897345271,-2.113831374971373,-1.9653036866365046,0.9474074204535783,-5.082457028079826,-0.09106724985901052,765.0
613,5.098322936153232,-2.1138313209349033,-1.965303671717502,0.947407352006779,-5.08245706735673,0.05442490313377378,766.25
614,5.0983229719019985,-2.1138312703832605,-1.965303657875911,0.9474072880836943,-5.082457103543724,0.18991705612651927,767.5
615,5.098322990061076,-2.113831214815975,-1.9653036470402854,0.9474072219803178,-5.082457122166539,0.31540920911924925,768.75
616,5.098323006773124,-2.1138311636766423,-1.9653036370681018,0.9474071611444692,-5.082457139305371,0.43090136211196,770.0
617,5.09832301346608,-2.113831114689038,-1.9653036294456734,0.9474071047027464,-5.082457146399232,0.5363935151046464,771.25
618,5.098323014511433,-2.113831069013964,-1.9653036234150303,0.9474070531005593,-5.082457147813963,0.6318856680973197,772.5
619,5.098323015447315,-2.1138310281220165,-1.9653036180159145,0.947407006902185,-5.082457149080541,0.7173778210899899,773.75
620,5.098323011566102,-2.1138309921262204,-1.9653036142380946,0.9474069671617966,-5.082457145486427,0.7928699740826654,775.0
621,5.0983230034650004,-2.113830961012236,-1.9653036119560094,0.9474069337456625,-5.0824571376294525,0.8583621270753379,776.25
622,5.0983229966008565,-2.1138309346490485,-1.965303610022375,0.947406905431839,-5.08245713097216,0.9138542800680325,777.5
623,5.098322990973671,-2.113830913036658,-1.9653036084371904,0.9474068822203259,-5.08245712551455,0.9593464330607427,778.75
624,5.098322986583441,-2.1138308961750623,-1.965303607200458,0.9474068641111242,-5.0824571212566205,0.9948385860534432,780.0
625,5.098322983430169,-2.1138308840642623,-1.9653036063121776,0.9474068511042338,-5.0824571181983735,1.0203307390461411,781.25
626,5.0983229815138555,-2.1138308767042573,-1.9653036057723496,0.9474068431996548,-5.082457116339808,1.0358228920388366,782.5
627,5.097542579896346,-2.1153150914139514,-1.9623976748531982,0.9459846569752357,-5.081678464460968,1.0430329365810498,783.75
628,5.09604431914683,-2.1181645847160024,-1.9568186919021953,0.9432542636208502,-5.080183563072444,1.0410532452286188,785.0
629,5.095792271566241,-2.1186439515887776,-1.9558801542814697,0.9427949354149374,-5.079932081256982,1.0308771550522597,786.25
630,5.0957922741137995,-2.118643958167787,-1.955880157288378,0.9427949341874471,-5.0799320850553045,1.0114294883357382,787.5
631,5.095792277971315,-2.118643968129726,-1.9558801618414403,0.9427949323287805,-5.079932090806725,0.9819818216192198,788.75
632,5.0957922831387865,-2.118643981474596,-1.9558801679406566,0.942794929838938,-5.079932098511247,0.9425341549026973,790.0
633,5.095792289725728,-2.1186439982490874,-1.955880175531276,0.9427949268629788,-5.079932109115132,0.8930864904454324,791.25
634,5.095792298371531,-2.1186440187258095,-1.9558801842936433,0.9427949242478162,-5.079932128143039,0.8336388396173853,792.5
635,5.0957923084716885,-2.118644042647028,-1.9558801945299744,0.9427949211927436,-5.07993215037173,0.7641911887893557,793.75
636,5.0957923087722605,-2.1186440796531807,-1.9558801999478381,0.9427949605153727,-5.079932152840524,0.684743553035702,795.0
637,5.095792308012584,-2.1186441222751387,-1.9558802054176685,0.9427950090388606,-5.079932153360031,0.5952959213577622,796.25
638,5.095792307156382,-2.118644169739528,-1.9558802114298446,0.9427950633191939,-5.079932153836851,0.49584829974707395,797.5
639,5.095792294601107,-2.118644218752614,-1.9558802202282974,0.9427951211773808,-5.079932141258901,0.3864006872653737,798.75
640,5.0957922774176305,-2.118644271276753,-1.9558802304854837,0.9427951837546351,-5.079932123595775,0.26695308241052107,800.0
641,5.095792252833367,-2.1186443247035003,-1.9558802424022037,0.9427952487871525,-5.079932098524235,0.13750548469461596,801.25
642,5.095792215864042,-2.118644376112018,-1.9558802566463833,0.9427953139534309,-5.079932061102062,-0.00194210890053503,802.5
643,5.095792171007391,-2.1186444259205643,-1.9558802723242161,0.9427953788755843,-5.0799320157998995,-0.15138970001172553,803.75
644,5.095792112820906,-2.1186444686345824,-1.9558802898639214,0.9427954384436568,-5.079931957216093,-0.31083728444230974,805.0
645,5.095792045612439,-2.118644501847119,-1.9558803080638039,0.9427954890966945,-5.079931889679777,-0.4771729241780823,806.25
646,5.095791976728002,-2.1186445248642607,-1.955880325309602,0.9427955286035817,-5.079931820548916,-0.6354635497511705,807.5
647,5.095791908218939,-2.1186445311723046,-1.9558803403433922,0.9427955492268957,-5.079931751929635,-0.7837541753243641,808.75
648,5.095791843198446,-2.1186445327146886,-1.9558803540439984,0.9427955637969094,-5.07993168684068,-0.9220448008977151,810.0
649,5.095791783172485,-2.1186445213584726,-1.9558803650599486,0.9427955628611124,-5.079931626855448,-1.0503354264711915,811.25
650,5.095791727921553,-2.1186445066895097,-1.955880374661107,0.9427955572536457,-5.079931571676292,-1.168626052044814,812.5
651,5.09579167879817,-2.118644488808121,-1.9558803825793942,0.9427955468204845,-5.0799315226560795,-1.276916677618541,813.75
652,5.095791636912324,-2.1186444643217204,-1.9558803881509976,0.9427955275235004,-5.079931480933345,-1.3752073031923564,815.0
653,5.095791599287903,-2.1186444423265467,-1.9558803931557447,0.9427955101897709,-5.0799314434554415,-1.463497928766251,816.25
654,5.095791567046175,-2.118644421263381,-1.955880397161636,0.9427954928427702,-5.079931411357279,-1.5417885543402357,817.5
655,5.095791543097737,-2.118644397084775,-1.9558803990472629,0.9427954703517827,-5.079931387584876,-1.6100791799142486,818.75
656,5.09579152265614,-2.118644376446715,-1.9558804006567716,0.9427954511542175,-5.079931367293536,-1.668369805488337,820.0
657,5.095791505721384,-2.1186443593492017,-1.955880401990159,0.9427954352500727,-5.079931350483259,-1.716660431062421,821.25
658,5.095791492293469,-2.1186443457922333,-1.9558804030474286,0.9427954226393505,-5.079931337154046,-1.7549510566365392,822.5
659,5.0957914823723955,-2.1186443357758105,-1.9558804038285813,0.9427954133220513,-5.079931327305898,-1.7832416822106407,823.75
660,5.095791475958164,-2.118644329299932,-1.9558804043336169,0.9427954072981749,-5.0799313209388135,-1.8015323077847252,825.0
661,5.095408835690083,-2.119383667129188,-1.9544318299662196,0.9420859515774475,-5.079549568835646,-1.8108456443359475,826.25
662,5.093896715633891,-2.1223054237430707,-1.9487072965472831,0.9392823082554931,-5.078040958757545,-1.8116801594879393,827.5
663,5.093294997449229,-2.1234680869194067,-1.946429320737541,0.9381666468919373,-5.077440638925694,-1.803615543680809,828.75
664,5.093295003690843,-2.1234680907657584,-1.9464293220512665,0.9381666436197111,-5.077440648657052,-1.7869869441103685,830.0
665,5.093295013685999,-2.1234680969252047,-1.946429324155032,0.9381666383796547,-5.077440664240592,-1.7603583445399325,831.25
666,5.0932950274346975,-2.1234681053977456,-1.9464293270488375,0.9381666311717682,-5.077440685676313,-1.7237297449694662,832.5
667,5.093295044936937,-2.1234681161833806,-1.9464293307326828,0.9381666219960513,-5.077440712964215,-1.6771011453990117,833.75
668,5.093295065528485,-2.123468128697149,-1.946429335816116,0.9381666086988354,-5.077440740336661,-1.6204725655284076,835.0
669,5.093295089639969,-2.123468143318283,-1.9464293419039658,0.9381665926763493,-5.077440771532828,-1.5538439888149749,836.25
670,5.093295120322546,-2.1234681614445874,-1.9464293416391845,0.9381665956132017,-5.077440804091989,-1.4772154224631322,837.5
671,5.09329515681243,-2.123468182736961,-1.9464293369016388,0.938166611982309,-5.0774408388728265,-1.3905868620172208,838.75
672,5.093295197502274,-2.1234682065774786,-1.9464293315359842,0.9381666306277652,-5.077440877561385,-1.2939583135937955,840.0
673,5.093295244734074,-2.1234682262258167,-1.9464293242346093,0.9381666433670623,-5.0774409236606175,-1.187329771873392,841.25
674,5.093295298878561,-2.123468240619924,-1.9464293147854344,0.9381666489274332,-5.077440977723637,-1.0707012383272347,842.5
675,5.093295357703289,-2.123468254677771,-1.9464293043185912,0.9381666531836387,-5.0774410364868965,-0.9440727128982913,843.75
676,5.093295421554751,-2.123468253181761,-1.9464292908335747,0.9381666388651803,-5.077441100409565,-0.8074441933709156,845.0
677,5.093295489754308,-2.1234682503297413,-1.9464292762697328,0.9381666221587379,-5.077441168695262,-0.6608156745957313,846.25
678,5.093295557503369,-2.123468227735053,-1.9464292592695285,0.9381665833084716,-5.077441236688459,-0.5041871628010243,847.5
679,5.093295626018905,-2.12346819818365,-1.946429241218219,0.938166536472244,-5.077441305505804,-0.3383211216084421,848.75
680,5.093295684454748,-2.123468155349502,-1.9464292235631708,0.938166476672109,-5.0774413643436,-0.17721517152018762,850.0
681,5.09329573203506,-2.123468107882732,-1.946429207574459,0.9381664138028449,-5.077441412354398,-0.026109221431794855,851.25
682,5.093295769216796,-2.123468056244275,-1.9464291932160207,0.9381663482931237,-5.077441449991771,0.11499672865669908,852.5
683,5.093295796593958,-2.123468004076944,-1.9464291808310228,0.9381662841277784,-5.077441477820378,0.2461026787453813,853.75
684,5.093295813904865,-2.123467951227867,-1.9464291704543564,0.9381662211864296,-5.077441495579565,0.3672086288341649,855.0
685,5.093295828982994,-2.1234679025294008,-1.946429161074435,0.9381661633610852,-5.077441511070007,0.4783145789230663,856.25
686,5.093295830074725,-2.1234678548614427,-1.9464291547384172,0.9381661094636593,-5.07744151255344,0.5794205290120901,857.5
687,5.093295831058479,-2.1234678119081405,-1.9464291490290664,0.9381660608970186,-5.077441513890153,0.6705264791011676,858.75
688,5.093295831934254,-2.123467773669494,-1.9464291439463852,0.938166017661164,-5.077441515080145,0.7516324291903427,860.0
689,5.093295824068785,-2.1234677403478166,-1.946429141313669,0.9381659816921495,-5.077441507480984,0.8227383792795646,861.25
690,5.093295816600468,-2.1234677117289564,-1.9464291392009445,0.938165950940644,-5.077441500240768,0.8838443293688415,862.5
691,5.093295810354341,-2.123467687793579,-1.9464291374339653,0.938165925221627,-5.077441494185416,0.9349502794581535,863.75
692,5.093295805330406,-2.123467668541683,-1.946429136012733,0.9381659045350993,-5.077441489314925,0.9760562295474746,865.0
693,5.093295801528663,-2.123467653973269,-1.9464291349372498,0.9381658888810613,-5.077441485629297,1.0071621796367933,866.25
694,5.0932957989491126,-2.1234676440883367,-1.9464291342075146,0.9381658782595135,-5.077441483128532,1.028268129726088,867.5
695,5.0932022833873996,-2.1236512080329897,-1.9460692202992074,0.9379894774559092,-5.0773481922451476,1.039687625338562,868.75
696,5.091855607989958,-2.126294743435804,-1.9408861924719747,0.9354492529018997,-5.076004751792082,1.0433262507367216,870.0
697,5.090832978967062,-2.128302178493118,-1.936950337473727,0.933520273765676,-5.074984579689087,1.0373597886143477,871.25
698,5.090832973171826,-2.128302197986784,-1.9369503103975068,0.9335202585948561,-5.074984574845345,1.0235678432074713,872.5
699,5.090832976261688,-2.1283022059246113,-1.9369503140580955,0.9335202571101822,-5.0749845795451565,0.9997759269552162,873.75
700,5.090832980650253,-2.128302217198793,-1.9369503192572695,0.9335202550014838,-5.074984586220349,0.9659840107029358,875.0
701,5.090832986337522,-2.1283022318093288,-1.9369503259950283,0.933520252268761,-5.074984594870925,0.9221920944506514,876.25
702,5.090832993778552,-2.1283022499584527,-1.9369503340344785,0.9335202495495377,-5.074984609470883,0.8684001858998183,877.5
703,5.0908330029647875,-2.1283022716423625,-1.9369503433800732,0.9335202468318295,-5.074984629945523,0.804608283001212,878.75
704,5.090833009479777,-2.128302300223071,-1.9369503518797107,0.9335202592577787,-5.074984645131348,0.7308163858714676,880.0
705,5.0908330087788185,-2.128302339566943,-1.9369503569787914,0.9335203040384631,-5.074984645634024,0.6470244993126255,881.25
706,5.090833007984921,-2.1283023836669726,-1.936950362631563,0.9335203544243417,-5.074984646115066,0.5532326210883189,882.5
707,5.0908330040608005,-2.128302431659042,-1.93695036943028,0.9335204098388554,-5.074984643170078,0.4494407498898439,883.75
708,5.090832987890321,-2.128302480977484,-1.936950379127594,0.9335204686671803,-5.074984626549718,0.33564888790068764,885.0
709,5.090832970296746,-2.128302534628066,-1.9369503896791223,0.933520532658034,-5.0749846084509525,0.21185703522391255,886.25
710,5.090832938280329,-2.1283025850029222,-1.936950402835584,0.9335205957723849,-5.074984575978129,0.07806518824507247,887.5
711,5.090832900619053,-2.1283026372395484,-1.9369504174138208,0.9335206620915015,-5.074984537849261,-0.06572665725472773,888.75
712,5.090832848453504,-2.128302681130615,-1.936950433945701,0.9335207218867653,-5.074984485274595,-0.2195184975095981,890.0
713,5.090832789401176,-2.128302724353395,-1.9369504518288556,0.9335207822956161,-5.0749844258133,-0.38331033159422856,891.25
714,5.090832719004035,-2.1283027479720817,-1.9369504695588589,0.9335208228687732,-5.074984355159085,-0.5472540627086894,892.5
715,5.0908326517446,-2.1283027659007643,-1.936950485902279,0.9335208564091069,-5.074984287692349,-0.701198375107623,893.75
716,5.090832584878888,-2.128302767447698,-1.9369505000569585,0.9335208714155027,-5.074984220755029,-0.8451426875066725,895.0
717,5.0908325227295155,-2.12830276578459,-1.9369505128144804,0.9335208818698855,-5.074984158564722,-0.9790869999058684,896.25
718,5.090832465532712,-2.128302750602398,-1.9369505227998893,0.9335208761111408,-5.0749841014430395,-1.1030313123052045,897.5
719,5.090832412950624,-2.1283027366451313,-1.9369505319796527,0.9335208708170151,-5.074984048930011,-1.2169756247046755,898.75
720,5.090832368198911,-2.12830271410691,-1.9369505384216723,0.9335208543022613,-5.074984004325147,-1.3209199371042115,900.0
721,5.09083232864527,-2.1283026910147225,-1.9369505437075492,0.9335208361323035,-5.074983964927503,-1.4148642495038963,901.25
722,5.090832293301956,-2.1283026703806085,-1.9369505484307612,0.933520819896464,-5.074983929723581,-1.4988085619036073,902.5
723,5.090832265579702,-2.1283026474737814,-1.9369505512711083,0.9335207995884387,-5.074983902166203,-1.572752874303415,903.75
724,5.090832243424011,-2.1283026251438875,-1.9369505530238318,0.9335207788262012,-5.074983880175516,-1.6366971867032616,905.0
725,5.0908322247331625,-2.128302606306079,-1.9369505545024526,0.9335207613108878,-5.074983861623867,-1.6906414991031478,906.25
726,5.090832209507154,-2.1283025909603555,-1.93695055570697,0.9335207470424982,-5.074983846511255,-1.734585811503053,907.5
727,5.090832197745987,-2.128302579106716,-1.9369505566373864,0.9335207360210338,-5.0749838348376795,-1.7685301239029625,908.75
728,5.090832189449662,-2.1283025707451606,-1.9369505572937022,0.9335207282464946,-5.074983826603142,-1.7924744363028409,910.0
729,5.090832184618179,-2.1283025658756896,-1.936950557675917,0.9335207237188807,-5.074983821807641,-1.8064187487027377,911.25
730,5.089848178859533,-2.1302649019096207,-1.9331004833245866,0.9316324788219773,-5.074002261585414,-1.812505543742529,912.5
731,5.0885065750965275,-2.1329403834171057,-1.927851235349975,0.9290580198934606,-5.072663992846493,-1.8090244971755916,913.75
732,5.088402251083122,-2.1331484413352935,-1.9274430351563092,0.9288578182620624,-5.072559930507941,-1.7977377068096656,915.0
733,5.088402258852036,-2.133148446120258,-1.9274430368007274,0.9288578142174403,-5.072559942709809,-1.776804217937533,916.25
734,5.088402270332189,-2.1331484531910165,-1.9274430392306896,0.9288578082406882,-5.072559960740552,-1.7458707290653694,917.5
735,5.088402285523578,-2.1331484625475703,-1.9274430424461966,0.9288578003318064,-5.072559984600171,-1.704937240193211,918.75
736,5.088402304217696,-2.1331484740014566,-1.9274430466448587,0.9288577897938657,-5.072560012458971,-1.6540037576749487,920.0
737,5.088402326029152,-2.1331484872043474,-1.927443052191919,0.9288577753387395,-5.072560040935154,-1.593070290530312,921.25
738,5.08840235170571,-2.133148502700625,-1.9274430579372677,0.9288577605855098,-5.072560073738406,-1.5221368244806348,922.5
739,5.088402385391909,-2.1331485223280233,-1.9274430535458185,0.9288577756395437,-5.072560105843052,-1.4412033735028569,923.75
740,5.0884024232356655,-2.1331485444139986,-1.927443048581339,0.9288577926971977,-5.0725601418733675,-1.3502699272233851,925.0
741,5.088402465232464,-2.133148568991046,-1.9274430430142675,0.9288578118979428,-5.072560181789401,-1.2493364891943186,926.25
742,5.088402515780871,-2.133148583476878,-1.927443034291361,0.928857818215274,-5.072560232099068,-1.1384030620333572,927.5
743,5.0884025712543695,-2.1331485982222693,-1.9274430245637642,0.9288578238681843,-5.072560287495175,-1.017469642245627,928.75
744,5.088402631526022,-2.1331486050066033,-1.9274430128157065,0.9288578195622439,-5.072560347766576,-0.8865362291527081,930.0
745,5.088402696602164,-2.1331486035207465,-1.9274429990067379,0.928857804945509,-5.072560412916487,-0.7456028193477382,931.25
746,5.088402763697864,-2.1331485919964734,-1.9274429834798674,0.9288577786129115,-5.072560480169727,-0.5946694130082099,932.5
747,5.0884028324763095,-2.133148569146143,-1.9274429661393024,0.9288577391804999,-5.072560549199631,-0.43373601314318044,933.75
748,5.088402895332066,-2.1331485315712917,-1.9274429481379733,0.928857684330416,-5.072560612424202,-0.2677971852308133,935.0
749,5.088402951524593,-2.133148490501568,-1.9274429310799301,0.928857626866526,-5.072560669008731,-0.11099824147622434,936.25
750,5.088402990914871,-2.1331484387398283,-1.92744291615808,0.928857560693489,-5.072560708865095,0.03580070227849569,937.5
751,5.088403026529212,-2.133148389403801,-1.9274429023393562,0.928857498005339,-5.072560744921964,0.17259964603336284,938.75
752,5.088403046098678,-2.1331483358318137,-1.9274428913314372,0.9288574337338722,-5.072560764954958,0.2993985897883469,940.0
753,5.088403062592681,-2.133148285590872,-1.9274428813968982,0.9288573738283662,-5.072560781882015,0.4161975335434641,941.25
754,5.088403071037392,-2.1331482378897935,-1.9274428734744316,0.928857318386275,-5.072560790731468,0.5229964772986923,942.5
755,5.088403072068566,-2.1331481928973175,-1.9274428674527817,0.9288572674713483,-5.072560792138228,0.619795421053993,943.75
756,5.088403072993211,-2.133148152552879,-1.927442862053204,0.9288572218162827,-5.072560793399663,0.7065943648093901,945.0
757,5.088403070442723,-2.1331481169334006,-1.9274428579905185,0.9288571821777153,-5.072560791143523,0.7833933085648561,946.25
758,5.088403062375106,-2.133148086085513,-1.927442855698035,0.9288571490143056,-5.072560783325611,0.8501922523203689,947.5
759,5.0884030555152355,-2.1331480598556465,-1.9274428537487425,0.9288571208155565,-5.072560776678063,0.9069911960759334,948.75
760,5.0884030498631105,-2.1331480382438013,-1.9274428521426383,0.9288570975814667,-5.07256077120088,0.9537901398315118,950.0
761,5.088403045418732,-2.1331480212499763,-1.9274428508797266,0.928857079312038,-5.072560766894061,0.9905890835871234,951.25
762,5.0884030421821,-2.1331480088741706,-1.9274428499600074,0.9288570660072705,-5.072560763757608,1.0173880273426894,952.5
763,5.088403040153214,-2.133148001116385,-1.9274428493834805,0.9288570576671641,-5.072560761791518,1.03418697109826,953.75
764,5.087851144727202,-2.1342660847673107,-1.9252477092841693,0.9277797328095944,-5.072010285040667,1.0423909249551724,955.0
765,5.086399127208323,-2.1372077391705075,-1.9194723628614343,0.9249453337648925,-5.070562000047902,1.0417581773920879,956.25
766,5.086005444850372,-2.1380053088704996,-1.9179065024764999,0.9241768466435769,-5.070169330302744,1.0326082206521956,957.5
767,5.086005447175658,-2.138005314812964,-1.9179065052422,0.9241768455292276,-5.070169333910512,1.0145501663757528,958.75
768,5.086005450788618,-2.1380053240461834,-1.9179065095394598,0.9241768437977853,-5.0701693395161485,0.9864921120992987,960.0
769,5.08600545568925,-2.138005336570158,-1.91790651536828,0.9241768414492504,-5.070169347119656,0.9484340578228332,961.25
770,5.086005461879624,-2.138005352385847,-1.9179065227275387,0.9241768384866832,-5.070169356739293,0.900376003575342,962.5
771,5.086005470158877,-2.1380053718632617,-1.9179065311840042,0.9241768360923168,-5.070169375427826,0.8423179579858875,963.75
772,5.086005479864159,-2.1380053946954938,-1.917906541097023,0.9241768332855411,-5.070169397335295,0.7742599123965075,965.0
773,5.086005481713006,-2.1380054287270664,-1.917906547220455,0.9241768650592126,-5.070169403020849,0.696201879482381,966.25
774,5.086005480983461,-2.1380054695032533,-1.9179065525318624,0.9241769115406397,-5.070169403531667,0.6081438511140781,967.5
775,5.0860054801574055,-2.138005514997629,-1.9179065583664816,0.9241769636774027,-5.0701694039790075,0.5100858346837097,968.75
776,5.086005469995761,-2.138005562558719,-1.9179065665563515,0.9241770196275236,-5.070169394032554,0.40202782575511153,970.0
777,5.0860054534194195,-2.1380056129982887,-1.917906576546358,0.9241770798630156,-5.070169376982387,0.2839698247318121,971.25
778,5.086005431813899,-2.138005665590682,-1.9179065878747636,0.9241771435156495,-5.070169354878028,0.15591183134975078,972.5
779,5.086005396085998,-2.1380057150208365,-1.9179066017721815,0.9241772063732504,-5.070169318700204,0.017853842996748144,973.75
780,5.086005354736701,-2.1380057649789475,-1.9179066169174077,0.924177270946908,-5.070169276892213,-0.13020414370252695,975.0
781,5.086005298430551,-2.138005806071997,-1.9179066340521649,0.9241773285086801,-5.070169220190601,-0.28826212358759307,976.25
782,5.086005235293162,-2.138005840685058,-1.9179066517809893,0.9241773801261706,-5.070169156705965,-0.4524470906722156,977.5
783,5.086005169185131,-2.1380058626059326,-1.9179066684894501,0.9241774180250413,-5.070169090354471,-0.6080583660715854,978.75
784,5.086005104475476,-2.1380058722324975,-1.9179066833124483,0.9241774417826754,-5.070169025505791,-0.7536696414709959,980.0
785,5.086005042229699,-2.138005873634588,-1.9179066965534666,0.9241774557755338,-5.070168963192231,-0.8892809168704333,981.25
786,5.086004984751716,-2.138005867180239,-1.9179067077767926,0.9241774599591875,-5.07016890571669,-1.0148921922699674,982.5
787,5.086004932034224,-2.1380058531879254,-1.9179067170252029,0.9241774546941911,-5.070168853069186,-1.1305034676694834,983.75
788,5.086004883876621,-2.138005840405904,-1.91790672547365,0.9241774498845966,-5.070168804975518,-1.2361147430690849,985.0
789,5.086004843884826,-2.1380058178629175,-1.9179067309448645,0.924177432440798,-5.070168765136927,-1.331726018468666,986.25
790,5.086004808267521,-2.1380057970943165,-1.9179067357280655,0.924177416125414,-5.070168729661871,-1.4173372938682902,987.5
791,5.086004776810567,-2.138005778751636,-1.917906739952551,0.9241774017157799,-5.070168698330551,-1.4929485692679254,988.75
792,5.086004751833149,-2.1380057596262074,-1.9179067427162395,0.924177385131531,-5.070168673491167,-1.5585598446675437,990.0
793,5.086004732793164,-2.1380057404680457,-1.9179067442299909,0.9241773673264402,-5.070168654594832,-1.6141711200671442,991.25
794,5.086004717176942,-2.1380057247548976,-1.91790674547154,0.9241773527230543,-5.07016863909643,-1.6597823954666993,992.5
795,5.086004704984483,-2.1380057124867644,-1.9179067464408852,0.9241773413213725,-5.07016862699596,-1.695393670866265,993.75
796,5.086004696215788,-2.138005703663645,-1.9179067471380282,0.924177333121396,-5.0701686182934225,-1.7210049462658428,995.0
797,5.0860046908708565,-2.1380056982855393,-1.9179067475629694,0.9241773281231251,-5.070168612988816,-1.736616221665418,996.25
798,5.0861615902969906,-2.137698266784436,-1.9185375051171298,0.9245007132443044,-5.070324991464381,-1.7426177347239147,997.5
799,5.086611800747561,-2.136816136760478,-1.9203473858383657,0.9254286334879736,-5.07077370705977,-1.739876565173756,998.75
