AdelaJim/TFM_AdelaJimenez/workspace/ros_ur_driver/src/trayectories/data/saved_trajectories/20250204_1721_trajectory.csv
,shoulder_pan_joint,shoulder_lift_joint,elbow_joint,wrist_1_joint,wrist_2_joint,wrist_3_joint,time_from_start
0,-1.3787373409512256,-2.1869560522590983,-1.8360157469361,0.7609968729636007,1.8681831666240707,-0.39818277549494013,0.0
1,-1.3780484168172575,-2.186736638540944,-1.8366525854435536,0.762940270989673,1.86600208713794,-0.39318277549494013,1.25
2,-1.375981644415353,-2.1860783973864804,-1.838563100965914,0.7687704650678899,1.8594588486795474,-0.37818277549494017,2.5
3,-1.3725370237455123,-2.1849813287957085,-1.841747293503182,0.7784874551982512,1.8485534512488937,-0.35318277549494015,3.75
4,-1.3677145329198848,-2.1834454148362274,-1.8462051784452895,0.7920911747739937,1.8332857996267409,-0.31818277608696294,5.0
5,-1.3614037357955278,-2.181380358261373,-1.8520144865826607,0.8092476815111979,1.813175890072477,-0.2731831243027691,6.25
6,-1.3533962913637723,-2.1786158228063717,-1.859321864679893,0.8293271255496145,1.787318210195135,-0.21818429841138542,7.5
7,-1.3435117814142592,-2.1750039723444514,-1.8682537375316057,0.8517781948531571,1.7549324178707553,-0.1531866804224825,8.75
8,-1.331556958677242,-2.170374167173459,-1.8789244045663394,0.8757912801762215,1.7153240011554323,-0.07819048710933735,10.0
9,-1.3172900467058548,-2.1645135511272167,-1.891479604507367,0.9003793962864282,1.6675982154679245,0.006803842460424647,11.25
10,-1.3005160981984598,-2.157209360335261,-1.905992749752017,0.9242503071104546,1.6112072999025133,0.10179614744821408,12.5
11,-1.2814785221035205,-2.148429056771332,-1.9221638341208043,0.9454664622660582,1.5471210513898543,0.20451266480440988,13.75
12,-1.2630944261965074,-2.1394840284227237,-1.9375054566892547,0.9605952480205273,1.48543470501445,0.2999637446438235,15.0
13,-1.2462355007599915,-2.130877716084288,-1.9513800812431288,0.9701845642747102,1.4292349109013625,0.3854120151507593,16.25
14,-1.2311284513633034,-2.1228332031864086,-1.963687034948918,0.9754661105934854,1.3792569948090194,0.46085911420045295,17.5
15,-1.2179626422824386,-2.115544717182235,-1.9743508833956864,0.9775601257937598,1.3360886680505604,0.5263064814268096,18.75
16,-1.2067955285609768,-2.109154460647984,-1.9833654592486492,0.9775363538406359,1.299776490815343,0.5817538397804118,20.0
17,-1.1976911755890347,-2.1037829177955945,-1.9907203331468537,0.9762673034102962,1.270427727143041,0.6272017083325514,21.25
18,-1.1906223151270663,-2.099510532365461,-1.9964351442297497,0.9744996966118078,1.247802293484577,0.6626500533366169,22.5
19,-1.1855646839184746,-2.0963994542928233,-2.00052626845556,0.9728178784499029,1.2317004729510954,0.6880987213582539,23.75
20,-1.182258662821205,-2.0943553589130404,-2.0032009431807842,0.9716380191412112,1.2211918544749132,0.7035577646329085,25.0
21,-1.1782713161301646,-2.091889957961168,-2.0064267037223624,0.9702149437830383,1.2085177136617358,0.7090412891410959,26.25
22,-1.1742109649352437,-2.0893793829221563,-2.009711426681561,0.9687657647606274,1.1956116440361382,0.7045269477572496,27.5
23,-1.1718041136214337,-2.0878911543047534,-2.0116584056639946,0.9679066847244299,1.187961452452146,0.691177200411829,28.75
24,-1.1716731443466635,-2.087810111533973,-2.0117641809039015,0.9678598537108141,1.1875453780757839,0.6729647486807868,30.0
25,-1.171673231997028,-2.0878100694354993,-2.011763839543767,0.9678597513392226,1.18754599437831,0.6451453262275303,31.25
26,-1.171673353131109,-2.0878100032990905,-2.0117633835186037,0.9678595757249643,1.1875468487198333,0.6073259070950524,32.5
27,-1.1716735156991254,-2.087809877310667,-2.011762845165629,0.9678591803003468,1.1875480074676479,0.5595065020719296,33.75
28,-1.1716737122633858,-2.087809724975528,-2.0117621942322126,0.9678587021844836,1.1875494085329514,0.5016870970488063,35.0
29,-1.1716738187072024,-2.087809658145731,-2.0117618754941113,0.9678584505727488,1.187550133701652,0.4338676964818434,36.25
30,-1.171673833027526,-2.0878096786263924,-2.011761896129313,0.9678584304550728,1.1875501681552079,0.3560482994836515,37.5
31,-1.1716738478735267,-2.0878097010652827,-2.0117619198594747,0.9678584043090002,1.1875501960370973,0.2682289116577874,38.75
32,-1.1716738655720724,-2.08780972789874,-2.0117619437764547,0.9678583866141952,1.187550221563488,0.1704095299139444,40.0
33,-1.171673894838932,-2.087809769255332,-2.0117619552755164,0.9678584383659791,1.1875502482314801,0.06259015805651902,41.25
34,-1.1716739268056562,-2.087809814603728,-2.011761967702419,0.967858495565726,1.1875502772516056,-0.055229204797696975,42.5
35,-1.17167397053886,-2.0878098549765545,-2.01176198184735,0.9678585496311196,1.187550320089811,-0.18304855984918983,43.75
36,-1.1716740227343148,-2.0878098935809506,-2.0117619974837275,0.967858603410032,1.187550372630021,-0.32086790669930465,45.0
37,-1.1716740848663014,-2.087809924191326,-2.0117620141527777,0.9678586500619661,1.1875504350602668,-0.46868724504375087,46.25
38,-1.1716741552597179,-2.087809947904291,-2.011762031649,0.9678586905030866,1.1875505057006137,-0.6245581328355925,47.5
39,-1.1716742263069153,-2.0878099560614682,-2.011762047280765,0.9678587135506451,1.1875505768702999,-0.7735492246241543,48.75
40,-1.1716742941219676,-2.0878099577437306,-2.0117620614171,0.9678587286748699,1.187550644753215,-0.9125403164127126,50.0
41,-1.171674356780419,-2.0878099471784166,-2.011762072921383,0.9678587289980924,1.187550707380203,-1.041531408201244,51.25
42,-1.171674414453311,-2.0878099318396184,-2.0117620827889926,0.9678587229721141,1.18755076498052,-1.16052249998978,52.5
43,-1.1716744660734382,-2.087809914084436,-2.0117620911037166,0.967858713043632,1.187550816504399,-1.2695135917783196,53.75
44,-1.1716745098462304,-2.087809888398759,-2.011762096788759,0.9678586926517067,1.1875508601129663,-1.3685046835668633,55.0
45,-1.1716745491971325,-2.0878098653078307,-2.011762101899496,0.9678586743197544,1.1875508993162334,-1.4574957753554099,56.25
46,-1.1716745833623248,-2.0878098437432544,-2.011762106141884,0.9678586566953766,1.18755093334146,-1.536486867143962,57.5
47,-1.1716746084662697,-2.087809818284096,-2.01176210802394,0.9678586329166219,1.187550958267844,-1.605477958932515,58.75
48,-1.1716746299314917,-2.087809796515147,-2.011762109633199,0.9678586125845084,1.1875509795812427,-1.664469050721071,60.0
49,-1.171674647757992,-2.0878097784364096,-2.0117621109696575,0.9678585956990339,1.187550997281656,-1.713460142509628,61.25
50,-1.1716746619457694,-2.087809764047881,-2.0117621120333196,0.9678585822602009,1.1875510113690835,-1.7524512342981855,62.5
51,-1.1716746724948242,-2.087809753349562,-2.0117621128241856,0.9678585722680099,1.1875510218435248,-1.781442326086743,63.75
52,-1.171674679405156,-2.087809746341452,-2.011762113342255,0.9678585657224607,1.1875510287049797,-1.8004334178752988,65.0
53,-1.1720045040357434,-2.0883909037771464,-2.0106323943574322,0.9673097463577904,1.1878802329654992,-1.8102595243970085,66.25
54,-1.173635868486548,-2.0912654473344734,-2.0050445667223107,0.9645951868734844,1.1895085289296015,-1.8117275161760849,67.5
55,-1.1743877681529153,-2.0925903388759397,-2.002469113610867,0.963344033597406,1.1902590128522774,-1.8041155055807303,68.75
56,-1.1743877619199783,-2.0925903427216515,-2.0024691149153444,0.9633440302719628,1.1902590034042129,-1.7880549309672047,70.0
57,-1.174387751806148,-2.0925903489618674,-2.002469117032044,0.9633440248759566,1.1902589880733796,-1.7619943563536777,71.25
58,-1.1743877378114251,-2.092590357596588,-2.0024691199609674,0.9633440174093874,1.190258966859778,-1.725933781740151,72.5
59,-1.1743877199358093,-2.092590368625813,-2.002469123702114,0.9633440078722552,1.1902589397634076,-1.679873207126625,73.75
60,-1.174387698839791,-2.092590381520216,-2.0024691287971246,0.9633439943514985,1.1902589123376084,-1.6238126509612103,75.0
61,-1.1743876741560006,-2.0925903965742116,-2.0024691349447363,0.9633439779111717,1.1902588814935815,-1.5577520992903455,76.25
62,-1.1743876428835855,-2.0925904151765113,-2.0024691353267965,0.9633439791650118,1.1902588482457164,-1.4816915571719027,77.5
63,-1.174387605281406,-2.0925904372118938,-2.0024691305510616,0.9633439962811852,1.1902588123884166,-1.3956310219908095,78.75
64,-1.1743875633208245,-2.092590461896374,-2.002469125143348,0.9633440157636759,1.1902587724563687,-1.2995704979477312,80.0
65,-1.174387514856199,-2.0925904830229083,-2.0024691179064904,0.9633440300661786,1.190258725266116,-1.1935099806593312,81.25
66,-1.1743874589551095,-2.0925904979060874,-2.002469108304904,0.9633440359740573,1.1902586694453479,-1.0774494716477019,82.5
67,-1.1743873982220205,-2.0925905134866936,-2.002469097797773,0.963344041727884,1.1902586087795548,-0.9513889708957344,83.75
68,-1.1743873322499225,-2.0925905118668453,-2.0024690840193315,0.9633440270063113,1.1902585427373409,-0.8153284763199746,85.0
69,-1.1743872614543327,-2.0925905100305258,-2.002469069221052,0.9633440110972721,1.1902584718657583,-0.6692679820225209,86.25
70,-1.174387191415559,-2.09259048648084,-2.0024690517798645,0.963343970870445,1.190258401585176,-0.513207494813888,87.5
71,-1.174387119765486,-2.0925904568369256,-2.0024690332218014,0.9633439234618044,1.1902583296442424,-0.34762666659059954,88.75
72,-1.1743870589160628,-2.0925904119430863,-2.0024690149198396,0.963343860981336,1.1902582683932568,-0.1859463850564206,90.0
73,-1.1743870084690857,-2.0925903631001193,-2.0024689982485593,0.9633437960845811,1.1902582175222791,-0.03426610352224063,91.25
74,-1.1743869697294178,-2.0925903089860665,-2.002468983305985,0.9633437275370713,1.19025817832688,0.10741417801194131,92.5
75,-1.1743869402608664,-2.0925902548590285,-2.002468970268689,0.9633436607872822,1.1902581484100765,0.23909445954612535,93.75
76,-1.1743869222093357,-2.0925901994608913,-2.0024689594159173,0.9633435948370925,1.1902581299096686,0.36077474108031016,95.0
77,-1.1743869056444038,-2.0925901486147023,-2.002468949455575,0.9633435343065381,1.1902581129327454,0.472455022614495,96.25
78,-1.1743869044999489,-2.0925900986161046,-2.002468942776283,0.9633434777454932,1.1902581113955533,0.5741353041486832,97.5
79,-1.1743869034680483,-2.092590053534746,-2.0024689367538793,0.9633434267470832,1.1902581100095402,0.6658155856828705,98.75
80,-1.1743869025487021,-2.092590013370625,-2.002468931388364,0.9633433813113089,1.1902581087747062,0.7474958672170592,100.0
81,-1.1743869101802464,-2.0925899783309703,-2.002468928442117,0.9633433433212378,1.190258116137913,0.8191761487512569,101.25
82,-1.1743869179984159,-2.092589948210371,-2.002468926168232,0.963343310910333,1.1902581237264447,0.8808564302854502,102.5
83,-1.174386924549054,-2.0925899229731164,-2.002468924263001,0.9633432837540896,1.1902581300846753,0.9325367118196377,103.75
84,-1.1743869298321608,-2.0925899026192054,-2.002468922726426,0.9633432618525082,1.1902581352126047,0.9742169933538218,105.0
85,-1.174386933847736,-2.0925898871486375,-2.0024689215585085,0.9633432452055894,1.1902581391102331,1.005897274888007,106.25
86,-1.1743869365957798,-2.0925898765614126,-2.0024689207592488,0.9633432338133331,1.1902581417775606,1.027577556422196,107.5
87,-1.1744511068220078,-2.0927047559762744,-2.0022454077295713,0.9632345520744713,1.190322186800809,1.0394578543900987,108.75
88,-1.175865007733075,-2.0952361469989,-1.9973205074355533,0.9608399824824905,1.1917333299334758,1.0435806304426931,110.0
89,-1.1770587853931265,-2.0973734440126717,-1.9931623374329266,0.958818211110919,1.1929247788728532,1.0380031326083232,111.25
90,-1.1770619852530937,-2.097379180737114,-1.9931511875954326,0.9588127880217968,1.1929279717688601,1.0246443364057312,112.5
91,-1.1770619821521573,-2.0973791888489974,-1.9931511912657447,0.9588127865644898,1.192927967410778,1.0012964368819712,113.75
92,-1.1770619777230775,-2.097379200435234,-1.9931511965080664,0.9588127844830121,1.1929279611861117,0.9679485373582141,115.0
93,-1.1770619719658542,-2.0973792154958235,-1.993151203322398,0.958812781777364,1.1929279530948613,0.9246006378344573,116.25
94,-1.1770619644360503,-2.0973792341991935,-1.9931512115092538,0.9588127789464185,1.1929279393788803,0.8712527471310159,117.5
95,-1.1770619550696457,-2.097379256569606,-1.9931512210398998,0.9588127760620366,1.192927919496821,0.8079048641982759,118.75
96,-1.1770619478936855,-2.097379285666404,-1.9931512300468122,0.9588127868432081,1.1929279036872669,0.7345569863528769,120.0
97,-1.1770619486154237,-2.0973793264595457,-1.993151235375024,0.9588128332553807,1.1929279031672322,0.6512091199472871,121.25
98,-1.1770619494320242,-2.09737937220622,-1.9931512412908605,0.9588128854888802,1.1929279026550355,0.5578612611976439,122.5
99,-1.17706195282169,-2.097379422207559,-1.9931512482630451,0.9588129430950517,1.1929279049340185,0.45451340946178853,123.75
100,-1.1770619695354545,-2.097379473445789,-1.993151258312831,0.9588130041857187,1.1929279220929254,0.341165567465664,125.0
101,-1.177061987725854,-2.0973795292026427,-1.9931512692510889,0.9588130706593699,1.192927940783246,0.21781773429089576,126.25
102,-1.1770620201063209,-2.0973795820121843,-1.9931512827485882,0.9588131365440875,1.1929279736216187,0.08446990689568418,127.5
103,-1.177062059058406,-2.097379636348541,-1.9931512978033155,0.9588132054212914,1.1929280130382174,-0.05887791883855614,128.75
104,-1.1770621123297125,-2.097379682733448,-1.9931513147811513,0.9588132681418089,1.1929280667208138,-0.21222573961445756,130.0
105,-1.1770621734248685,-2.0973797277407247,-1.9931513331933775,0.9588133308426262,1.192928128221996,-0.37557355413212645,131.25
106,-1.1770622460984814,-2.0973797534545326,-1.9931513514976908,0.9588133740640389,1.1929282011588698,-0.5399406701875449,132.5
107,-1.1770623158322584,-2.0973797732072113,-1.9931513684253,0.9588134099901194,1.1929282711063853,-0.6943351753673717,133.75
108,-1.1770623854108917,-2.0973797748977567,-1.993151382985658,0.958813425526075,1.1929283407559264,-0.8387296805471892,135.0
109,-1.1770624501151292,-2.0973797740368885,-1.9931513962114034,0.9588134372311662,1.1929284055068816,-0.9731241857270048,136.25
110,-1.1770625096606937,-2.097379758212013,-1.993151406439116,0.9588134310581767,1.1929284649766703,-1.097518690906811,137.5
111,-1.1770625644194297,-2.097379743659293,-1.9931514158446197,0.9588134253814258,1.1929285196657216,-1.2119131960866103,138.75
112,-1.1770626112397258,-2.0973797207187723,-1.9931514225293605,0.9588134086947753,1.1929285663434959,-1.316307701266405,140.0
113,-1.1770626524638277,-2.0973796965696367,-1.993151427904331,0.9588133895494806,1.192928607410898,-1.4107022064461965,141.25
114,-1.1770626893207166,-2.0973796749788227,-1.993151432709881,0.9588133724324047,1.1929286441276876,-1.4950967116259861,142.5
115,-1.1770627185086375,-2.0973796513404754,-1.9931514356699531,0.9588133515050012,1.1929286731529896,-1.5694912168057729,143.75
116,-1.1770627416506592,-2.0973796279187296,-1.9931514374118324,0.9588133296373705,1.192928696129103,-1.6338857219855623,145.0
117,-1.1770627611988926,-2.097379608134212,-1.993151438883209,0.9588133111656236,1.1929287155371928,-1.6882802271653563,146.25
118,-1.1770627771533384,-2.097379591986922,-1.9931514400840822,0.95881329608976,1.1929287313772592,-1.7326747323451546,147.5
119,-1.1770627895139958,-2.097379579476859,-1.993151441014455,0.9588132844097813,1.1929287436493015,-1.7670692375249504,148.75
120,-1.1770627982808648,-2.0973795706040237,-1.9931514416743277,0.9588132761256878,1.1929287523533196,-1.7914637427047473,150.0
121,-1.1770628034539452,-2.0973795653684153,-1.9931514420636995,0.9588132712374794,1.1929287574893137,-1.805858247884543,151.25
122,-1.1780652892954535,-2.099203153204737,-1.9896006729311186,0.9570853695148027,1.1939292164036461,-1.8122388701787515,152.5
123,-1.1795579033326238,-2.1019183290895653,-1.9843138708827388,0.9545126690065211,1.1954188118711373,-1.8091367451360063,153.75
124,-1.1797007000135813,-2.102178096905546,-1.9838080748366238,0.9542665324077245,1.195561317592381,-1.798096376204378,155.0
125,-1.179700692107256,-2.1021781017802303,-1.9838080765007997,0.9542665282160026,1.1955613055195977,-1.7774845675770585,156.25
126,-1.1797006803651073,-2.1021781090199103,-1.9838080789723658,0.9542665219906299,1.1955612875895976,-1.7468727589497404,157.5
127,-1.1797006647871355,-2.102178118624586,-1.983808082251321,0.9542665137316066,1.195561263802381,-1.7062609503224182,158.75
128,-1.1797006455705734,-2.1021781304320473,-1.9838080865046335,0.954266502849379,1.195561235834327,-1.6556491477398065,160.0
129,-1.1797006231756897,-2.1021781440637537,-1.9838080921219419,0.9542664879681447,1.1955612075974886,-1.595037362390139,161.25
130,-1.179700596936352,-2.102178160010864,-1.9838080983101378,0.9542664716949593,1.1955611748330346,-1.524425577610563,162.5
131,-1.1797005621461145,-2.102178180361199,-1.983808093876625,0.9542664874685232,1.1955611416616794,-1.4438138086901313,163.75
132,-1.179700523044107,-2.1021782032678655,-1.9838080888651413,0.9542665053347172,1.195561104409608,-1.3532020439907104,165.0
133,-1.179700479635391,-2.102178228771085,-1.9838080832403377,0.9542665254651911,1.195561063120062,-1.2525902878601527,166.25
134,-1.1797004275179308,-2.1021782442123316,-1.9838080744626936,0.9542665326884301,1.1955610113134747,-1.1419785422223978,167.5
135,-1.1797003701390665,-2.1021782594787393,-1.9838080645673195,0.9542665387064564,1.195560954010358,-1.0213668039847503,168.75
136,-1.1797003077970611,-2.102178267052121,-1.9838080526589907,0.9542665350445614,1.1955608916725493,-0.8907550724886538,170.0
137,-1.1797002404585035,-2.102178265433742,-1.9838080385387555,0.9542665199990665,1.1955608242612175,-0.7501433443903471,171.25
138,-1.1797001708438264,-2.102178254043354,-1.9838080226808807,0.9542664934872174,1.1955607544955562,-0.599531619512236,172.5
139,-1.1797000996517466,-2.102178230195939,-1.9838080048813036,0.9542664526188547,1.1955606830539958,-0.43891990118414603,173.75
140,-1.179700034025558,-2.102178191597769,-1.9838079863181735,0.9542663962097776,1.1955606170654751,-0.27285414754020965,175.0
141,-1.1796999756202406,-2.1021781486363613,-1.9838079686807162,0.9542663362982295,1.1955605582690974,-0.11572718183734607,176.25
142,-1.179699934171942,-2.1021780950223588,-1.9838079531644095,0.9542662677035271,1.1955605163590706,0.031399783865502746,177.5
143,-1.1796998971413457,-2.1021780434341526,-1.9838079388234369,0.9542662022605007,1.195560478886577,0.16852674956834274,178.75
144,-1.1796998762633084,-2.102177987734141,-1.98380792728583,0.9542661353520372,1.1955604575474,0.29565371527117534,180.0
145,-1.1796998591034211,-2.1021779352005274,-1.9838079169269975,0.954266072744099,1.1955604399547046,0.41278068097400045,181.25
146,-1.179699849846344,-2.1021778854417605,-1.9838079085606002,0.9542660148167275,1.1955604302935332,0.5199076466768262,182.5
147,-1.1796998487684072,-2.1021778383844243,-1.9838079022342001,0.9542659615413903,1.195560428839862,0.6170346123796423,183.75
148,-1.1796998478014529,-2.1021777961720223,-1.983807896559147,0.9542659137511733,1.1955604275358582,0.704161578082457,185.0
149,-1.1796998501247224,-2.1021777588809694,-1.98380789220211,0.9542658721564278,1.1955604295640316,0.7812885437852712,186.25
150,-1.1796998585296485,-2.102177726578363,-1.983807889748431,0.9542658373808525,1.1955604377186844,0.848415509488085,187.5
151,-1.1796998656824806,-2.1021776990879224,-1.9838078876602796,0.954265807785844,1.1955604446585266,0.9055424751909052,188.75
152,-1.1796998715832194,-2.102177676409649,-1.983807885937653,0.9542657833714012,1.1955604503835588,0.95266944089373,190.0
153,-1.1796998762318642,-2.10217765854354,-1.9838078845805551,0.954265764137526,1.1955604548937808,0.989796406596554,191.25
154,-1.179699879628415,-2.1021776454895966,-1.983807883588986,0.9542657500842182,1.1955604581891925,1.0169233722993756,192.5
155,-1.1796998817728719,-2.102177637247818,-1.983807882962946,0.954265741211478,1.1955604602697938,1.0340503380022001,193.75
156,-1.1802573967927108,-2.103208019214028,-1.9817999695177524,0.953287826278868,1.1961168071758124,1.0424750317044942,195.0
157,-1.1818420480498717,-2.106136739659066,-1.9760927724157928,0.9505082589169161,1.1976981382449974,1.0421071101466761,196.25
158,-1.1823012861072368,-2.1069854993996397,-1.9744388017923937,0.949702727142648,1.1981564136073624,1.0331259511922004,197.5
159,-1.1823012837562301,-2.1069855055163385,-1.974438804584369,0.9497027260389457,1.198156410233423,1.0152693025831618,198.75
160,-1.182301280088623,-2.106985515058483,-1.9744388089398934,0.9497027243171527,1.198156404970025,0.9874126539741244,200.0
161,-1.1823012751044157,-2.1069855280260734,-1.9744388148589676,0.9497027219772697,1.1981563978171688,0.9495560053650829,201.25
162,-1.182301268803608,-2.10698554441911,-1.9744388223415907,0.9497027190192961,1.198156388774854,0.9016993567560481,202.5
163,-1.1823012603488992,-2.1069855645692024,-1.974438830996161,0.9497027164439802,1.1981563706857035,0.8438427248396903,203.75
164,-1.1823012504161334,-2.1069855882086856,-1.974438841138768,0.9497027134435467,1.1981563493269454,0.7759860932142816,205.0
165,-1.182301248284978,-2.106985623341904,-1.974438847627045,0.9497027454941742,1.1981563432760596,0.6981294740948945,206.25
166,-1.1823012490377216,-2.1069856657217887,-1.974438853189944,0.9497027937758461,1.1981563427422364,0.6102728596399775,207.5
167,-1.182301249889551,-2.1069857130192893,-1.9744388593032367,0.949702847954683,1.19815634226287,0.5124162572394834,208.75
168,-1.1823012601079657,-2.1069857625777346,-1.9744388677668185,0.9497029061755193,1.1981563522027363,0.40455966210297667,210.0
169,-1.1823012772723462,-2.1069858150676692,-1.974438878131131,0.9497029688257691,1.1981563698369162,0.28670307489421376,211.25
170,-1.1823012993168953,-2.1069858700032995,-1.9744388898281613,0.9497030351829945,1.1981563923792704,0.1588464953422859,212.5
171,-1.1823013363156336,-2.1069859214780573,-1.974438904187295,0.9497031005295554,1.1981564298256993,0.020989920862689727,213.75
172,-1.1823013788268888,-2.106985973829305,-1.9744389198018566,0.9497031679493375,1.1981564727956762,-0.12686665217183907,215.0
173,-1.1823014371427105,-2.1069860166610943,-1.9744389374493025,0.949703227741751,1.198156531504695,-0.2847232183306825,216.25
174,-1.1823015032960706,-2.1069860535234914,-1.9744389559425932,0.949703282342443,1.1981565980099649,-0.450990625590421,217.5
175,-1.182301573730356,-2.1069860770725444,-1.9744389735896903,0.9497033227670306,1.1981566686929366,-0.610874346710073,218.75
176,-1.182301642971637,-2.106986086817166,-1.9744389891933918,0.9497033473843643,1.1981567380710452,-0.7607580678297732,220.0
177,-1.1823017095501802,-2.106986088399383,-1.9744390031836092,0.9497033622698983,1.198156804718619,-0.9006417889495091,221.25
178,-1.1823017711343051,-2.1069860796212243,-1.9744390147915758,0.9497033644853486,1.198156866284354,-1.03052551006928,222.5
179,-1.1823018278175932,-2.106986064565854,-1.9744390245680137,0.9497033586552619,1.1981569228946995,-1.1504092311890726,223.75
180,-1.1823018789843356,-2.106986048355736,-1.9744390330520403,0.9497033504370321,1.1981569739745592,-1.2602929523088906,225.0
181,-1.1823019220718045,-2.106986023154761,-1.9744390386933541,0.9497033304866425,1.1981570168961113,-1.3601766734287453,226.25
182,-1.1823019608455119,-2.1069860004768195,-1.9744390437698742,0.9497033125336121,1.1981570555205128,-1.4500603945486146,227.5
183,-1.1823019950706286,-2.106985979995201,-1.9744390481904714,0.9497032961631809,1.198157089610113,-1.5299441156684936,228.75
184,-1.18230201987837,-2.10698595493609,-1.9744390500656386,0.9497032727759204,1.1981571142376135,-1.5998278367883878,230.0
185,-1.182302041136251,-2.1069859334628087,-1.9744390516724788,0.9497032527352561,1.1981571353410456,-1.6597115579082933,231.25
186,-1.1823020588442734,-2.1069859155753576,-1.9744390530109892,0.9497032360411862,1.1981571529204103,-1.7095952790282096,232.5
187,-1.182302073002436,-2.106985901273737,-1.974439054081173,0.9497032226937124,1.1981571669757067,-1.749479000148128,233.75
188,-1.1823020836107385,-2.106985890557945,-1.9744390548830308,0.9497032126928356,1.1981571775069346,-1.7793627212680485,235.0
189,-1.182302090669181,-2.106985883427982,-1.9744390554165625,0.9497032060385557,1.1981571845140941,-1.799246442387963,236.25
190,-1.1825116568611653,-2.1073793750860137,-1.9736716441496505,0.9493291486500866,1.1983662958591177,-1.8097466946085243,237.5
191,-1.1840103650285538,-2.1101934968021157,-1.9681834223523271,0.9466540632589028,1.1998617512588963,-1.8121513561722613,238.75
192,-1.184867845774743,-2.1118035948516147,-1.9650433441933326,0.9451235159631255,1.2007173695727438,-1.8052557572186034,240.0
193,-1.1848678400572878,-2.1118035983744705,-1.9650433454035803,0.9451235129518663,1.2007173607778427,-1.790177067724311,241.25
194,-1.1848678305480875,-2.1118036042336406,-1.965043347416449,0.945123507943577,1.200717346150272,-1.7650983782300176,242.5
195,-1.1848678172471416,-2.111803612429125,-1.9650433502319389,0.9451235009382579,1.2007173256900319,-1.7300196887357207,243.75
196,-1.1848678001544504,-2.1118036229609234,-1.9650433538500502,0.9451234919359089,1.2007172993971222,-1.6849409992414266,245.0
197,-1.184867779818934,-2.111803635365661,-1.9650433587506124,0.9451234792435008,1.2007172719874306,-1.6298623261863225,246.25
198,-1.18486775603935,-2.1118036498132167,-1.9650433647577144,0.9451234634817175,1.2007172417320529,-1.5647836599542497,247.5
199,-1.1848677263384502,-2.1118036674837604,-1.9650433662256597,0.9451234614704954,1.200717209001918,-1.4897050016002775,248.75
200,-1.1848676900653734,-2.1118036886652036,-1.9650433615864722,0.9451234778522997,1.2007171744211742,-1.4046263517240145,250.0
201,-1.1848676495385946,-2.1118037124120166,-1.9650433563347047,0.9451234964834558,1.2007171358603579,-1.3095477118267933,251.25
202,-1.1848676031424594,-2.111803734074443,-1.9650433495540738,0.945123511720946,1.2007170909167932,-1.2044690788061208,252.5
203,-1.184867549064459,-2.111803748455265,-1.9650433401883662,0.9451235173475933,1.2007170369209992,-1.0893904542531105,253.75
204,-1.1848674902850231,-2.1118037640865146,-1.9650433300078507,0.945123523465384,1.2007169782140505,-0.9643118387399505,255.0
205,-1.1848674264122045,-2.1118037637568388,-1.965043316708375,0.9451235105008738,1.2007169142804894,-0.8292332292519519,256.25
206,-1.184867357782025,-2.111803762144635,-1.9650433022560014,0.9451234951453269,1.200716845574899,-0.6841546204452318,257.5
207,-1.184867289387141,-2.1118037413823636,-1.9650432853520927,0.9451234582250679,1.2007167769530829,-0.5290760176964804,258.75
208,-1.1848672186117952,-2.111803714775942,-1.965043267191139,0.9451234142400678,1.2007167059018415,-0.3641439035737572,260.0
209,-1.1848671588896718,-2.1118036709760815,-1.9650432490790797,0.9451233530319054,1.2007166457740657,-0.2014859064988412,261.25
210,-1.1848671078682027,-2.1118036247937644,-1.9650432324614986,0.9451232908510727,1.2007165943351021,-0.04882790942391836,262.5
211,-1.1848670698158421,-2.111803571921313,-1.9650432176617652,0.9451232236780999,1.2007165558221866,0.09383008765102456,263.75
212,-1.1848670392870202,-2.111803519916971,-1.965043204536642,0.9451231589686542,1.200716524846273,0.22648808472598186,265.0
213,-1.1848670215380002,-2.1118034657087623,-1.9650431937758235,0.9451230942926117,1.2007165066432526,0.34914608180093376,266.25
214,-1.1848670052360135,-2.111803415920018,-1.9650431838923,0.9451230348894432,1.2007164899242793,0.46180407887590147,267.5
215,-1.1848670027091572,-2.1118033672771226,-1.9650431770169807,0.9451229794962326,1.200716487001498,0.564462075950876,268.75
216,-1.1848670016949938,-2.111803323036253,-1.965043171030311,0.945122929369171,1.2007164856283379,0.6571200730258594,270.0
217,-1.1848670007902828,-2.1118032835700267,-1.9650431656897414,0.9451228846520093,1.2007164844033746,0.7397780701008515,271.25
218,-1.1848670073387009,-2.11180324905097,-1.965043162541754,0.9451228469878284,1.2007164906779646,0.8124360671758301,272.5
219,-1.184867015089469,-2.1118032193322303,-1.9650431602700202,0.9451228149780746,1.2007164981947915,0.8750940642508175,273.75
220,-1.1848670216032409,-2.1118031943565003,-1.9650431583608454,0.9451227880769661,1.2007165045119588,0.9277520613257962,275.0
221,-1.1848670268800174,-2.1118031741237786,-1.9650431568142301,0.9451227662845032,1.2007165096294667,0.9704100584007644,276.25
222,-1.1848670309197977,-2.111803158634065,-1.9650431556301766,0.945122749600687,1.2007165135473148,1.0030680554757407,277.5
223,-1.1848670337225826,-2.1118031478873593,-1.9650431548086844,0.9451227380255173,1.2007165162655034,1.0257260525507108,278.75
224,-1.184884194215414,-2.111835874737857,-1.9649792678063716,0.9450915671065138,1.200733638147418,1.0384435974316406,280.0
225,-1.1860987782327994,-2.1141528489573855,-1.9604570987699437,0.942885610416405,1.2019454924574349,1.0434755808770348,281.25
226,-1.1873662239277147,-2.116570670080123,-1.9557381100502134,0.9405836451825029,1.2032100893728854,1.0387603206230633,282.5
227,-1.1873977519064947,-2.116630821092189,-1.9556207201555436,0.9405263796516659,1.203241545738827,1.0263690128412284,283.75
228,-1.1873977489980252,-2.1166308286186286,-1.955620723621633,0.9405263782887268,1.2032415414774182,1.004086609668453,285.0
229,-1.1873977447842796,-2.116630839522818,-1.9556207286432503,0.9405263763141214,1.203241535303555,0.9718042064956736,286.25
230,-1.1873977392652577,-2.1166308538047582,-1.9556207352203951,0.94052637372785,1.203241527217237,0.9295218033229007,287.5
231,-1.187397732103612,-2.116630871603988,-1.9556207431886503,0.9405263709583093,1.2032415143036281,0.8772394069732673,288.75
232,-1.1873977230769142,-2.116630893012514,-1.955620752439608,0.9405263682879619,1.20324149464084,0.814957019829398,290.0
233,-1.187397714930198,-2.116630919857792,-1.955620761874575,0.9405263740701284,1.2032414765231079,0.7426746359985429,291.25
234,-1.187397715626547,-2.116630958975157,-1.9556207670447954,0.9405264186668234,1.2032414760252905,0.6603922652703241,292.5
235,-1.1873977164143712,-2.1166310028934436,-1.9556207728015607,0.9405264688844792,1.2032414755264913,0.5681099009063932,293.75
236,-1.1873977181647681,-2.1166310513797466,-1.9556207793001308,0.9405265246186296,1.2032414760187218,0.4658275437143593,295.0
237,-1.1873977343164017,-2.11663110065947,-1.9556207890960196,0.9405265835057803,1.2032414926133563,0.3535451975039854,296.25
238,-1.1873977519082621,-2.116631154326502,-1.9556207997659847,0.9405266476315488,1.2032415107009873,0.23126285910870087,297.5
239,-1.1873977815702386,-2.1166312061574786,-1.9556208127191397,0.9405267120321463,1.2032415408302535,0.09898052689663502,298.75
240,-1.1873978192914465,-2.1166312585007794,-1.9556208274231883,0.9405267785825753,1.2032415790141462,-0.0433018029389296,300.0
241,-1.1873978693102767,-2.116631304796689,-1.9556208438928042,0.9405268407376804,1.203241629455067,-0.19558412848916587,301.25
242,-1.187397928531962,-2.1166313481656216,-1.95562086189306,0.9405269014083489,1.203241689081782,-0.3578664476836439,302.5
243,-1.1873979985520715,-2.1166313753739896,-1.9556208800224615,0.9405269459689455,1.203241759384474,-0.523070573346778,303.75
244,-1.1873980664973425,-2.116631396783255,-1.9556208969605677,0.9405269835722708,1.20324182756323,-0.6785264927566781,305.0
245,-1.1873981348877953,-2.1166313983705853,-1.9556209113946004,0.9405269988850078,1.2032418960258116,-0.8239824121665908,306.25
246,-1.1873981985650088,-2.116631399349857,-1.9556209247685519,0.9405270125794487,1.2032419597661137,-0.9594383315765123,307.5
247,-1.187398257163644,-2.116631383792274,-1.955620934919763,0.940527006600061,1.2032420182885053,-1.0848942509864454,308.75
248,-1.187398311091427,-2.116631369474778,-1.9556209442618213,0.9405270010972819,1.2032420721461226,-1.200350170396382,310.0
249,-1.1873983577094402,-2.116631348347223,-1.9556209511912364,0.9405269864609468,1.2032421186320748,-1.305806089806329,311.25
250,-1.187398398388011,-2.1166313245898616,-1.9556209565406668,0.9405269676813927,1.2032421591519862,-1.4012620092162802,312.5
251,-1.1873984348050797,-2.1166313033213333,-1.9556209613296835,0.9405269508691894,1.2032421954270172,-1.4867179286262338,313.75
252,-1.1873984643019435,-2.1166312808522787,-1.955620964521943,0.9405269313335047,1.2032422247660597,-1.5621738480361933,315.0
253,-1.1873984872567354,-2.1166312577074162,-1.9556209662648394,0.940526909741492,1.2032422475518554,-1.627629767446148,316.25
254,-1.187398506704619,-2.1166312380985004,-1.9556209677414649,0.940526891448189,1.203242266856561,-1.6830856868561004,317.5
255,-1.1873985226455948,-2.1166312220255317,-1.9556209689518174,0.9405268764535952,1.2032422826801774,-1.7285416062660428,318.75
256,-1.1873985350796619,-2.116631209488509,-1.9556209698959004,0.9405268647577123,1.2032422950227035,-1.7639975256759857,320.0
257,-1.1873985440068204,-2.1166312004874333,-1.955620970573714,0.9405268563605403,1.203242303884139,-1.7894534450859296,321.25
258,-1.18739854942707,-2.116631195022303,-1.9556209709852581,0.9405268512620792,1.2032423092644844,-1.8049093644958742,322.5
259,-1.1881774244303926,-2.1181406390487525,-1.9526726577345874,0.9390875165944604,1.2040193721990349,-1.8121083469795298,323.75
260,-1.189651561130715,-2.1209975021585334,-1.947092515609305,0.93636335544507,1.2054900788035088,-1.8101098073359878,325.0
261,-1.1898950321897415,-2.121469356226073,-1.9461708761417773,0.9359134193931423,1.2057329813184081,-1.7999278655117972,326.25
262,-1.1898950248934261,-2.1214693607190367,-1.9461708776949471,0.9359134155763645,1.205732970011447,-1.780463986046536,327.5
263,-1.1898950138484667,-2.1214693675203593,-1.946170880046092,0.9359134097986324,1.2057329528952836,-1.751000106581269,328.75
264,-1.189894999054863,-2.1214693766300416,-1.9461708831952125,0.935913402059946,1.2057329299699178,-1.7115362271160106,330.0
265,-1.189894980616323,-2.1214693879582094,-1.9461708872359411,0.9359133920303154,1.2057329021358427,-1.6620723509790494,331.25
266,-1.1898949591259305,-2.1214694009908897,-1.9461708927037502,0.935913377822579,1.205732874542836,-1.6026084944034942,332.5
267,-1.1898949340215115,-2.1214694162152674,-1.9461708990910775,0.9359133612255364,1.20573284230953,-1.5331446378279363,333.75
268,-1.1898949009177655,-2.1214694355673465,-1.9461708956943602,0.9359133736417027,1.2057328100168325,-1.4536807962276093,335.0
269,-1.1898948632352528,-2.121469457558147,-1.946170890838082,0.9359133906812785,1.2057327741174377,-1.364216958702424,336.25
270,-1.1898948213509164,-2.121469482084249,-1.9461708853696051,0.9359134099563409,1.2057327342946487,-1.2647531312927174,337.5
271,-1.1898947715409511,-2.1214694984730382,-1.9461708771314057,0.9359134186121412,1.2057326850320056,-1.1552893130310906,338.75
272,-1.1898947160785807,-2.121469513217097,-1.9461708674821794,0.9359134243385028,1.2057326296476725,-1.035825502408318,340.0
273,-1.189894655820572,-2.121469522567602,-1.946170856131072,0.9359134230017886,1.2057325694106527,-0.9063616989520729,341.25
274,-1.1898945906431022,-2.1214695210735246,-1.94617084234374,0.9359134083971781,1.2057325041603917,-0.7668978996561383,342.5
275,-1.1898945226271511,-2.121469512452939,-1.9461708270278684,0.9359133851807295,1.2057324360116095,-0.6174341028901067,343.75
276,-1.1898944536507443,-2.1214694895219663,-1.946170809630603,0.9359133456113824,1.205732366786261,-0.4579703127799596,345.0
277,-1.1898943881935193,-2.121469454317363,-1.9461707913538229,0.9359132928771687,1.2057323009822234,-0.29163865190336713,346.25
278,-1.1898943307853562,-2.121469412338054,-1.9461707738649217,0.9359132340865495,1.205732243178553,-0.1333679450629778,347.5
279,-1.189894288303058,-2.1214693616290345,-1.9461707583409174,0.9359131683942823,1.205732200242009,0.014902761777428778,348.75
280,-1.1898942518680542,-2.1214693111344443,-1.9461707441060876,0.9359131041426687,1.2057321633598141,0.153173468617838,350.0
281,-1.189894229500017,-2.1214692576198146,-1.9461707324075674,0.9359130392679395,1.2057321405320538,0.2814441754582579,351.25
282,-1.1898942125943184,-2.1214692061069877,-1.9461707221111921,0.9359129777366757,1.2057321231878753,0.3997148822986894,352.5
283,-1.1898942018437255,-2.1214691576952216,-1.9461707135059154,0.9359129209277262,1.205732112029695,0.5079855891391292,353.75
284,-1.1898942007827658,-2.12146911144627,-1.9461707072054433,0.9359128684818857,1.205732110587416,0.6062562959795776,355.0
285,-1.189894199829769,-2.1214690699036027,-1.9461707015460985,0.935912821372917,1.205732109291903,0.6945270028200207,356.25
286,-1.189894200976529,-2.121469033112882,-1.9461706969492256,0.9359127800471421,1.2057321101370684,0.7727977096604755,357.5
287,-1.189894209320764,-2.121469001190984,-1.9461706944931794,0.9359127456468539,1.2057321182260523,0.8410684165009272,358.75
288,-1.1898942164427713,-2.1214689739448684,-1.9461706923968844,0.9359127162853723,1.2057321251301967,0.8993391233413798,360.0
289,-1.1898942223425508,-2.1214689513745375,-1.9461706906603369,0.9359126919626959,1.2057321308495015,0.9476098301818192,361.25
290,-1.1898942270201027,-2.121468933479989,-1.9461706892835409,0.935912672678826,1.2057321353839665,0.9858805370222594,362.5
291,-1.189894230475427,-2.121468920261222,-1.9461706882664969,0.935912658433763,1.2057321387335922,1.0141512438626972,363.75
292,-1.1898942327085231,-2.1214689117182375,-1.9461706876092049,0.9359126492275067,1.2057321408983779,1.032421950703136,365.0
293,-1.190270004883675,-2.122208715453133,-1.9447245851876205,0.9352061370085424,1.2061070083342047,1.041714448614902,366.25
294,-1.1917601018248367,-2.1251423782016032,-1.9389901567513803,0.9324045241089773,1.207593517663469,1.0425318488753357,367.5
295,-1.1923570654865088,-2.1263176692138646,-1.9366928231389406,0.9312821378623892,1.2081890435581801,1.0344538257196594,368.75
296,-1.1923570633346008,-2.126317674752795,-1.9366928257129064,0.9312821368561222,1.2081890403397335,1.0178261155141668,370.0
297,-1.1923570598885231,-2.1263176836228705,-1.9366928298348696,0.9312821352446803,1.2081890351856945,0.9911984053086702,371.25
298,-1.192357055148276,-2.1263176958240906,-1.9366928355048305,0.9312821330280636,1.2081890280960634,0.95457069510318,372.5
299,-1.1923570491138589,-2.1263177113564553,-1.9366928427227892,0.931282130206272,1.2081890190708402,0.9079429848976858,373.75
300,-1.1923570410905742,-2.126317730519908,-1.9366928511358845,0.9312821277147665,1.2081890020433,0.8513152863176308,375.0
301,-1.1923570315284289,-2.126317753120154,-1.9366928609726908,0.9312821249475793,1.2081889809433097,0.7846875896251114,376.25
302,-1.1923570280840392,-2.1263177855509694,-1.9366928680436404,0.9312821504296784,1.2081889721284265,0.7080599033356361,377.5
303,-1.1923570288089695,-2.1263178261513946,-1.9366928734431093,0.9312821967664181,1.208188971612489,0.6214322229838974,378.75
304,-1.1923570296308044,-2.1263178715271955,-1.9366928793860039,0.9312822488326202,1.2081889711532527,0.5248045546115399,380.0
305,-1.1923570377541097,-2.126317919603094,-1.936692887295814,0.9312823051507407,1.2081889787965694,0.4181768929410007,381.25
306,-1.192357054328045,-2.126317970053195,-1.936692897395115,0.9312823655060498,1.2081889958354324,0.3015492394428861,382.5
307,-1.192357073722322,-2.1263180240103,-1.936692908548237,0.9312824303793704,1.2081890157377486,0.1749215940489765,383.75
308,-1.1923571095075736,-2.1263180735401965,-1.9366929225624108,0.9312824934524937,1.2081890519682525,0.038293954535742386,385.0
309,-1.1923571488312543,-2.1263181257698394,-1.9366929376725328,0.9312825602786157,1.2081890917623606,-0.10833368425331377,386.25
310,-1.1923572053013518,-2.126318167002946,-1.9366929549160723,0.9312826180880138,1.208189148624172,-0.26496131605126405,387.5
311,-1.192357268310236,-2.12631820509493,-1.9366929731121956,0.9312826736473911,1.2081892120045188,-0.43082743693231446,388.75
312,-1.1923573375789636,-2.12631822807923,-1.9366929906242167,0.9312827133802066,1.2081892815250828,-0.5919359836457934,390.0
313,-1.1923574050668155,-2.126318240012071,-1.9366930063062744,0.9312827402720065,1.2081893491715818,-0.7430445303592741,391.25
314,-1.1923574706162254,-2.126318241495583,-1.9366930202048513,0.9312827549718412,1.2081894147913,-0.8841530770727749,392.5
315,-1.192357531338839,-2.1263182349670533,-1.9366930320376214,0.9312827596597655,1.208189475513532,-1.0152616237862837,393.75
316,-1.192357587227912,-2.1263182201326285,-1.9366930417644195,0.9312827540024118,1.2081895313290902,-1.1363701704998008,395.0
317,-1.1923576382568635,-2.1263182057764145,-1.9366930505382927,0.9312827479197624,1.2081895822841906,-1.2474787172133324,396.25
318,-1.1923576808276124,-2.126318180947467,-1.93669305616267,0.9312827283233414,1.2081896246867836,-1.3485872639268568,397.5
319,-1.1923577191879615,-2.1263181585741933,-1.9366930612307716,0.9312827106650747,1.2081896628956084,-1.4396958106403908,398.75
320,-1.1923577533379106,-2.1263181386565932,-1.9366930657425998,0.931282694944964,1.208189696910664,-1.5208043573539272,400.0
321,-1.1923577784391348,-2.126318114497926,-1.9366930678034349,0.9312826726349914,1.2081897218338296,-1.591912904067488,401.25
322,-1.1923577996126733,-2.1263180931862378,-1.936693069418713,0.9312826527614887,1.2081897428494346,-1.653021450781029,402.5
323,-1.1923578173213059,-2.1263180753620636,-1.936693070769659,0.9312826361401485,1.208189760425979,-1.7041299974945516,403.75
324,-1.1923578315650325,-2.1263180610254038,-1.9366930718562756,0.9312826227709721,1.2081897745634618,-1.7452385442080658,405.0
325,-1.1923578423438528,-2.126318050176257,-1.9366930726785636,0.9312826126539604,1.208189785261883,-1.7763470909215773,406.25
326,-1.1923578496577665,-2.1263180428146233,-1.9366930732365226,0.9312826057891134,1.2081897925212426,-1.797455637635107,407.5
327,-1.1924515757733143,-2.1265054832798436,-1.9363264071613868,0.9311033296076748,1.2082832851683398,-1.80888346348739,408.75
328,-1.1937822551887438,-2.1291668402641495,-1.931120435086615,0.9285579969106006,1.209610650162054,-1.8125423284244437,410.0
329,-1.1947877892352219,-2.131177915609141,-1.927186506271857,0.926634598238727,1.2106136784242254,-1.8065971570403112,411.25
330,-1.194787789876878,-2.131177930240981,-1.927186484886787,0.92663458459724,1.2106136761869264,-1.792827349976965,412.5
331,-1.194787781066601,-2.1311779356629725,-1.9271864867729263,0.9266345800200393,1.2106136624316282,-1.7690575653618206,413.75
332,-1.194787768549821,-2.131177943366008,-1.927186489452568,0.9266345735172001,1.2106136428894456,-1.7352877807466984,415.0
333,-1.1947877523265384,-2.1311779533500874,-1.9271864929257134,0.9266345650887227,1.2106136175603797,-1.6915179961315707,416.25
334,-1.1947877328190772,-2.1311779652394214,-1.9271864975862905,0.9266345533485002,1.2106135901503088,-1.6377482240628118,417.5
335,-1.19478771002177,-2.1311779790390535,-1.9271865034290137,0.9266345383151295,1.2106135606095092,-1.5739784612269263,418.75
336,-1.1947876820730292,-2.1311779956980224,-1.9271865062886784,0.9266345322584749,1.21061352822187,-1.500208704071838,420.0
337,-1.194787647205425,-2.131178015995906,-1.9271865017937477,0.926634547885421,1.2106134949892238,-1.416438957404406,421.25
338,-1.194787608183713,-2.1311780387774286,-1.927186496707226,0.9266345656377545,1.2106134578620322,-1.3226692191072038,422.5
339,-1.1947875640445393,-2.131178061286751,-1.9271864904684637,0.9266345821912834,1.2106134154095227,-1.2188994878683646,423.75
340,-1.1947875118576252,-2.131178075157489,-1.927186481346031,0.9266345875356625,1.2106133633059917,-1.1051297658562742,425.0
341,-1.194787455081486,-2.131178090248256,-1.9271864714207467,0.9266345933522679,1.2106133066037037,-0.9813600531688097,426.25
342,-1.1947873933896482,-2.1311780922424273,-1.9271864587500696,0.9266345833317057,1.210613244870163,-0.8475903462277629,427.5
343,-1.1947873270028597,-2.131178090759704,-1.9271864446401064,0.9266345684312404,1.2106131784080136,-0.7038206408345631,428.75
344,-1.1947872601308633,-2.1311780734007915,-1.9271864283270617,0.9266345354879468,1.210613111330304,-0.5500509406721248,430.0
345,-1.1947871901393037,-2.1311780502209494,-1.92718641058971,0.926634495343387,1.2106130410824654,-0.38628124665955016,431.25
346,-1.1947871312664222,-2.131178007573533,-1.927186392605942,0.9266344354078488,1.2106129818005722,-0.22231949536160212,432.5
347,-1.194787079098476,-2.1311779643174167,-1.9271863759468635,0.9266343761198466,1.210612929224529,-0.06835681290229019,433.75
348,-1.1947870416187427,-2.1311779125068266,-1.9271863612339852,0.9266343100878381,1.2106128912783714,0.07560586955696433,435.0
349,-1.1947870094843558,-2.1311778626969646,-1.927186347906229,0.9266342473822085,1.2106128586990605,0.20956855201613028,436.25
350,-1.1947869919786356,-2.1311778094768923,-1.9271863371930862,0.9266341837357314,1.2106128407330135,0.33353123447524097,437.5
351,-1.1947869758850924,-2.1311777605500586,-1.9271863273441574,0.9266341252235766,1.2106128242162777,0.44749391693429474,438.75
352,-1.1947869715582948,-2.1311777131683027,-1.9271863201658985,0.9266340708018855,1.2106128194897283,0.5514565993932898,440.0
353,-1.1947869705574732,-2.1311776695718496,-1.92718631418574,0.9266340213215858,1.2106128181237585,0.6454192818522364,441.25
354,-1.1947869696631643,-2.1311776306151615,-1.9271863088420165,0.9266339771072365,1.2106128169031625,0.7293819643111259,442.5
355,-1.1947869748676316,-2.131177596432087,-1.9271863054083544,0.9266339395037975,1.2106128218266854,0.8033446467699887,443.75
356,-1.1947869825929187,-2.1311775669427044,-1.9271863031242793,0.9266339077081996,1.2106128293125002,0.8673073292288306,445.0
357,-1.1947869891104252,-2.1311775420637273,-1.9271863011972976,0.9266338808835617,1.2106128356279742,0.9212700116876579,446.25
358,-1.1947869944201517,-2.1311775217951547,-1.9271862996274092,0.9266338590298837,1.2106128407731074,0.965232694146466,447.5
359,-1.1947869985220978,-2.1311775061369866,-1.9271862984146162,0.9266338421471666,1.2106128447478994,0.9991953766052679,448.75
360,-1.1947870014162634,-2.131177495089222,-1.9271862975589191,0.9266338302354107,1.2106128475523505,1.023158059064092,450.0
361,-1.1947870031026488,-2.1311774886518613,-1.9271862970603177,0.9266338232946155,1.2106128491864607,1.0371207415229133,451.25
362,-1.195748465325837,-2.1331308591388933,-1.9233624901567126,0.9247628959563826,1.2115718346432665,1.0432161792512678,452.5
363,-1.1970771015784973,-2.1358302127402005,-1.9180783998089326,0.9221774788794534,1.2128970480608603,1.0397549757978226,453.75
364,-1.1971846022459702,-2.1360486253526334,-1.9176508573280036,0.9219682880105167,1.2130042710399078,1.0284911479804357,455.0
365,-1.1971845995645838,-2.136048632217666,-1.9176508605479103,0.9219682867592216,1.213004266946836,1.0075963388779545,456.25
366,-1.1971845955999183,-2.1360486423682192,-1.9176508653088251,0.921968284909072,1.2130042608948701,0.9767015297754909,457.5
367,-1.1971845903519744,-2.136048655804293,-1.9176508716107479,0.9219682824600681,1.2130042528840101,0.9358067206730228,458.75
368,-1.1971845836053727,-2.136048672622899,-1.9176508793396603,0.9219682797191734,1.2130042410134436,0.8849119141178734,460.0
369,-1.1971845749502945,-2.1360486930086298,-1.9176508882786116,0.921968277270472,1.2130042216663455,0.8240171138905859,461.25
370,-1.1971845655646607,-2.1360487173269758,-1.9176508982953882,0.9219682770292186,1.2130042005743142,0.7531223146972976,462.5
371,-1.1971845662341412,-2.1360487547109797,-1.9176509032987545,0.9219683197417197,1.213004200100029,0.6722275307224622,463.75
372,-1.1971845669913301,-2.1360487967487707,-1.9176509088910325,0.921968367873895,1.2130041996111278,0.5813327513785158,465.0
373,-1.1971845678411988,-2.1360488434729663,-1.9176509150425003,0.9219684215660292,1.2130041991518201,0.48043798031045676,466.25
374,-1.1971845823125724,-2.1360488910670243,-1.9176509243684694,0.9219684783870319,1.2130042139217285,0.3695432200660629,467.5
375,-1.1971845992878007,-2.136048942618869,-1.9176509347636732,0.9219685401329858,1.2130042313868046,0.24864846719254285,468.75
376,-1.197184625807358,-2.1360489936809897,-1.9176509471095293,0.9219686032021315,1.2130042583853236,0.11775372100983739,470.0
377,-1.197184662269738,-2.1360490440208553,-1.9176509614588775,0.9219686674111369,1.2130042953074647,-0.02314102188546309,471.25
378,-1.1971847086239702,-2.1360490905942062,-1.9176509773864454,0.9219687293368928,1.2130043420972267,-0.17403576135070775,472.5
379,-1.1971847659413872,-2.1360491323246364,-1.9176509949742486,0.9219687879765056,1.2130043998178162,-0.33493049432651445,473.75
380,-1.1971848316432125,-2.1360491610878505,-1.9176510126015462,0.9219688336265159,1.2130044658212737,-0.49761668354503474,475.0
381,-1.1971848965470064,-2.1360491825414933,-1.9176510290902131,0.9219688708509611,1.21300453096446,-0.6503912139678175,476.25
382,-1.197184961401832,-2.1360491865777,-1.9176510432550795,0.9219688883687278,1.2130045959119755,-0.793165744390535,477.5
383,-1.1971850223464389,-2.1360491879203245,-1.917651056240452,0.921968902059407,1.2130046569230528,-0.9259402748131946,478.75
384,-1.1971850784213685,-2.1360491769886947,-1.9176510665721445,0.9219689008968619,1.2130047129566917,-1.048714805235774,480.0
385,-1.1971851298461447,-2.136049163340503,-1.9176510755658045,0.921968895733462,1.2130047643130935,-1.1614893356582852,481.25
386,-1.19718517580085,-2.136049148138795,-1.9176510832036193,0.9219688877207037,1.2130048101813922,-1.2642638660807575,482.5
387,-1.1971852143989676,-2.1360491256547562,-1.917651088328214,0.9219688700032463,1.213004848625124,-1.357038396503122,483.75
388,-1.1971852488366648,-2.1360491055942337,-1.9176510929004333,0.9219688541955199,1.2130048829250757,-1.4398129269254303,485.0
389,-1.1971852791139406,-2.1360490879572263,-1.9176510969202805,0.9219688402975258,1.2130049130812472,-1.5125874573477291,486.25
390,-1.1971853016747354,-2.1360490678341857,-1.91765109898836,0.921968822046952,1.213004935493021,-1.5753619877700251,487.5
391,-1.1971853197438145,-2.13604904967727,-1.9176511003736971,0.9219688051226944,1.213004953425569,-1.6281365181923535,488.75
392,-1.1971853343890682,-2.136049034960824,-1.9176511014965332,0.9219687914053357,1.2130049679601618,-1.6709110486146932,490.0
393,-1.1971853456104966,-2.1360490236848477,-1.9176511023568654,0.9219687808948742,1.2130049790968,-1.7036855790370227,491.25
394,-1.1971853534080992,-2.1360490158493413,-1.9176511029546979,0.921968773591312,1.2130049868354835,-1.7264601094593637,492.5
395,-1.1971853577818758,-2.136049011454303,-1.9176511032900296,0.921968769494649,1.2130049911762117,-1.7392346398816947,493.75
396,-1.1968171740119058,-2.135325421680237,-1.919131190891205,0.9227254148167657,1.2126380321655663,-1.742765961955827,495.0
397,-1.1965582798443093,-2.1348166261176993,-1.9201719267234298,0.9232574588212449,1.2123799992178468,-1.7374933062304883,496.25
398,-1.1964343689545194,-2.1345731209654804,-1.920670022240481,0.9235120988691983,1.2122565005395265,-1.7226359718921815,497.5
399,-1.1962270575791727,-2.1341657202269646,-1.9215033700347637,0.9239381290482178,1.2120498788221012,-1.6977786375538662,498.75
400,-1.1959363457182688,-2.133594423902152,-1.9226719701062782,0.9245355493583034,1.211760134065571,-1.6629213032155565,500.0
401,-1.1955596199270875,-2.1328604130494764,-1.9241734130755785,0.9253031377703191,1.211384641654007,-1.6180639088441555,501.25
402,-1.1950967172807372,-2.131963761652501,-1.9260075480133363,0.9262408177310384,1.2109232379649755,-1.5632064683110334,502.5
403,-1.1945494317973733,-2.1309036590649013,-1.9281760286515004,0.9273494280070629,1.210377724684876,-1.4983490277779374,503.75
404,-1.1939142113493433,-2.1296816498146702,-1.9306757048346805,0.9286273705935875,1.2097445370631574,-1.4234914955035005,505.0
405,-1.1931924890113759,-2.1282971110682074,-1.9335078468670894,0.9300752898861695,1.2090251132663077,-1.3386339231195576,506.25
406,-1.192381336921451,-2.126751276508604,-1.9366699393739861,0.931691911525627,1.2082165138178356,-1.243776248164413,507.5
407,-1.1914823170729272,-2.1250434801839955,-1.9401633403341871,0.9334779238119024,1.2073203066980454,-1.1389185204090146,508.75
408,-1.190489838363093,-2.1231760294254824,-1.943983345863124,0.9354309434671162,1.2063308797515127,-1.0240606172713291,510.0
409,-1.1894058782684642,-2.121148053639156,-1.9481317316640427,0.9375518709998126,1.2052502182737523,-0.8992026000119366,511.25
410,-1.1882284460837476,-2.1189603366903604,-1.9526069002860937,0.9398398976584895,1.20407632434175,-0.7643444380398285,512.5
411,-1.1869553871141563,-2.1166136913843454,-1.957407195878484,0.9422941857151615,1.2028070356942482,-0.6194861011762335,513.75
412,-1.185584496030965,-2.1141089120841707,-1.9625310007843033,0.9449139174124848,1.2014401395177616,-0.46462756371029623,515.0
413,-1.1841364574500162,-2.1114881826182224,-1.9678920303186287,0.9476549853907745,1.1999962476558996,-0.3023342433157549,516.25
414,-1.1827448312365358,-2.108993716184294,-1.972994808739072,0.9502640570469533,1.198608536458858,-0.1476053006060873,517.5
415,-1.1814335130516669,-2.106663955368739,-1.9777606905862704,0.9527009128176265,1.197300847437535,-0.002876175209643353,518.75
416,-1.1802046164387026,-2.1044980733828647,-1.9821913606736983,0.9549664055938138,1.1960753017639052,0.1318530976526674,520.0
417,-1.1790603073775134,-2.1024952615293246,-1.9862884663462117,0.9570613686573005,1.194934072966583,0.2565824854523318,521.25
418,-1.1780027841603289,-2.1006547362069266,-1.9900536032316127,0.9589866084823732,1.1938793667386227,0.3713119590796514,522.5
419,-1.177029491931051,-2.098977316881247,-1.9934851041821806,0.9607412841087868,1.1929086202629617,0.4760415597743509,523.75
420,-1.1761467153016634,-2.0974608620760726,-1.9965873281874915,0.9623275968912527,1.192028138617974,0.5707711956507376,525.0
421,-1.1753527495932619,-2.0961059337870886,-1.9993591316221004,0.963744969640691,1.1912362117058521,0.6555008989595984,526.25
422,-1.1746507286441448,-2.0949114846406838,-2.0018026460695895,0.9649944784475634,1.1905359834261815,0.7302306261910557,527.5
423,-1.1740391292576942,-2.093878005211195,-2.0039168734442865,0.9660756198055913,1.1899259258224675,0.7949604050071775,528.75
424,-1.1735220148822592,-2.093004186365813,-2.0057044772133787,0.9669897373644037,1.1894101150422203,0.8496901838233183,530.0
425,-1.1730979051021024,-2.092290493839354,-2.0071645100235807,0.9677363534352863,1.1889870661226747,0.8944199818663021,531.25
426,-1.1727670204027294,-2.0917368581272617,-2.0082971132558,0.968315539309172,1.1886570002269392,0.9291498036855497,532.5
427,-1.1725314096443213,-2.091342634609961,-2.009103598134141,0.9687279561518487,1.188421972508322,0.9538796255048044,533.75
428,-1.172391072826878,-2.091107823287451,-2.009583964658603,0.9689736039633167,1.1882819829668236,0.9686094473240658,535.0
429,-1.1720813884237509,-2.0905909449586257,-2.010641402061596,0.9695143684010139,1.187973062642264,0.9737529836678877,536.25
430,-1.171674137083613,-2.089911714366198,-2.012030993957934,0.9702250001514404,1.1875668152398942,0.9700481011438379,537.5
431,-1.1716738315903363,-2.0899118154148115,-2.0120308019028443,0.9702249098229669,1.1875665094244963,0.9570456511517532,538.75
432,-1.1716732911465102,-2.0899119941784807,-2.012030462140907,0.9702247500241447,1.1875659684108102,0.9340432011596614,540.0
433,-1.1716725157521348,-2.089912250657207,-2.012029974672123,0.9702245207549736,1.187565192198836,0.9010407511675766,541.25
434,-1.1716715051759126,-2.0899125849427254,-2.012029339384049,0.9702242222664719,1.1875641788018647,0.8580383312365143,542.5
435,-1.1716702595941033,-2.0899129969651185,-2.0120285563623477,0.9702238543671227,1.1875629297351242,0.8050359113809781,543.75
436,-1.1716691562223196,-2.0899133699724137,-2.0120278636598248,0.9702235374261764,1.1875618232275986,0.7420334960925393,545.0
437,-1.1716691569838233,-2.089913406240024,-2.012027868326255,0.9702235783958582,1.187561823769685,0.6690310950352866,546.25
438,-1.1716691578511718,-2.089913447486746,-2.0120278736222934,0.9702236250249823,1.1875618243988895,0.5860286962258174,547.5
439,-1.1716691588261727,-2.089913493725687,-2.012027879536604,0.9702236773693969,1.1875618251303854,0.49302630178875806,548.75
440,-1.17166917135214,-2.0899135418437265,-2.01202788810869,0.9702237339177532,1.1875618379129196,0.39002391654887814,550.0
441,-1.171669188224017,-2.0899135937874322,-2.012027898066097,0.9702237955655464,1.187561855212826,0.27702153744303465,551.25
442,-1.1716692107243591,-2.08991364789658,-2.0120279094499782,0.9702238607365274,1.1875618781627435,0.15401916535477178,552.5
443,-1.1716692473199897,-2.0899136991937888,-2.0120279233758294,0.9702239254781534,1.1875619151861418,0.021016801143324174,553.75
444,-1.1716692890763998,-2.0899137519013,-2.0120279385360424,0.9702239928088388,1.1875619573851837,-0.1219855597930497,555.0
445,-1.1716693470208948,-2.089913794821507,-2.0120279557877954,0.9702240523005456,1.1875620157086089,-0.2749879187074943,556.25
446,-1.1716694126028573,-2.0899138336623806,-2.0120279740938214,0.9702241086981678,1.1875620816440462,-0.43785446431197045,557.5
447,-1.171669485162513,-2.0899138581850645,-2.0120279920363737,0.9702241503735003,1.1875621544519157,-0.5985260951723614,558.75
448,-1.171669556083807,-2.0899138700624027,-2.012028008059174,0.97022417752717,1.1875622255221736,-0.7491977260327362,560.0
449,-1.1716696247177305,-2.0899138718021284,-2.012028022343333,0.9702241928493109,1.1875622942247102,-0.8898693568930623,561.25
450,-1.1716696882627846,-2.0899138642335853,-2.01202803441858,0.9702241967257353,1.1875623577621994,-1.0205409877533582,562.5
451,-1.1716697467491983,-2.0899138486797986,-2.0120280444568355,0.9702241906482805,1.1875624161751408,-1.1412126186136327,563.75
452,-1.1716697999315615,-2.08991383300708,-2.0120280533931445,0.9702241834041458,1.1875624692788493,-1.2518842494738904,565.0
453,-1.1716698444466354,-2.0899138068614462,-2.0120280592412847,0.9702241627092523,1.1875625136271948,-1.3525558803341342,566.25
454,-1.1716698845399018,-2.0899137833129346,-2.0120280645085074,0.9702241440700388,1.1875625535702943,-1.443227511194359,567.5
455,-1.1716699202113596,-2.0899137623615442,-2.0120280691948156,0.9702241274865069,1.1875625891081467,-1.5238991420545767,568.75
456,-1.1716699461473672,-2.089913736558989,-2.012028071278226,0.970224103558198,1.1875626148651575,-1.5945707729147893,570.0
457,-1.1716699682236325,-2.08991371414142,-2.0120280729946063,0.9702240826799357,1.1875626367855407,-1.655242403775015,571.25
458,-1.1716699866612514,-2.089913695418753,-2.0120280744280876,0.9702240652428618,1.1875626550929708,-1.7059140346352626,572.5
459,-1.1716700014602233,-2.0899136803909872,-2.0120280755786712,0.9702240512469777,1.1875626697874462,-1.7465856654955116,573.75
460,-1.171670012620548,-2.0899136690581233,-2.0120280764463594,0.9702240406922846,1.1875626808689672,-1.7772572963557653,575.0
461,-1.1716700201422252,-2.08991366142016,-2.012028077031151,0.9702240335787822,1.1875626883375334,-1.7979289272160166,576.25
462,-1.1718149292431013,-2.0901681511417416,-2.0115316772023215,0.9699820139511709,1.1877073256143478,-1.8090208425591614,577.5
463,-1.1733513909881246,-2.0928666044827504,-2.0062682362878994,0.9674158653500599,1.1892409054063016,-1.8121679763247849,578.75
464,-1.174383098658335,-2.09467857754479,-2.0027339154882746,0.965692734709403,1.190270676619218,-1.8058217628126845,580.0
465,-1.1743830930700414,-2.0946785809946187,-2.0027339166449076,0.9656927317201833,1.1902706680936348,-1.791442449736015,581.25
466,-1.1743830835954052,-2.094678586843609,-2.002733918605914,0.9656927266521305,1.1902706536389902,-1.7670631366593506,582.5
467,-1.1743830702344267,-2.094678595091761,-2.002733921371293,0.9656927195052442,1.1902706332552841,-1.732683823582684,583.75
468,-1.1743830529871055,-2.094678605739073,-2.002733924941045,0.9656927102795245,1.1902706069425169,-1.6883045105060084,585.0
469,-1.1743830323684192,-2.0946786183655464,-2.0027339297449145,0.9656926974520548,1.190270579030649,-1.6339252120001357,586.25
470,-1.1743830082788995,-2.094678633052302,-2.0027339356998963,0.9656926813169826,1.1902705486833545,-1.5695459218347176,587.5
471,-1.1743829784658806,-2.0946786509085467,-2.0027339378853184,0.9656926768569347,1.1902705153525246,-1.4951666384489732,588.75
472,-1.1743829415993612,-2.0946786725303954,-2.0027339331504566,0.9656926935896183,1.1902704801994386,-1.4107873647721485,590.0
473,-1.1743829003726782,-2.094678696785733,-2.002733927792586,0.9656927126079426,1.1902704409560796,-1.3164081000934074,591.25
474,-1.174382853475094,-2.0946787198827477,-2.0027339210838155,0.9656927293424598,1.190270395682103,-1.2120288423404473,592.5
475,-1.1743827983852095,-2.094678734548946,-2.002733911591917,0.9656927351331728,1.1902703406748132,-1.0976495931922081,593.75
476,-1.1743827384764156,-2.094678750498209,-2.0027339012691425,0.9656927414324222,1.1902702808373444,-0.973270353735438,595.0
477,-1.1743826733772842,-2.0946787513505685,-2.0027338880037244,0.9656927296947754,1.1902702156883416,-0.8388911198028707,596.25
478,-1.1743826033727538,-2.09467874959407,-2.0027338734066173,0.9656927140577553,1.1902701456095164,-0.6945118869193776,597.5
479,-1.1743825332035327,-2.09467872964171,-2.0027338564892356,0.9656926779447561,1.1902700752268467,-0.540132659657206,598.75
480,-1.174382460065285,-2.0946787036718253,-2.0027338382059567,0.9656926344913189,1.1902700018264045,-0.37577933249667533,600.0
481,-1.174382398583888,-2.0946786582010173,-2.002733819866186,0.965692571402768,1.1902699399399634,-0.2124178333793106,601.25
482,-1.1743823449520463,-2.09467861136874,-2.0027338029673616,0.9656925083165562,1.190269885898824,-0.05905633426199172,602.5
483,-1.17438230575305,-2.094678556496816,-2.002733788022336,0.9656924390142874,1.1902698462394747,0.08430516485531078,603.75
484,-1.174382273143475,-2.0946785031900776,-2.002733774627217,0.965692372756673,1.1902698131871232,0.21766666397257445,605.0
485,-1.1743822548425624,-2.094678446918583,-2.0027337637980778,0.9656923059606856,1.190269794431906,0.3410281630898026,606.25
486,-1.1743822380251696,-2.0946783952086054,-2.0027337538467687,0.9656922445793498,1.1902697771970354,0.45438966220702476,607.5
487,-1.174382234386402,-2.0946783449511908,-2.002733746784424,0.9656921874021875,1.1902697731628429,0.5577511613242266,608.75
488,-1.174382233335384,-2.0946782989617483,-2.002733740789803,0.9656921355253874,1.1902697717518311,0.6511126604414127,610.0
489,-1.1743822323969406,-2.094678257898261,-2.002733735437264,0.9656920892051373,1.1902697704919538,0.7344741595585993,611.25
490,-1.1743822384426146,-2.09467822193316,-2.0027337321596628,0.9656920499763303,1.190269776261683,0.8078356586757731,612.5
491,-1.1743822464736138,-2.094678190941006,-2.002733729914653,0.9656920167223901,1.1902697840571854,0.8711971577929412,613.75
492,-1.1743822532371244,-2.0946781648401758,-2.002733728023959,0.9656919887167371,1.1902697906223663,0.9245586569101422,615.0
493,-1.174382258733146,-2.0946781436306696,-2.0027337264875817,0.9656919659593717,1.1902697959572253,0.9679201560273694,616.25
494,-1.1743822629616791,-2.0946781273124855,-2.0027337253055224,0.9656919484502947,1.190269800061763,1.00128165514458,617.5
495,-1.174382265922723,-2.0946781158856234,-2.0027337244777814,0.9656919361895061,1.1902698029359788,1.0246431542617884,618.75
496,-1.1743849636167907,-2.0946829206085895,-2.002724332115316,0.9656873465942628,1.190272495335949,1.0380128943056448,620.0
497,-1.1755708202736088,-2.096799188440258,-1.998593237944141,0.9636716615616064,1.1914560451799958,1.043591557375533,621.25
498,-1.1769907018450443,-2.0993331019624364,-1.9936468819331095,0.9612581885673394,1.1928731644805268,1.0394741824197007,622.5
499,-1.1770573044475432,-2.0994519674760337,-1.9934148588539302,0.9611449760201538,1.192939636837092,1.0276000263080987,623.75
500,-1.1770573015591563,-2.0994519750146154,-1.9934148622397339,0.9611449746223332,1.1929396327008894,1.0059340234905756,625.0
501,-1.1770572973376265,-2.0994519860326486,-1.9934148671882634,0.9611449725793448,1.1929396266556118,0.9742680206730481,626.25
502,-1.1770572917829543,-2.0994520005301345,-1.9934148736995203,0.9611449698911889,1.192939618701259,0.9326020178555094,627.5
503,-1.1770572845953882,-2.0994520186245316,-1.993414881635241,0.9611449669109069,1.1929396063031115,0.8809360210177986,628.75
504,-1.177057275444355,-2.0994520404453767,-1.9934148908429479,0.9611449640278404,1.1929395866658257,0.8192700346539155,630.0
505,-1.1770572664436754,-2.099452067224999,-1.9934149006395263,0.9611449669536949,1.1929395670924405,0.7476040505976576,631.25
506,-1.1770572671505748,-2.0994521072686103,-1.9934149057368686,0.961145012392058,1.1929395665787992,0.6659380807601925,632.5
507,-1.1770572679501063,-2.099452152257876,-1.9934149114213944,0.9611450635751284,1.1929395660538282,0.5742721164446835,633.75
508,-1.1770572688452055,-2.09945220221325,-1.9934149176752238,0.9611451205902964,1.1929395655424546,0.4726061593109294,635.0
509,-1.1770572852838472,-2.0994522527956767,-1.9934149274143154,0.9611451807195943,1.19293958241605,0.360940213879999,636.25
510,-1.1770573032258949,-2.099452307898198,-1.9934149380325796,0.9611452462233574,1.1929396008483382,0.23927427563430134,637.5
511,-1.1770573324844524,-2.0994523617440812,-1.993414950833247,0.9611453124921066,1.1929396305765405,0.10760834373812629,638.75
512,-1.177057370979157,-2.099452415556324,-1.9934149655392153,0.9611453805030228,1.1929396695296002,-0.0340575854598779,640.0
513,-1.1770574210831946,-2.09945246415594,-1.9934149819770783,0.961145444926448,1.1929397200587326,-0.18572351078381516,641.25
514,-1.1770574815485393,-2.0994525088077607,-1.9934150000493913,0.961145506940017,1.1929397809252476,-0.34738942965682307,642.5
515,-1.1770575527384748,-2.099452538336659,-1.9934150184225026,0.9611455540535284,1.192939852406164,-0.5129794950522816,643.75
516,-1.1770576223488605,-2.0994525617736306,-1.9934150357026146,0.9611455940109553,1.1929399222582913,-0.6690558622760435,645.0
517,-1.1770576927033405,-2.0994525636502352,-1.9934150504181083,0.9611456098806849,1.1929399926853688,-0.8151322294997637,646.25
518,-1.1770577582727357,-2.0994525652781495,-1.9934150641174717,0.961145624534978,1.1929400583214707,-0.9512085967234601,647.5
519,-1.1770578186363023,-2.0994525498501733,-1.9934150745955261,0.9611456190007444,1.1929401186131734,-1.0772849639471425,648.75
520,-1.177057874199178,-2.09945253508454,-1.9934150841690825,0.9611456132720018,1.1929401741054553,-1.1933613311707698,650.0
521,-1.1770579225311146,-2.099452514084909,-1.9934150914686986,0.9611455991221434,1.19294022231177,-1.2994376983944085,651.25
522,-1.177057964488952,-2.099452489482622,-1.993415097002401,0.9611455796763082,1.1929402641103808,-1.3955140656180316,652.5
523,-1.1770580020796573,-2.099452467441038,-1.993415101960128,0.9611455622544682,1.1929403015584321,-1.4815904328416436,653.75
524,-1.1770580329151392,-2.0994524446217726,-1.9934151054296056,0.9611455426372996,1.1929403322395857,-1.5576668000652474,655.0
525,-1.1770580566611062,-2.099452420557508,-1.9934151072831299,0.9611455202341679,1.1929403558155958,-1.6237431672888607,656.25
526,-1.1770580768133576,-2.0994524001351302,-1.9934151088561405,0.9611455012215266,1.1929403758236117,-1.6798195345124771,657.5
527,-1.177058093371894,-2.0994523833546412,-1.993415110148636,0.9611454855993748,1.1929403922636337,-1.725895901736128,658.75
528,-1.177058106336715,-2.099452370216038,-1.9934151111606198,0.9611454733677142,1.1929404051356611,-1.761972268959769,660.0
529,-1.17705811570782,-2.099452360719322,-1.993415111892092,0.9611454645265449,1.1929404144396942,-1.7880486361834005,661.25
530,-1.1770581214852094,-2.099452354864491,-1.9934151123430528,0.9611454590758667,1.192940420175733,-1.8041250034070362,662.5
531,-1.1777882323996134,-2.100776261145617,-1.990828774436949,0.9598825214423141,1.193669058702471,-1.811767268393182,663.75
532,-1.1793728638473098,-2.1036496831382685,-1.9852153677947755,0.9571414375136857,1.1952504940828121,-1.8103456131891287,665.0
533,-1.179696009599591,-2.104235654192439,-1.9840706424580037,0.9565824541830324,1.1955729861417568,-1.8005698203594136,666.25
534,-1.1796960023287086,-2.1042356586780815,-1.9840706439714144,0.9565824503187881,1.1955729749690478,-1.7816405434315346,667.5
535,-1.1796959912167488,-2.1042356655334085,-1.9840706462843327,0.9565824444131321,1.1955729578939958,-1.752711266503653,668.75
536,-1.1796959762637111,-2.1042356747584203,-1.984070649396759,0.9565824364660644,1.1955729349166004,-1.7137819895757622,670.0
537,-1.1796959575369588,-2.1042356862967653,-1.9840706533666985,0.9565824262721453,1.19557290660942,-1.6648527147739718,671.25
538,-1.1796959357337258,-2.1042356995651783,-1.984070658794538,0.9565824117049682,1.1955728788987048,-1.605923461101796,672.5
539,-1.179695910230593,-2.1042357150851747,-1.9840706651434543,0.9565823946658139,1.1955728464856197,-1.5369942074296388,673.75
540,-1.1796958767936836,-2.1042357347471388,-1.9840706622562077,0.9565824055668355,1.19557281341205,-1.4580649679914497,675.0
541,-1.1796958384168827,-2.104235757230614,-1.984070657296908,0.9565824229828512,1.1955727768388142,-1.3691357328164726,676.25
542,-1.179695795735685,-2.1042357823274935,-1.984070651704942,0.9565824427208816,1.195572736247217,-1.2702065083631666,677.5
543,-1.1796957452001977,-2.1042357997983014,-1.9840706434875939,0.9565824524701914,1.195572686381979,-1.1612772924313453,678.75
544,-1.1796956886231822,-2.1042358148508553,-1.9840706336999963,0.9565824583723492,1.19557262988305,-1.0423480842245632,680.0
545,-1.1796956271542887,-2.1042358253312465,-1.9840706223310294,0.9565824581573035,1.195572568442495,-0.9134188833268622,681.25
546,-1.1796955606225186,-2.104235823697335,-1.984070608402344,0.9565824432789143,1.1955725018389267,-0.774489686862671,682.5
547,-1.1796954908865434,-2.104235815845586,-1.9840705930266038,0.956582420780785,1.1955724319800032,-0.6255604925479612,683.75
548,-1.17969542044125,-2.104235792172374,-1.9840705755037056,0.9565823803543162,1.19557236128825,-0.46663130497586225,685.0
549,-1.1796953527197493,-2.1042357568601937,-1.9840705570707038,0.9565823273750129,1.195572293230163,-0.3002623432972726,686.25
550,-1.179695293689769,-2.104235713333701,-1.9840705393915135,0.9565822668633065,1.1955722338055939,-0.14145288728085198,687.5
551,-1.1796952491711141,-2.104235661619751,-1.9840705236698817,0.9565821999901021,1.1955721888394182,0.007356568735536181,688.75
552,-1.179695211686526,-2.104235609288404,-1.9840705093209339,0.9565821338014748,1.1955721509082553,0.14616602475189264,690.0
553,-1.1796951877982913,-2.1042355543432896,-1.984070497445682,0.9565820673390326,1.195572126563997,0.2749754807682313,691.25
554,-1.1796951703919483,-2.104235500952683,-1.9840704871038901,0.9565820038950152,1.1955721087193578,0.39378493678455595,692.5
555,-1.1796951585424396,-2.104235450968844,-1.984070478339004,0.956581945370769,1.195572096463216,0.5025943928008354,693.75
556,-1.17969515744564,-2.1042354030114114,-1.984070472048113,0.9565818912327004,1.195572094984807,0.6014038488171207,695.0
557,-1.1796951564598421,-2.104235359907509,-1.984070466393885,0.9565818425736667,1.1955720936560206,0.6902133048334028,696.25
558,-1.1796951570907916,-2.104235321694119,-1.9840704616915616,0.956581799730405,1.195572093984148,0.7690227608496817,697.5
559,-1.1796951657061037,-2.1042352885276436,-1.9840704592742373,0.956581764126927,1.1955721023433385,0.837832216865953,698.75
560,-1.1796951730693623,-2.1042352601812144,-1.98407045720822,0.956581733697662,1.1955721094876972,0.896641672882236,700.0
561,-1.1796951791805677,-2.104235236654833,-1.9840704554935065,0.9565817084426085,1.1955721154172247,0.9454511288985403,701.25
562,-1.1796951840397192,-2.104235217948498,-1.9840704541301002,0.9565816883617682,1.1955721201319205,0.984260584914854,702.5
563,-1.1796951876468174,-2.1042352040622085,-1.9840704531180018,0.9565816734551412,1.1955721236317844,1.0130700409311508,703.75
564,-1.179695190001862,-2.104235194995965,-1.984070452457211,0.9565816637227275,1.1955721259168168,1.0318794969474523,705.0
565,-1.1800274604833199,-2.104847367849465,-1.982873627170877,0.9559967911932062,1.1959037019594467,1.0415660703711296,706.25
566,-1.1815927835129234,-2.107731339752239,-1.9772353764373467,0.9532414751206905,1.1974657536044107,1.0428797347114933,707.5
567,-1.182296585705803,-2.1090280392318155,-1.9747002974408578,0.9520026250711497,1.1981680844632931,1.0351592599067898,708.75
568,-1.1822965835685775,-2.1090280447802843,-1.9747002999545753,0.9520026240387709,1.198168081340183,1.0189857451310402,710.0
569,-1.182296580109917,-2.1090280537593413,-1.9747003040225115,0.9520026223680778,1.19816807628607,0.9928122303552938,711.25
570,-1.182296575329821,-2.1090280661689884,-1.9747003096446658,0.9520026200590701,1.1981680693009547,0.9566387155795503,712.5
571,-1.1822965692282899,-2.109028082009224,-1.9747003168210389,0.9520026171117482,1.1981680603848364,0.9104652008037885,713.75
572,-1.1822965611198897,-2.109028101560284,-1.974700325222503,0.952002614383022,1.1981680436784672,0.8542916997538345,715.0
573,-1.1822965513989951,-2.1090281246609313,-1.9747003350384271,0.9520026113798546,1.1981680225530567,0.7881182018289216,716.25
574,-1.1822965473595688,-2.1090281574213767,-1.9747003423605385,0.9520026352555206,1.1981680126344292,0.7119447136361454,717.5
575,-1.1822965480969265,-2.1090281990611284,-1.9747003476920328,0.9520026825518665,1.198168012100783,0.6257712321879695,718.75
576,-1.1822965489325972,-2.10902824561989,-1.9747003535653955,0.9520027357088777,1.1981680116147237,0.5295977620351342,720.0
577,-1.1822965565549,-2.109028295173232,-1.9747003612898257,0.9520027933615265,1.1981680186498076,0.4234242986268011,721.25
578,-1.1822965734738253,-2.1090283470132185,-1.9747003713442257,0.9520028550563115,1.1981680360289872,0.30725084347377524,722.5
579,-1.1822965925460958,-2.1090284029058157,-1.9747003823586644,0.9520029217302941,1.1981680556104257,0.1810773965463133,723.75
580,-1.1822966290927601,-2.109028453859318,-1.9747003963783012,0.9520029862225736,1.198168092598653,0.044903955729586664,725.0
581,-1.182296668566773,-2.109028508308111,-1.974700411446702,0.9520030552209101,1.1981681325444542,-0.10126948472234991,726.25
582,-1.1822967262600914,-2.1090285507855744,-1.974700428761838,0.9520031143346849,1.1981681906261397,-0.2574429181042796,727.5
583,-1.182296790198374,-2.1090285910400097,-1.974700447085821,0.9520031721748226,1.1981682549402446,-0.4230858260643323,728.75
584,-1.182296861373121,-2.1090286149130018,-1.9747004648272974,0.9520032130104369,1.1981683263658798,-0.5846526485975483,730.0
585,-1.1822969304860491,-2.1090286282972737,-1.974700480811841,0.9520032416430245,1.198168395644025,-0.7362194711307126,731.25
586,-1.1822969978646383,-2.109028629933587,-1.9747004949473883,0.9520032567205026,1.1981684630923568,-0.8777862936638545,732.5
587,-1.182297060315247,-2.109028624090832,-1.9747005071153763,0.9520032624172106,1.1981685255487116,-1.0093531161969584,733.75
588,-1.1822971177933834,-2.109028608824655,-1.974700517059926,0.9520032565373572,1.198168582952999,-1.1309199387300528,735.0
589,-1.1822971704925207,-2.1090285946583576,-1.9747005261561377,0.9520032509558047,1.1981686355830719,-1.2424867612631159,736.25
590,-1.1822972143052541,-2.1090285690084802,-1.9747005319584878,0.9520032307114691,1.1981686792273667,-1.3440535837961645,737.5
591,-1.182297253804303,-2.1090285458840228,-1.97470053718955,0.952003212460335,1.198168718574561,-1.4356204063292117,738.75
592,-1.1822972889896675,-2.1090285252849856,-1.9747005418493258,0.9520031962024036,1.198168753624655,-1.5171872288622477,740.0
593,-1.1822973151331908,-2.1090285006192784,-1.9747005441241052,0.9520031735938651,1.198168779592762,-1.588754051395289,741.25
594,-1.1822973369881191,-2.109028478513971,-1.9747005458372262,0.9520031530228079,1.198168801289159,-1.6503208739283335,742.5
595,-1.182297355293258,-2.1090284599991227,-1.9747005472720907,0.9520031357930064,1.198168819461516,-1.7018876964613916,743.75
596,-1.1822973700486072,-2.1090284450747325,-1.9747005484287001,0.9520031219044615,1.198168834109833,-1.7434545189944735,745.0
597,-1.1822973812541664,-2.1090284337407996,-1.9747005493070569,0.9520031113571737,1.1981688452341095,-1.7750213415275382,746.25
598,-1.1822973889099353,-2.109028425997324,-1.9747005499071602,0.9520031041511434,1.1981688528343453,-1.7965881640606074,747.5
599,-1.1823663770420643,-2.10915755523082,-1.9744479041496077,0.9518795439864047,1.198237691585189,-1.808379890937811,748.75
600,-1.183733825063207,-2.1117173249621124,-1.969439782161234,0.9494303272989474,1.1996021790514313,-1.8124349711095136,750.0
601,-1.184861008869966,-2.1138273451584815,-1.9653115885625874,0.9474114384743826,1.2007269213157568,-1.8068071099726413,751.25
602,-1.1848631321032466,-2.1138313323766402,-1.9653037948833845,0.947407623778925,1.200729037153615,-1.793404496367439,752.5
603,-1.1848631232206073,-2.11383133785347,-1.965303796742609,0.9474076190898073,1.2007290234051118,-1.7700095284638897,753.75
604,-1.1848631105411518,-2.1138313456713287,-1.965303799396545,0.947407612396362,1.2007290037799159,-1.7366145605603314,755.0
605,-1.1848630940648803,-2.113831355830216,-1.965303802845192,0.947407603698589,1.2007289782780275,-1.6932195926567708,756.25
606,-1.1848630742037451,-2.1138313679765828,-1.9653038074546973,0.947407591700983,1.2007289504386747,-1.6398246372634924,757.5
607,-1.1848630510081744,-2.1138313820671493,-1.965303813269883,0.9474075762449543,1.200728920695108,-1.5764296925996306,758.75
608,-1.1848630227115162,-2.113831399022209,-1.9653038164982082,0.9474075687485161,1.20072888775719,-1.5030347530596297,760.0
609,-1.1848629871572516,-2.1138314198014965,-1.9653038118998722,0.9474075847593748,1.2007288538640533,-1.4196398247500395,761.25
610,-1.1848629473474346,-2.1138314431312826,-1.9653038066977686,0.947407602941777,1.2007288159742247,-1.3262449042575297,762.5
611,-1.1848629024742028,-2.1138314666894833,-1.9653038004310015,0.9474076205179466,1.2007287728942073,-1.222849990832183,763.75
612,-1.184862849188542,-2.113831480859579,-1.9653037911736968,0.947407626032732,1.200728719691309,-1.1094550870818267,765.0
613,-1.1848627912015917,-2.113831496280087,-1.9653037810990528,0.9474076320361282,1.2007286617779136,-0.9860601922506615,766.25
614,-1.184862728194047,-2.113831498905027,-1.9653037683728987,0.9474076226002917,1.2007285987346044,-0.8526653032460717,767.5
615,-1.1848626603613943,-2.113831497276588,-1.965303754111475,0.9474076074106099,1.2007285308275208,-0.7092704159581606,768.75
616,-1.1848625918199402,-2.1138314800897327,-1.9653037377227192,0.9474075745741651,1.200728462088145,-0.555875533664169,770.0
617,-1.1848625202795444,-2.1138314561395775,-1.9653037198516632,0.9474075335368046,1.2007283902937305,-0.3924806575882754,771.25
618,-1.1848624593837163,-2.1138314127707893,-1.9653037017141917,0.9474074727445801,1.2007283289962432,-0.22816138889001816,772.5
619,-1.1848624052337788,-2.1138313685655548,-1.9653036848679142,0.9474074123394709,1.2007282744436323,-0.07381970917930303,773.75
620,-1.1848623667326903,-2.1138313149563777,-1.9653036700668816,0.9474073444339117,1.2007282354773094,0.07052197053137203,775.0
621,-1.1848623331147723,-2.1138312637649848,-1.9653036565853468,0.9474072802105301,1.200728201417815,0.2048636502420225,776.25
622,-1.1848623151221715,-2.113831208707123,-1.9653036458490583,0.9474072147131686,1.2007281829657284,0.32920532995265744,777.5
623,-1.1848622985766002,-2.113831158077215,-1.965303635976212,0.9474071544833353,1.2007281659976243,0.4435470096632662,778.75
624,-1.1848622935876678,-2.1138311091907545,-1.9653036287197159,0.9474070984909682,1.2007281606100526,0.5478886893738506,780.0
625,-1.18486229255491,-2.1138310640659665,-1.965303622761728,0.9474070475104752,1.2007281592123664,0.6422303690844291,781.25
626,-1.1848622916316218,-2.1138310237243045,-1.9653036174352678,0.9474070019337949,1.2007281579628315,0.7265720487950043,782.5
627,-1.1848622966084632,-2.1138309883047968,-1.9653036139578084,0.947406963057623,1.2007281626581534,0.8009137285055773,783.75
628,-1.1848623045672562,-2.1138309577373793,-1.9653036117158122,0.9474069302284961,1.2007281703771078,0.865255408216155,785.0
629,-1.1848623112890915,-2.113830931920758,-1.9653036098222658,0.9474069025016797,1.2007281768963802,0.9195970879267549,786.25
630,-1.1848623167739694,-2.113830910854934,-1.9653036082771693,0.9474068798771738,1.200728182215971,0.963938767637363,787.5
631,-1.1848623210218896,-2.1138308945399045,-1.9653036070805252,0.9474068623549792,1.20072818633588,0.9982804473479685,788.75
632,-1.1848623240328522,-2.1138308829756705,-1.9653036062323335,0.947406849935096,1.2007281892561072,1.0226221270585714,790.0
633,-1.1848623258068571,-2.113830876162232,-1.9653036057325943,0.9474068426175244,1.2007281909766525,1.0369638067691718,791.25
634,-1.185822548209411,-2.115657086641693,-1.9617280867383486,0.9456569557871272,1.2016862604730054,1.0433139531632296,792.5
635,-1.1872541267503123,-2.1183797599829046,-1.9563974038586844,0.9430480822222619,1.2031146291039863,1.0401852608744062,793.75
636,-1.1873930353869404,-2.118643952173464,-1.9558801545486981,0.9427949353058481,1.2032532255850419,1.0291488101590152,795.0
637,-1.1873930326886746,-2.118643959141671,-1.9558801577334877,0.9427949340057427,1.2032532215620206,1.0085506701603915,796.25
638,-1.1873930286804522,-2.1186439694928074,-1.9558801624644309,0.9427949320744609,1.2032532155859004,0.9779525301617709,797.5
639,-1.1873930233622736,-2.118643983226874,-1.955880168741528,0.9427949295120032,1.2032532076566806,0.9373543901631317,798.75
640,-1.1873930165332163,-2.1186440004295353,-1.9558801764643297,0.9427949265845049,1.2032531960382826,0.8867562542517002,800.0
641,-1.1873930077200947,-2.1186440213025373,-1.9558801853962726,0.9427949239187319,1.203253176642134,0.8261581301415653,801.25
642,-1.1873929978082263,-2.1186440459246603,-1.9558801956033474,0.9427949221660253,1.203253154770727,0.7555600065796665,802.5
643,-1.187392998490078,-2.1186440843119954,-1.955880200547929,0.9427949658124475,1.2032531542794385,0.6749618988842794,803.75
644,-1.1873929992611245,-2.1186441274928267,-1.9558802060785783,0.9427950150058153,1.2032531537671396,0.5843637953973135,805.0
645,-1.1873930001272306,-2.1186441755063146,-1.9558802121603063,0.9427950699140979,1.2032531532848028,0.4837657005048287,806.25
646,-1.1873930144820366,-2.118644224571646,-1.9558802213645277,0.9427951281104643,1.203253167876442,0.3731676160892743,807.5
647,-1.1873930318312638,-2.1186442776014474,-1.9558802317207415,0.9427951912895889,1.2032531857118078,0.2525695390792119,808.75
648,-1.1873930584644856,-2.1186443304302505,-1.9558802439889549,0.9427952560464935,1.203253212824076,0.12197146882018318,810.0
649,-1.1873930957388108,-2.118644382262882,-1.9558802583506674,0.942795321750324,1.203253250554941,-0.01862659802581325,811.25
650,-1.1873931426806283,-2.1186444306983274,-1.9558802742861152,0.9427953855385522,1.2032532979325627,-0.16922466165665073,812.5
651,-1.18739320128695,-2.1186444737205443,-1.9558802919523741,0.942795445536432,1.203253356939069,-0.32982271873875885,813.75
652,-1.187393269713648,-2.118644504569202,-1.95588031010335,0.9427954937689095,1.203253425675452,-0.4958928949314941,815.0
653,-1.1873933380974253,-2.118644527419052,-1.9558803272238023,0.9427955329886559,1.2032534943038629,-0.6530330472225796,816.25
654,-1.1873934066804255,-2.1186445313554283,-1.9558803419700446,0.9427955509567703,1.2032535629778585,-0.8001731995138205,817.5
655,-1.1873934711599974,-2.118644532884982,-1.9558803555566708,0.9427955654055723,1.2032536275253236,-0.9373133518052112,818.75
656,-1.1873935306013423,-2.11864451960772,-1.9558803662058548,0.9427955621918571,1.2032536869098136,-1.064453504096721,820.0
657,-1.1873935853149142,-2.1186445050814253,-1.9558803757136332,0.9427955566389273,1.203253741552307,-1.1815936563883693,821.25
658,-1.1873936334172022,-2.118644485864208,-1.9558803832492486,0.9427955445004771,1.2032537895396815,-1.2887338086801146,822.5
659,-1.187393674812783,-2.1186444616644167,-1.9558803887556369,0.9427955254293604,1.2032538307740601,-1.3858739609719595,823.75
660,-1.1873937119469375,-2.118644439955852,-1.9558803936951688,0.9427955083214983,1.2032538677636069,-1.4730141132638834,825.0
661,-1.187393743067134,-2.1186444183014626,-1.9558803973926284,0.9427954900875882,1.2032538987344648,-1.5501542655558869,826.25
662,-1.187393766612119,-2.1186443945301874,-1.9558803992464886,0.9427954679755001,1.2032539221063816,-1.6172944178479254,827.5
663,-1.187393786650263,-2.118644374299458,-1.9558804008242308,0.9427954491568341,1.2032539419972346,-1.6744345701400165,828.75
664,-1.1873938031815665,-2.1186443576092744,-1.955880402125851,0.9427954336315887,1.203253958407024,-1.721574722432135,830.0
665,-1.1873938162060287,-2.1186443444596366,-1.9558804031513546,0.9427954213997661,1.2032539713357495,-1.758714874724265,831.25
666,-1.1873938257236496,-2.118644334850544,-1.9558804039007405,0.9427954124613664,1.2032539807834108,-1.7858550270163849,832.5
667,-1.187393831734429,-2.1186443287819956,-1.9558804043740095,0.9427954068163894,1.2032539867500078,-1.8029951793084813,833.75
668,-1.1879278937724174,-2.1196762485626275,-1.9538585812687006,0.9418051975845289,1.2037868091586723,-1.8114503592468074,835.0
669,-1.1894459020920494,-2.122609383776696,-1.94811175470406,0.9389906360685317,1.2053012937186616,-1.81113513603092,836.25
670,-1.1898903092033535,-2.123468087244169,-1.9464293208484642,0.9381666466156502,1.2057446674322345,-1.8022115249309152,837.5
671,-1.1898903025299041,-2.1234680913566364,-1.9464293222530822,0.9381666431170306,1.2057446570275985,-1.7844324520785002,838.75
672,-1.1898902921029129,-2.123468097782198,-1.9464293244477395,0.9381666376505804,1.2057446407707813,-1.756653379226076,840.0
673,-1.18989027792238,-2.123468106520854,-1.9464293274324371,0.9381666302163002,1.2057446186617826,-1.7188743063736354,841.25
674,-1.1898902599883052,-2.1234681175726045,-1.9464293312071743,0.9381666208141898,1.2057445907006026,-1.6710952335211995,842.5
675,-1.1898902390613557,-2.123468130267562,-1.9464293364699947,0.9381666069779067,1.2057445634922352,-1.6133161829982399,843.75
676,-1.1898902145335404,-2.123468145141159,-1.9464293426629633,0.938166590678761,1.205744531757405,-1.5455371330028327,845.0
677,-1.1898901828734023,-2.1234681637690973,-1.946429341121982,0.9381665974002338,1.2057444992905386,-1.467758095240543,846.25
678,-1.1898901458994826,-2.1234681853484334,-1.9464293363177492,0.9381666140046795,1.2057444640527686,-1.3799790621212153,847.5
679,-1.1898901047260633,-2.1234682094793005,-1.946429330882359,0.9381666328999934,1.2057444249113027,-1.282200041291098,848.75
680,-1.18989005645272,-2.123468227818971,-1.9464293231887777,0.9381666439824331,1.205744377535643,-1.174421027636066,850.0
681,-1.1898900017738683,-2.123468242355167,-1.9464293136462714,0.9381666495979459,1.205744322937057,-1.056642021938138,851.25
682,-1.1898899423682585,-2.1234682545112338,-1.9464293028174189,0.9381666515896905,1.2057442635767237,-0.9288630239718478,852.5
683,-1.1898898779791391,-2.1234682530026046,-1.9464292892188715,0.9381666371505685,1.2057441991157956,-0.7910840312008386,853.75
684,-1.1898898098511206,-2.1234682478037175,-1.9464292743691574,0.9381666178153856,1.205744130882872,-0.643305039903549,855.0
685,-1.1898897416044265,-2.1234682250430668,-1.9464292572440813,0.9381665786797551,1.2057440623902533,-0.48552605545498045,856.25
686,-1.1898896742531506,-2.1234681931203494,-1.9464292391312674,0.938166529403444,1.205743994718737,-0.31927725529159035,857.5
687,-1.1898896162346038,-2.1234681505920854,-1.946429221602294,0.9381664700303469,1.2057439363011078,-0.1593217784853171,858.75
688,-1.189889570732729,-2.1234681017555728,-1.9464292058707597,0.9381664060297921,1.2057438903593276,-0.00936630167891302,860.0
689,-1.1898895338541453,-2.123468050538138,-1.9464291916293885,0.9381663410541884,1.2057438530288218,0.13058917512764232,861.25
690,-1.189889508521291,-2.1234679977746524,-1.9464291795935984,0.9381662766219769,1.2057438272414125,0.2605446519343574,862.5
691,-1.189889491374833,-2.1234679454276275,-1.9464291693155058,0.9381662142785533,1.2057438096509328,0.3805001287411738,863.75
692,-1.189889478065496,-2.1234678968053267,-1.946429160313592,0.9381661568889629,1.205743795931445,0.4904556055481153,865.0
693,-1.1898894769861859,-2.123467849679777,-1.9464291540496712,0.9381661036048298,1.2057437944648917,0.5904110823551365,866.25
694,-1.1898894760148548,-2.1234678072688835,-1.9464291484124163,0.9381660556514815,1.2057437931450592,0.6803665591622756,867.5
695,-1.1898894754823284,-2.1234677695803987,-1.9464291434716996,0.9381660131031089,1.205743792303124,0.7603220359694475,868.75
696,-1.1898894840322276,-2.123467736816878,-1.946429141053005,0.9381659778980885,1.2057438005918866,0.830277512776717,870.0
697,-1.1898894913599354,-2.123467708736839,-1.9464291389800579,0.9381659477255578,1.2057438076957867,0.8902329895839982,871.25
698,-1.189889497465452,-2.123467685340284,-1.9464291372528555,0.9381659225855151,1.2057438136148242,0.9401884663913359,872.5
699,-1.1898895023487768,-2.12346766662721,-1.946429135871401,0.9381659024779616,1.2057438183489992,0.9801439431986758,873.75
700,-1.18988950600991,-2.1234676525976184,-1.9464291348356948,0.9381658874028982,1.2057438218983116,1.0100994200060132,875.0
701,-1.1898895084488517,-2.1234676432515074,-1.9464291341457371,0.9381658773603246,1.2057438242627616,1.0300548968133265,876.25
702,-1.1900796047720108,-2.123840796864506,-1.9456975037571946,0.9378072972417643,1.205933463908442,1.0406042510018454,877.5
703,-1.1915076253918626,-2.1266440145753718,-1.9402013972748813,0.9351136319999143,1.2073580541682434,1.0431052366942644,878.75
704,-1.1923523356589643,-2.1283021937448585,-1.9369503084413116,0.9335202593882566,1.2082007348457902,1.0362820935465364,880.0
705,-1.192352333718392,-2.12830219873017,-1.9369503107403254,0.9335202584558149,1.2082007318940982,1.021339704012297,881.25
706,-1.192352330479117,-2.128302207051836,-1.936950314577924,0.9335202568993488,1.2082007269670245,0.9963973144780462,882.5
707,-1.1923523259411393,-2.128302218709856,-1.9369503199541083,0.933520254718858,1.2082007200645695,0.9614549249437844,883.75
708,-1.1923523201044586,-2.128302233704231,-1.9369503268688772,0.9335202519143428,1.2082007111867328,0.9165125354095183,885.0
709,-1.192352312417489,-2.1283022522800916,-1.936950335035087,0.9335202492585601,1.2082006955165374,0.8615701551130033,886.25
710,-1.192352303065581,-2.1283022743550664,-1.9369503445492278,0.9335202464918386,1.2082006746726424,0.7966277789324228,887.5
711,-1.1923522977761947,-2.128302304510454,-1.9369503524353677,0.9335202641376229,1.2082006619934607,0.7216854104005384,888.75
712,-1.192352298486777,-2.1283023443945224,-1.9369503576044598,0.9335203095331519,1.2082006614838827,0.6367430505597294,890.0
713,-1.1923522992920172,-2.1283023890459885,-1.9369503633170904,0.9335203605821667,1.2082006610110472,0.5418007005324859,891.25
714,-1.1923523049068165,-2.1283024371123664,-1.9369503705025481,0.9335204163437236,1.208200665847284,0.4368583573996519,892.5
715,-1.1923523212409142,-2.1283024869293103,-1.9369503802980337,0.9335204757663582,1.2082006826368157,0.3219160227603965,893.75
716,-1.192352338998107,-2.1283025410783947,-1.9369503909477324,0.9335205403515272,1.2082007009047386,0.19697369729824904,895.0
717,-1.1923523730987613,-2.1283025908276896,-1.9369504044611494,0.9335206031674985,1.208200735453134,0.06203137777944734,896.25
718,-1.192352411061358,-2.128302643482241,-1.9369504191560416,0.9335206700171492,1.2082007738870197,-0.08291094096720508,897.5
719,-1.1923524653363635,-2.1283026859689445,-1.9369504359475322,0.9335207286488927,1.2082008285610537,-0.23785325374310096,898.75
720,-1.1923525260167673,-2.128302727281405,-1.9369504539248308,0.933520787228517,1.2082008896360827,-0.40268016262703554,900.0
721,-1.1923525960091192,-2.1283027505796266,-1.9369504715291377,0.9335208273603393,1.208200959882504,-0.5654740017438976,901.25
722,-1.1923526633641774,-2.1283027660842055,-1.9369504875807955,0.9335208581886225,1.2082010274249204,-0.7182678408608427,902.5
723,-1.1923527296954668,-2.1283027676187753,-1.936950501622343,0.9335208730750797,1.2082010938272438,-0.8610616799779254,903.75
724,-1.1923527912653256,-2.128302763975564,-1.9369505140042869,0.9335208811837055,1.2082011554211682,-0.9938555190951543,905.0
725,-1.1923528479312187,-2.128302748934297,-1.9369505238970082,0.933520875478414,1.208201212012638,-1.1166493582125376,906.25
726,-1.192352899982396,-2.1283027351179533,-1.9369505329840853,0.933520870237742,1.2082012639954527,-1.2294431973300273,907.5
727,-1.192352943745546,-2.1283027113250856,-1.9369505390584414,0.9335208521133987,1.2082013076005182,-1.332237036447603,908.75
728,-1.1923529828148005,-2.128302688515693,-1.9369505442795851,0.933520834165956,1.208201346515685,-1.4250308755652852,910.0
729,-1.1923530176737276,-2.1283026681643737,-1.9369505489380643,0.9335208181526315,1.2082013812371297,-1.507824714683036,911.25
730,-1.192353044325218,-2.128302644727019,-1.9369505514867078,0.933520797034512,1.2082014077184204,-1.580618553800862,912.5
731,-1.1923530660822879,-2.128302622798881,-1.936950553207897,0.9335207766458249,1.2082014293134544,-1.6434123929187345,913.75
732,-1.1923530843745167,-2.1283026043628275,-1.9369505546549823,0.9335207595040612,1.2082014474694516,-1.6962062320366331,915.0
733,-1.1923530992019042,-2.128302589418859,-1.936950555827965,0.9335207456092214,1.2082014621864121,-1.7390000711545568,916.25
734,-1.1923531105644503,-2.1283025779669744,-1.9369505567268468,0.9335207349613069,1.2082014734643354,-1.7717939102724851,917.5
735,-1.1923531184621545,-2.1283025700071745,-1.936950557351628,0.9335207275603177,1.2082014813032216,-1.7945877493903821,918.75
736,-1.1923665020743643,-2.1283292467658117,-1.9368982095520495,0.9334950495946577,1.2082148316313794,-1.8074305032068279,920.0
737,-1.1935157021748182,-2.1306210206898735,-1.932401784186835,0.931289806534945,1.2093611756434268,-1.8126130208918876,921.25
738,-1.1947458218747125,-2.133074177413718,-1.9275887342853029,0.928929277802724,1.2105882371819798,-1.8080564174523353,922.5
739,-1.1947830553915946,-2.1331484417694306,-1.927443035305506,0.9288578178950951,1.210625375564576,-1.7958384220474277,923.75
740,-1.194783047195712,-2.13314844681737,-1.9274430370402993,0.928857813628187,1.2106253626921109,-1.773754459893314,925.0
741,-1.1947830352885918,-2.133148454151103,-1.9274430395606363,0.9288578074291488,1.2106253439907706,-1.7416704977391693,926.25
742,-1.194783019670234,-2.133148463770631,-1.9274430428665177,0.928857799297981,1.2106253194605556,-1.6995865355850297,927.5
743,-1.1947830006347608,-2.133148475410113,-1.9274430472366912,0.9288577882516051,1.210625291682404,-1.6475025822844895,928.75
744,-1.194782978411486,-2.133148488862285,-1.9274430528884847,0.9288577735235543,1.2106252626685685,-1.5854186418578862,930.0
745,-1.19478295181025,-2.1331485048352516,-1.9274430574596648,0.9288577622227491,1.2106252299495595,-1.5133347043861713,931.25
746,-1.1947829176452003,-2.1331485247416544,-1.927443053005791,0.9288577774907771,1.2106251973885445,-1.4312507801264118,932.5
747,-1.1947828793241118,-2.133148547117568,-1.9274430479689402,0.9288577948093535,1.2106251609153027,-1.3391668620546684,933.75
748,-1.1947828366630475,-2.1331485714453446,-1.9274430422283455,0.9288578136040492,1.2106251202721565,-1.2370829512508852,935.0
749,-1.194782785250314,-2.1331485851111607,-1.9274430332132548,0.9288578188416319,1.210625068941992,-1.1249990516476398,936.25
750,-1.1947827292488262,-2.1331485999969306,-1.9274430233929933,0.928857824548625,1.2106250130166445,-1.0029151597102781,937.5
751,-1.1947826684017864,-2.1331486048410357,-1.9274430112768912,0.9288578179334674,1.2106249521530132,-0.8708312740832521,938.75
752,-1.1947826027944124,-2.133148603343029,-1.9274429973552156,0.9288578031973181,1.2106248864712645,-0.7287473910386919,940.0
753,-1.1947825357865018,-2.133148589439883,-1.927442981539733,0.9288577742010486,1.2106248192865026,-0.5766635121756868,941.25
754,-1.1947824665163773,-2.1331485664262018,-1.9274429640752038,0.9288577344867445,1.210624749763126,-0.41457963965545985,942.5
755,-1.194782405200288,-2.133148526712994,-1.9274429461201126,0.9288576775327894,1.2106246880617797,-0.249248828485206,943.75
756,-1.1947823499530872,-2.1331484854078417,-1.9274429292294983,0.9288576199915543,1.210624632421459,-0.09360035801258855,945.0
757,-1.1947823120348522,-2.13314843288026,-1.927442914516851,0.9288575532481091,1.2106245940320692,0.05204811246016489,946.25
758,-1.1947822768551368,-2.133148383880317,-1.9274429008324416,0.9288574910251864,1.2106245584130118,0.18769658293305713,947.5
759,-1.1947822591114299,-2.133148329832756,-1.9274428901451977,0.9288574265808113,1.21062454020344,0.31334505340608554,948.75
760,-1.194782242779894,-2.1331482800866906,-1.9274428803085126,0.9288573672653763,1.2106245234431159,0.4289935238792216,950.0
761,-1.1947822360181375,-2.133148232476918,-1.9274428727499893,0.9288573122608916,1.2106245162788767,0.5346419943525038,951.25
762,-1.1947822349992205,-2.1331481880191863,-1.927442866799907,0.928857261951098,1.2106245148888346,0.6302904648258234,952.5
763,-1.1947822340868306,-2.1331481482094916,-1.927442861471898,0.9288572169011657,1.2106245136441214,0.7159389352992462,953.75
764,-1.194782237726502,-2.1331481131493497,-1.9274428577093046,0.9288571781096241,1.2106245169950713,0.791587405772738,955.0
765,-1.194782245655171,-2.1331480828327534,-1.9274428554563041,0.9288571455173855,1.2106245246783365,0.8572358762462766,956.25
766,-1.1947822523760938,-2.1331480571341777,-1.9274428535464945,0.9288571178898072,1.210624531191237,0.912884346719867,957.5
767,-1.1947822578892708,-2.1331480360536235,-1.9274428519798739,0.9288570952268884,1.210624536533773,0.9585328171934713,958.75
768,-1.1947822621947013,-2.133148019591089,-1.9274428507564454,0.9288570775286307,1.2106245407059442,0.9941812876670872,960.0
769,-1.1947822652923856,-2.1331480077465743,-1.9274428498762093,0.928857064795034,1.2106245437077507,1.0198297581406792,961.25
770,-1.1947822671823236,-2.1331480005200794,-1.9274428493391658,0.9288570570260987,1.2106245455391924,1.0354782286142685,962.5
771,-1.195494469490463,-2.134590851795794,-1.9246100941306346,0.9274668067212695,1.2113349171063077,1.0428269150680998,963.75
772,-1.1969179857083583,-2.1374747659100075,-1.9189481101334658,0.9246880432873971,1.212754774011405,1.041044573662826,965.0
773,-1.1971798621272467,-2.138005309386646,-1.9179065027167213,0.9241768465467873,1.21301597656348,1.0310397469576058,966.25
774,-1.1971798596538168,-2.1380053157077024,-1.9179065056586229,0.9241768453614431,1.2130159727258647,1.0118312193991885,967.5
775,-1.1971798558927143,-2.138005325319515,-1.917906510132085,0.9241768435590061,1.2130159668903786,0.982622691840753,968.75
776,-1.1971798508439386,-2.138005338222083,-1.9179065161371067,0.9241768411394762,1.2130159590570215,0.9434141642823061,970.0
777,-1.1971798444200499,-2.138005354455893,-1.9179065236262853,0.9241768382322118,1.2130159484540908,0.8942056377522403,971.25
778,-1.1971798359767365,-2.13800537431927,-1.9179065322503233,0.9241768357903988,1.2130159293952283,0.8349971188808186,972.5
779,-1.1971798261073927,-2.138005397537465,-1.9179065423309147,0.9241768329361767,1.213015907117427,0.765788600009457,973.75
780,-1.1971798255461832,-2.138005433181817,-1.9179065478014676,0.9241768701349852,1.2130159041019284,0.6865800956828734,975.0
781,-1.1971798262868716,-2.1380054745010812,-1.9179065531728299,0.9241769172681725,1.2130159035987764,0.5973715955173537,976.25
782,-1.1971798271226193,-2.1380055205292234,-1.9179065590759043,0.9241769700166342,1.2130159031461876,0.49816310580474105,977.5
783,-1.197179839019328,-2.1380055681442487,-1.9179065676625118,0.9241770262980383,1.2130159150343376,0.3889546249411018,978.75
784,-1.1971798557574387,-2.138005619075122,-1.9179065777501094,0.9241770871196645,1.2130159322527203,0.2697461517661878,980.0
785,-1.1971798793443496,-2.1380056710952298,-1.9179065894223788,0.9241771505154901,1.2130159563303313,0.1405376858473058,981.25
786,-1.197179915369975,-2.138005720937281,-1.917906603435623,0.9241772138968185,1.213015992809585,0.0013292242513022051,982.5
787,-1.1971799587394134,-2.138005769574244,-1.91790661883353,0.9241772773838465,1.213016036628125,-0.14787923497044103,983.75
788,-1.1971800154554046,-2.138005810966403,-1.9179066360930062,0.9241773353646012,1.2130160937424543,-0.30708768750969573,985.0
789,-1.1971800797082381,-2.138005843278706,-1.9179066537579126,0.9241773846103144,1.2130161583242416,-0.4708588093483032,986.25
