AdelaJim/TFM_AdelaJimenez/workspace/ros_ur_driver/src/trayectories/data/saved_trajectories/20250105_1717_trajectory.csv
,shoulder_pan_joint,shoulder_lift_joint,elbow_joint,wrist_1_joint,wrist_2_joint,wrist_3_joint,time_from_start
0,5.004206147917247,-2.5218761313728555,-1.3398898653264193,0.4906930362325633,-5.127206546982431,0.8544574412578472,0.0
1,5.004668306329853,-2.518963074380888,-1.3448898653264192,0.4942057005017795,-5.126665962759936,0.8556868970203941,1.25
2,5.006054781567667,-2.510223903404987,-1.3598898653264193,0.504743693309428,-5.125044210092451,0.8593752643080349,2.5
3,5.008365573630693,-2.495658618445151,-1.3848898653264192,0.522307014655509,-5.122341288979975,0.8655225431207696,3.75
4,5.011634844382179,-2.4752345123182593,-1.419889767576356,0.5469121515687594,-5.118581210616224,0.8741619713389661,5.0
5,5.016117020068793,-2.4487078783859464,-1.4648890755866908,0.5786820462630774,-5.113942762360095,0.8855411297889719,6.25
6,5.0220600243943245,-2.415841227508029,-1.519887550413417,0.6177336410321181,-5.108602184072806,0.8998978247069735,7.5
7,5.029829261129747,-2.376288885162728,-1.584884988097938,0.6641178586042161,-5.102902303642378,0.9174422676990686,8.75
8,5.039928181683532,-2.329575795060017,-1.6598811292920232,0.7178760324662786,-5.097326913977017,0.9384288449383236,10.0
9,5.051501338473862,-2.2813574885504413,-1.7351090790830774,0.7719010436800539,-5.093114816836657,0.9601837874552539,11.25
10,5.062928243096906,-2.2382434540535066,-1.800338314559089,0.8186727782517795,-5.090863478453032,0.9795164347387098,12.5
11,5.073779125417619,-2.2006459944056784,-1.8555633878601485,0.8581002934237731,-5.090173703738467,0.9961392078367232,13.75
12,5.083589810871132,-2.1690000874333055,-1.9007870602547299,0.8901960997605326,-5.090578749147118,1.0098766927844152,15.0
13,5.091902457763766,-2.143735245735429,-1.9360090081230243,0.9150076349795276,-5.091603049364644,1.0205988136336885,16.25
14,5.098247669585176,-2.1252835460595643,-1.9612302229156575,0.9326573861603569,-5.092751822330798,1.028278035175136,17.5
15,5.102567049186879,-2.113052570552632,-1.9777407516807648,0.9441621290523708,-5.0936789452566735,1.0321149353158123,18.75
16,5.106502228051029,-2.101947354195544,-1.9927071479742513,0.9545851009045876,-5.094540235034188,1.0268958665908734,20.0
17,5.109770632130637,-2.0927237358518544,-2.0051377831547765,0.9632422204464459,-5.095255530404946,1.011680307844423,21.25
18,5.111468216062991,-2.08793296123336,-2.0115943694609455,0.9677389833384239,-5.09562696106297,0.9871888128875738,22.5
19,5.111512819197967,-2.0878069109374096,-2.0117643875367284,0.9678577070870243,-5.095636562794341,0.9569566937351093,23.75
20,5.111512553704028,-2.087807422939727,-2.011763885116102,0.9678577806972266,-5.095636291516271,0.9168887314514682,25.0
21,5.111512220452131,-2.087808062274081,-2.011763257867051,0.9678578714882395,-5.0956359400048505,0.8668207805302798,26.25
22,5.111511819795062,-2.087808829046894,-2.011762505656699,0.9678579797406328,-5.095635511212663,0.8067528354248406,27.5
23,5.111511494650699,-2.0878094610591713,-2.0117618974598286,0.9678580792328665,-5.095635162018767,0.736684894548094,28.75
24,5.111511493152146,-2.0878095004568014,-2.011761903045081,0.9678581232361685,-5.095635155857182,0.6566169638271964,30.0
25,5.111511491483983,-2.0878095446277056,-2.01176190945519,0.9678581721090573,-5.095635149073444,0.5665490397021482,31.25
26,5.111511488864013,-2.0878095933795673,-2.0117619168026244,0.9678582258592988,-5.095635141206521,0.46648112147451637,32.5
27,5.111511472440837,-2.0878096438156124,-2.011761926709969,0.9678582857005578,-5.095635124443983,0.3564132035309321,33.75
28,5.111511454530697,-2.0878096988379475,-2.0117619375133082,0.9678583509930425,-5.095635106201411,0.23634529214117672,35.0
29,5.111511424977271,-2.0878097525299135,-2.0117619505006505,0.967858417165333,-5.0956350762618365,0.10627738400181035,36.25
30,5.111511386438546,-2.087809806439811,-2.011761965336202,0.9678584854096368,-5.095635037281772,-0.03379051886693506,37.5
31,5.1115113363313345,-2.0878098552568134,-2.0117619818926427,0.9678585501725314,-5.0956349867584105,-0.18385841504560038,38.75
32,5.111511275710213,-2.087809900050161,-2.0117620000910015,0.9678586124522379,-5.0956349257398745,-0.34392630437420657,40.0
33,5.111511203989906,-2.0878099303631084,-2.0117620187073095,0.9678586605868951,-5.0956348537259,-0.5092586429456935,41.25
34,5.111511133401295,-2.0878099541423794,-2.0117620362518958,0.9678587011414487,-5.095634782895387,-0.6655634666430392,42.5
35,5.111511062176453,-2.0878099565252106,-2.0117620511781156,0.9678587177201092,-5.095634711594427,-0.8118682903403829,43.75
36,5.111510995672047,-2.0878099581750083,-2.011762065041196,0.9678587325522248,-5.09563464502342,-0.9481731140377228,45.0
37,5.111510934430565,-2.0878099429313752,-2.0117620756535497,0.9678587273296101,-5.095634583850883,-1.0744779377350595,46.25
38,5.111510878059658,-2.087809927938857,-2.0117620852983924,0.9678587214396674,-5.095634527550907,-1.190782761432394,47.5
39,5.111510828913226,-2.0878099069296843,-2.0117620926872863,0.9678587073634564,-5.095634478528009,-1.2970875851297259,48.75
40,5.111510786328272,-2.087809881941026,-2.011762098218055,0.9678586875248952,-5.0956344361028245,-1.3933924088270557,50.0
41,5.111510748165209,-2.0878098595471166,-2.0117621031745196,0.9678586697463067,-5.0956343980829395,-1.4796972325243805,51.25
42,5.111510716716226,-2.087809836541741,-2.0117621066742517,0.9678586499691906,-5.095634366787316,-1.5560020562217076,52.5
43,5.111510692589739,-2.0878098120738717,-2.0117621084830275,0.9678586271162959,-5.0956343428314765,-1.6223068799190374,53.75
44,5.111510672101975,-2.0878097912962126,-2.0117621100190055,0.9678586077100422,-5.095634322488624,-1.6786117036163697,55.0
45,5.111510655252934,-2.0878097742087642,-2.0117621112821835,0.9678585917504281,-5.095634305758755,-1.724916527313703,56.25
46,5.111510642042615,-2.0878097608115245,-2.011762112272565,0.9678585792374557,-5.095634292641872,-1.7612213510110366,57.5
47,5.111510632471019,-2.0878097511044946,-2.0117621129901506,0.9678585701711251,-5.095634283137976,-1.7875261747083688,58.75
48,5.111510626538145,-2.0878097450876734,-2.01176211343494,0.9678585645514364,-5.095634277247066,-1.8038309984057004,60.0
49,5.110793262415476,-2.0890737683766063,-2.009304972601684,0.9666648862975844,-5.0949182623952955,-1.811635512612408,61.25
50,5.109155276132481,-2.091959982528437,-2.0036944601567344,0.9639393067324817,-5.093283357314977,-1.8104190374853746,62.5
51,5.108797540319772,-2.0925903396737806,-2.002469113881497,0.9633440329075006,-5.092926296287429,-1.8007835369023426,63.75
52,5.108797547595221,-2.09259034416272,-2.002469115404159,0.9633440290258486,-5.0929263073157625,-1.7820366941975931,65.0
53,5.108797558751563,-2.0925903510461645,-2.002469117739044,0.9633440230736335,-5.092926324226865,-1.753289851492842,66.25
54,5.108797573788798,-2.092590360324113,-2.0024691208861527,0.9633440150508554,-5.092926347020736,-1.714543008788092,67.5
55,5.108797592652486,-2.092590371952937,-2.002469124890128,0.9633440047998324,-5.0929263752396485,-1.6657961677518052,68.75
56,5.108797614603471,-2.0925903853402668,-2.002469130357122,0.9633439901796562,-5.092926402668855,-1.6070493479897219,70.0
57,5.108797640290996,-2.0925904010064147,-2.0024691367547183,0.9633439730708049,-5.092926434767114,-1.5383025282276344,71.25
58,5.1087976739677465,-2.0925904208442843,-2.0024691340984186,0.9633439835675035,-5.092926468156811,-1.4595557224475626,72.5
59,5.108797712741936,-2.0925904435812934,-2.0024691291616024,0.9633440012767872,-5.092926505119042,-1.3708089210002201,73.75
60,5.108797755874372,-2.0925904689686523,-2.0024691235917196,0.9633440213577171,-5.092926546154725,-1.272062130461542,75.0
61,5.108797806866664,-2.092590486894924,-2.002469115408558,0.9633440316030961,-5.092926596435039,-1.163315348229669,76.25
62,5.108797864062257,-2.0925905021227873,-2.002469105584481,0.9633440376482704,-5.092926653553283,-1.0445685737504729,77.5
63,5.108797926203134,-2.092590513063254,-2.002469094195993,0.9633440378795625,-5.0929267156639275,-0.9158218066229619,78.75
64,5.10879799347773,-2.092590511411375,-2.002469080145563,0.9633440228671215,-5.092926783010025,-0.7770750440130185,80.0
65,5.108798064098684,-2.0925905038526835,-2.002469064645666,0.963344000544478,-5.092926853750693,-0.628328283412351,81.25
66,5.108798135343031,-2.0925904798976394,-2.0024690469042605,0.9633439596252269,-5.092926925241002,-0.469581529588301,82.5
67,5.108798204129594,-2.092590444504472,-2.002469028194206,0.9633439062982587,-5.092926994361148,-0.3032126762313656,83.75
68,5.108798263968023,-2.092590400356532,-2.0024690101963225,0.9633438448558831,-5.092927054594466,-0.14421866278840567,85.0
69,5.108798309385614,-2.092590348188436,-2.0024689941309815,0.9633437771956121,-5.0929271004580015,0.004775350654551692,86.25
70,5.108798347390774,-2.092590295100391,-2.0024689794717156,0.9633437099477674,-5.092927138910253,0.1437693640975106,87.5
71,5.1087983719135766,-2.0925902395303706,-2.002468967265729,0.9633436425388735,-5.09292716388857,0.27276337754047253,88.75
72,5.108798389566593,-2.0925901853552284,-2.0024689566525455,0.963343578044629,-5.092927181980555,0.39175739098343454,90.0
73,5.1087984018536705,-2.092590134700702,-2.00246894759681,0.963343518566289,-5.0929271946746235,0.5007514044263981,91.25
74,5.10879840296789,-2.092590086023006,-2.002468941093977,0.9633434634995174,-5.092927196171205,0.5997454178693616,92.5
75,5.108798403969556,-2.0925900422625503,-2.002468935248029,0.96334341399538,-5.092927197516606,0.688739431312327,93.75
76,5.108798403519864,-2.092590003452209,-2.002468930338586,0.9633433703526412,-5.092927197370674,0.7677334447552941,95.0
77,5.108798394774656,-2.092589969760063,-2.002468927795076,0.9633433340986175,-5.092927188882333,0.8367274581982616,96.25
78,5.1087983872969795,-2.0925899409512607,-2.002468925620222,0.9633433030992562,-5.092927181624295,0.8957214716412293,97.5
79,5.108798381086834,-2.0925899170258035,-2.002468923814021,0.9633432773545554,-5.0929271755965555,0.9447154850841937,98.75
80,5.10879837614422,-2.0925898979836894,-2.0024689223764778,0.9633432568645172,-5.092927170799118,0.9837094985271584,100.0
81,5.108798372469138,-2.0925898838249184,-2.0024689213075915,0.9633432416291414,-5.092927167231982,1.0127035119701233,101.25
82,5.108798370061588,-2.09258987454949,-2.002468920607363,0.9633432316484284,-5.092927164895146,1.0316975254130896,102.5
83,5.108477758843966,-2.0931638775543955,-2.001352171064282,0.96280024467842,-5.09260717905215,1.0415196354102139,103.75
84,5.106871981329912,-2.0960387989076494,-1.9957589248593328,0.960080715287163,-5.091004533588992,1.04299522516325,105.0
85,5.106123320499452,-2.0973791770040506,-1.9931511859063669,0.9588127886924447,-5.090257333405152,1.035388964504656,106.25
86,5.106123322629019,-2.097379182574886,-1.993151188426953,0.9588127876916391,-5.090257336398063,1.019354796889671,107.5
87,5.10612332608673,-2.097379191620074,-1.9931511925195493,0.9588127860666631,-5.09025734125756,0.9933206292746877,108.75
88,5.1061233308725855,-2.0973792041396155,-1.993151198184155,0.9588127838175167,-5.090257347983641,0.9572864616597064,110.0
89,5.106123336986584,-2.097379220133509,-1.9931512054207705,0.9588127809441997,-5.090257356576306,0.9112522940447246,111.25
90,5.1061233451143595,-2.0973792398615894,-1.9931512139216498,0.9588127782163243,-5.09025737283325,0.8552181397068526,112.5
91,5.106123354877946,-2.0973792631806196,-1.9931512238564428,0.95881277520963,-5.090257393558409,0.7891839886828865,113.75
92,5.106123359100529,-2.0973792961437505,-1.9931512314153146,0.9588127987637514,-5.090257403625886,0.7131498471859,115.0
93,5.106123358355529,-2.0973793382516392,-1.9931512369152529,0.9588128466717695,-5.090257404162681,0.6271157126890838,116.25
94,5.106123357511805,-2.097379385340713,-1.9931512429786928,0.9588129005192036,-5.090257404658837,0.5310815892573022,117.5
95,5.1061233500129815,-2.0973794355274635,-1.9931512508755906,0.9588129589761991,-5.090257397784934,0.4250474725781805,118.75
96,5.106123332902729,-2.097379487979671,-1.9931512611638886,0.958813021513444,-5.0902573802161335,0.3090133641793491,120.0
97,5.106123313841361,-2.0973795446718797,-1.993151272402972,0.9588130892109451,-5.090257360645463,0.18297926403714057,121.25
98,5.1061232768766125,-2.0973795962360624,-1.993151286689499,0.9588131545744932,-5.090257323239647,0.046945170068249685,122.5
99,5.106123237165172,-2.0973796515608316,-1.9931513020285947,0.9588132247144183,-5.090257283055305,-0.09908892366632283,123.75
100,5.106123178805488,-2.0973796945529455,-1.993151319616445,0.9588132846078613,-5.090257224307755,-0.25512301029944195,125.0
101,5.106123114268233,-2.0973797356047,-1.9931513382267456,0.958813343524316,-5.090257159392863,-0.420689268604169,126.25
102,5.106123042144999,-2.0973797598095736,-1.9931513562225158,0.9588133849370339,-5.090257087018739,-0.582397505692781,127.5
103,5.10612297218329,-2.097379773672838,-1.9931513724356589,0.9588134142691868,-5.090257016889634,-0.7341057427813806,128.75
104,5.106122903899074,-2.0973797753319348,-1.9931513867251374,0.9588134295161153,-5.090256948535829,-0.8758139798699729,130.0
105,5.106122840598697,-2.097379769660935,-1.9931513990396088,0.9588134355241885,-5.090256885227898,-1.0075222169585556,131.25
106,5.106122782339003,-2.0973797541777945,-1.9931514090464542,0.9588134294845022,-5.090256827042344,-1.1292304540471356,132.5
107,5.106122728866137,-2.0973797399668093,-1.993151418231093,0.9588134239410552,-5.0902567736375275,-1.2409386911357083,133.75
108,5.106122684436956,-2.097379713980355,-1.9931514240291577,0.9588134033525977,-5.090256729376911,-1.3426469282242768,135.0
109,5.106122644386005,-2.097379690518453,-1.9931514292511656,0.9588133847521364,-5.0902566894782,-1.4343551653128408,136.25
110,5.106122608702266,-2.097379669614873,-1.9931514339037555,0.9588133681798953,-5.090256653930102,-1.5160634024014032,137.5
111,5.106122582101353,-2.09737964469147,-1.993151436164441,0.9588133452971808,-5.090256627504099,-1.587771639489966,138.75
112,5.106122559924719,-2.097379622246781,-1.9931514378336561,0.9588133243417755,-5.090256605486451,-1.649479876578528,140.0
113,5.106122541341873,-2.09737960343932,-1.993151439232368,0.9588133067822535,-5.090256587036828,-1.7011881136670959,141.25
114,5.106122526352815,-2.097379588269087,-1.9931514403605775,0.9588132926186158,-5.09025657215523,-1.7428963507556685,142.5
115,5.106122514957546,-2.097379576736081,-1.9931514412182867,0.958813281850863,-5.090256560841654,-1.774604587844239,143.75
116,5.106122507156065,-2.0973795688403025,-1.9931514418054954,0.9588132744789953,-5.090256553096103,-1.7963128249328082,145.0
117,5.106059717043017,-2.097493776486787,-1.9929290564219186,0.9587050515878341,-5.090193889959739,-1.80822025436524,146.25
118,5.104665675491199,-2.1000296347594714,-1.9879914047975777,0.9563022564173663,-5.088802667020062,-1.8123871413266441,147.5
119,5.103488059157504,-2.1021718093031643,-1.9838203128846863,0.9542724898946523,-5.087627432822535,-1.8068518460720129,148.75
120,5.103484608913051,-2.1021780979826956,-1.9838080752043532,0.9542665314814875,-5.087623992254906,-1.7935418240552892,150.0
121,5.103484617849781,-2.1021781034926814,-1.983808077085416,0.9542665267434725,-5.087624005901094,-1.7702437473367405,151.25
122,5.103484630622335,-2.1021781113676625,-1.9838080797738682,0.9542665199718063,-5.0876240254045,-1.7369456706181916,152.5
123,5.103484647230711,-2.10217812160764,-1.9838080832697103,0.9542665111664896,-5.087624050765121,-1.6936475938996423,153.75
124,5.1034846672619265,-2.1021781338729606,-1.9838080879225533,0.954266499093059,-5.087624078472797,-1.6403495294788033,155.0
125,5.103484690649335,-2.102178148108814,-1.9838080937888167,0.9542664835523003,-5.087624107961071,-1.5770514760379082,156.25
126,5.1034847191648725,-2.102178165229521,-1.9838080971732037,0.954266475739945,-5.087624140853041,-1.503753427580434,157.5
127,5.103484755114444,-2.1021781862580005,-1.9838080925919506,0.9542664920391399,-5.087624175129783,-1.4204553905687733,158.75
128,5.103484795372399,-2.1021782098697104,-1.9838080874090864,0.9542665105457566,-5.087624213458323,-1.3271573612138283,160.0
129,5.10348484070937,-2.1021782338486292,-1.9838080811800316,0.9542665286038672,-5.08762425697298,-1.2238593389158412,161.25
130,5.103484894607435,-2.1021782481888276,-1.9838080718852875,0.954266534255655,-5.087624310789194,-1.1105613264103726,162.5
131,5.103484953264879,-2.1021782637954622,-1.9838080617692606,0.9542665404083026,-5.087624369373989,-0.9872633227102678,163.75
132,5.103485017001031,-2.1021782666287105,-1.9838080489645438,0.9542665311081465,-5.087624433144583,-0.8539653248462395,165.0
133,5.103485085626034,-2.1021782649793606,-1.9838080345745983,0.9542665157749901,-5.087624501843752,-0.7106673287272337,166.25
134,5.103485155024438,-2.102178247783153,-1.9838080180083049,0.9542664827588383,-5.087624571438204,-0.5573693375385991,167.5
135,5.103485227407219,-2.1021782235368867,-1.9838079999110225,0.9542664412069432,-5.08762464407463,-0.3940713525920466,168.75
136,5.103485289208402,-2.102178179788594,-1.9838079814700147,0.9542663797413726,-5.08762470627598,-0.2296632998835765,170.0
137,5.103485344214688,-2.1021781351345146,-1.9838079643151536,0.954266318588423,-5.087624761683966,-0.07522260227194642,171.25
138,5.10348538322033,-2.1021780807948223,-1.9838079492093066,0.9542662496549639,-5.087624801155073,0.06921809533967216,172.5
139,5.103485417438405,-2.1021780289955707,-1.9838079354219527,0.9542661845261294,-5.087624835814372,0.2036587929512805,173.75
140,5.1034854356698025,-2.1021779731816084,-1.9838079244162934,0.9542661180087806,-5.087624854505604,0.3280994905628829,175.0
141,5.103485452436133,-2.1021779218528374,-1.9838079142950344,0.9542660568367338,-5.087624871694817,0.4425401881744824,176.25
142,5.103485457633707,-2.1021778723249653,-1.9838079067971748,0.9542659999667222,-5.087624877291251,0.5469808857860754,177.5
143,5.103485458681831,-2.1021778265691085,-1.983807900645744,0.9542659481648352,-5.087624878704717,0.6414215833976624,178.75
144,5.103485459618973,-2.102177785658184,-1.9838078951456621,0.9542659018480695,-5.087624879968516,0.7258622810092479,180.0
145,5.103485454674079,-2.1021777497309087,-1.9838078915070791,0.9542658623058722,-5.0876248753056625,0.8003029786208331,181.25
146,5.103485446605498,-2.1021777187209794,-1.9838078891515907,0.9542658289219362,-5.0876248674773406,0.864743676232423,182.5
147,5.1034854397890115,-2.102177692523216,-1.983807887161629,0.9542658007185667,-5.087624860863829,0.9191843738440142,183.75
148,5.103485434224619,-2.1021776711376186,-1.983807885537193,0.954265777695763,-5.087624855465127,0.9636250714556116,185.0
149,5.10348542991232,-2.102177654564186,-1.9838078842782858,0.9542657598535269,-5.087624851281236,0.9980657690672046,186.25
150,5.1034854268521155,-2.1021776428029195,-1.9838078833849075,0.9542657471918584,-5.087624848312155,1.0225064666788006,187.5
151,5.1034854250440045,-2.102177635853817,-1.9838078828570584,0.9542657397107575,-5.087624846557883,1.0369471642903942,188.75
152,5.102511348913496,-2.1039778990644247,-1.9802997038681025,0.9525571539736105,-5.086652811297475,1.04335802493425,190.0
153,5.101032719139214,-2.1067106744366035,-1.9749743472550925,0.9499635539406023,-5.08517727967927,1.0403062652396355,191.25
154,5.100884021574559,-2.1069855007062563,-1.9744388023888009,0.9497027269068813,-5.085028894292948,1.0293115088874423,192.5
155,5.10088402427924,-2.1069855077431217,-1.9744388056007875,0.9497027256371433,-5.085028898174446,1.008768592187176,193.75
156,5.100884028300522,-2.1069855182054327,-1.9744388103763233,0.9497027237493149,-5.085028903945403,0.978225675486911,195.0
157,5.100884033638403,-2.10698553209319,-1.9744388167154083,0.9497027212433958,-5.085028911605818,0.9376827587866398,196.25
158,5.100884040492911,-2.1069855494856125,-1.974438824524491,0.9497027183584598,-5.0850289228655505,0.887139846357686,197.5
159,5.100884049355102,-2.106985570577182,-1.9744388335739065,0.9497027156814192,-5.085028941922216,0.8265969466410499,198.75
160,5.100884059390433,-2.1069855954037564,-1.9744388439565133,0.9497027136755923,-5.0850289635475825,0.7560540473791131,200.0
161,5.100884058700999,-2.1069856342511546,-1.974438849060309,0.9497027579186512,-5.085028964042516,0.675511164140137,201.25
162,5.100884057921592,-2.10698567795237,-1.9744388547707696,0.9497028077858604,-5.0850289645613085,0.5849682850182437,202.5
163,5.100884057046379,-2.1069857265482375,-1.974438861051879,0.949702863451964,-5.085028965053834,0.4844254145265187,203.75
164,5.100884042604075,-2.1069857762406174,-1.9744388704643794,0.9497029224835376,-5.085028950388549,0.37388255444644974,205.0
165,5.100884025047884,-2.106985829926411,-1.9744388810654594,0.9497029865598073,-5.085028932347408,0.2533397017713589,206.25
166,5.100883998187481,-2.1069858834640094,-1.974438893583084,0.9497030522712206,-5.085028905008018,0.12279685584569364,207.5
167,5.100883960467799,-2.1069859359417586,-1.974438908222056,0.949703118890922,-5.0850288668320225,-0.017745986661715934,208.75
168,5.100883913050399,-2.1069859850685315,-1.974438924432616,0.9497031836390971,-5.085028818978435,-0.16828882600434042,210.0
169,5.100883853742211,-2.1069860286291986,-1.9744389423803663,0.9497032444490103,-5.085028759270363,-0.328831658779321,211.25
170,5.100883784530227,-2.1069860599940835,-1.9744389607915032,0.949703293449942,-5.085028689748002,-0.4949220116582004,212.5
171,5.100883715279335,-2.1069860831474823,-1.9744389781421001,0.9497033331953393,-5.085028620252602,-0.6521194646866373,213.75
172,5.100883645855621,-2.1069860872533024,-1.9744389930497868,0.949703351487552,-5.085028550737185,-0.7993169177151174,215.0
173,5.100883580555623,-2.106986088805136,-1.9744390067713393,0.9497033660872287,-5.085028485369482,-0.9365143707436384,216.25
174,5.100883520354166,-2.106986075453584,-1.9744390174978983,0.9497033628714592,-5.0850284252243085,-1.0637118237721854,217.5
175,5.1008834649409955,-2.106986060735564,-1.9744390270552705,0.9497033571720079,-5.085028369882446,-1.1809092768007523,218.75
176,5.100883416197046,-2.106986041338233,-1.9744390346229292,0.9497033448816155,-5.0850283212530245,-1.2881067298293534,220.0
177,5.10088337426837,-2.1069860168150116,-1.9744390401125256,0.9497033254677709,-5.085028279485803,-1.3853041828579782,221.25
178,5.100883336653455,-2.106985994814825,-1.9744390450373275,0.9497033080512847,-5.085028242015731,-1.4725016358866314,222.5
179,5.100883305096219,-2.1069859729114038,-1.9744390487205508,0.949703289551989,-5.085028210607686,-1.5496990889152864,223.75
180,5.100883281242066,-2.106985948815543,-1.974439050523638,0.9497032670637138,-5.085028186926845,-1.6168965419439512,225.0
181,5.100883260937772,-2.1069859283055115,-1.974439052058398,0.9497032479220349,-5.085028166770072,-1.6740939949726286,226.25
182,5.100883244183337,-2.106985911381311,-1.974439053324828,0.9497032321269498,-5.085028150137366,-1.7212914480013146,227.5
183,5.100883230978763,-2.1069858980429403,-1.9744390543229322,0.949703219678462,-5.085028137028729,-1.7584889010300089,228.75
184,5.100883221324047,-2.1069858882903985,-1.9744390550527102,0.9497032105765709,-5.0850281274441596,-1.7856863540586971,230.0
185,5.100883215219193,-2.1069858821236855,-1.9744390555141627,0.9497032048212767,-5.08502812138366,-1.8028838070873823,231.25
186,5.100340401621013,-2.1080051144707794,-1.9724512994325751,0.9487343242632786,-5.084486485885927,-1.81137401769444,232.5
187,5.098777997096,-2.1109388414998924,-1.9667298199152377,0.9459455440547987,-5.082927472585463,-1.8110943742246457,233.75
188,5.09831746256823,-2.111803595568444,-1.9650433444395943,0.9451235153503951,-5.082467939396426,-1.8021875492067099,235.0
189,5.098317469304249,-2.1118035997188964,-1.9650433458654473,0.94512351180268,-5.082467949758138,-1.7844225916211844,236.25
190,5.098317479832015,-2.1118036062056635,-1.9650433480939218,0.9451235062579352,-5.082467965952521,-1.756657634035657,237.5
191,5.098317494151525,-2.1118036150287445,-1.9650433511250172,0.9451234987161603,-5.082467987979573,-1.718892676450127,238.75
192,5.09831751226278,-2.11180362618814,-1.9650433549587338,0.9451234891773558,-5.082468015839294,-1.6711277188645952,240.0
193,5.098317533389544,-2.1118036390285826,-1.9650433602736066,0.9451234752473798,-5.08246804286287,-1.613362783967115,241.25
194,5.098317558150684,-2.111803654072494,-1.9650433665286653,0.9451234588349936,-5.082468074367106,-1.5455978496437988,242.5
195,5.098317590166243,-2.1118036729290997,-1.9650433650330141,0.9451234656819401,-5.082468107067708,-1.467832927592208,243.75
196,5.098317627584073,-2.111803694783426,-1.9650433602437052,0.9451234825985185,-5.082468142735728,-1.380068010209831,245.0
197,5.098317669253094,-2.1118037192225954,-1.9650433548245125,0.9451235018477218,-5.082468182362096,-1.2823031050865612,246.25
198,5.098317718102263,-2.111803737814744,-1.9650433471181608,0.9451235131843385,-5.0824682303062,-1.1745382071213926,247.5
199,5.098317773443223,-2.1118037525314737,-1.9650433375335616,0.9451235189429483,-5.08246828556778,-1.0567733171110212,248.75
200,5.098317833568209,-2.1118037648654826,-1.96504332664784,0.9451235210608508,-5.082468345648069,-0.9290084348191906,250.0
201,5.098317898738591,-2.11180376333469,-1.965043312923923,0.9451235064800065,-5.082468410890052,-0.7912435577036987,251.25
202,5.098317967701969,-2.1118037580980555,-1.9650432979291936,0.9451234869684616,-5.082468479957864,-0.6434786820241976,252.5
203,5.098318036778307,-2.111803735046593,-1.965043280584973,0.9451234473304183,-5.082468549279888,-0.4857138132081702,253.75
204,5.0983181049714315,-2.1118037027456067,-1.9650432622163718,0.9451233974282636,-5.082468617792805,-0.31946727260850183,255.0
205,5.098318163707255,-2.111803659669095,-1.965043244403427,0.9451233372309424,-5.08246867692758,-0.15949554362481683,256.25
206,5.098318209795293,-2.1118036102267297,-1.9650432283839847,0.9451232723440635,-5.082468723455283,-0.009523814641110864,257.5
207,5.0983182471311235,-2.1118035583498753,-1.9650432138629292,0.9451232064359656,-5.082468761242995,0.1304479143426082,258.75
208,5.098318272802576,-2.111803504921055,-1.9650432015598178,0.9451231410769637,-5.082468787368915,0.26041964332633083,260.0
209,5.098318290162883,-2.111803451900033,-1.9650431910346635,0.9451230778173563,-5.0824688051732805,0.3803913723100658,261.25
210,5.098318303659399,-2.1118034026567263,-1.9650431818045424,0.9451230195830457,-5.082468819079967,0.49036310129380506,262.5
211,5.0983183047536125,-2.11180335492381,-1.965043175345333,0.945122965499329,-5.082468820561514,0.5903348302775571,263.75
212,5.098318305738374,-2.111803311965538,-1.9650431695322221,0.9451229168255109,-5.082468821894864,0.6803065592613131,265.0
213,5.09831830629278,-2.1118032737894477,-1.9650431644327913,0.9451228736333924,-5.08246882275878,0.76027828824507,266.25
214,5.098318297637308,-2.111803240601799,-1.9650431618958901,0.9451228378873118,-5.082468814364554,0.830250017228829,267.5
215,5.09831829021883,-2.1118032121571586,-1.9650431597215499,0.9451228072498773,-5.082468807169988,0.890221746212582,268.75
216,5.098318284037348,-2.111803188455528,-1.9650431579097676,0.9451227817210877,-5.082468801175081,0.9401934751963299,270.0
217,5.098318279092862,-2.1118031694969055,-1.965043156460546,0.9451227613009441,-5.082468796379834,0.9801652041800744,271.25
218,5.098318275385372,-2.111803155281291,-1.965043155373886,0.9451227459894471,-5.082468792784246,1.0101369331638197,272.5
219,5.098318272914877,-2.1118031458086843,-1.9650431546497877,0.9451227357865967,-5.082468790388319,1.030108662147566,273.75
220,5.0981235678103545,-2.1121745637487384,-1.9643182279621092,0.9447691049038817,-5.082274522905966,1.0406683662412808,275.0
221,5.0966541169729,-2.1149777315090996,-1.9588471310280104,0.9421002538167631,-5.08080837458172,1.0431644277177918,276.25
222,5.095787553972339,-2.116630817726142,-1.9556207186054053,0.9405263802612127,-5.07994375953493,1.0363343654740604,277.5
223,5.095787555926163,-2.1166308227821853,-1.9556207209338237,0.9405263793456298,-5.079943762397621,1.0213656942100615,278.75
224,5.095787559185266,-2.116630831215979,-1.9556207248177697,0.9405263778183807,-5.079943767172766,0.9963970229460584,280.0
225,5.095787563749643,-2.1166308430275227,-1.9556207302572433,0.9405263756794653,-5.079943773860366,0.9614283516820581,281.25
226,5.095787569619297,-2.116630858216817,-1.9556207372522445,0.9405263729288839,-5.07994378246042,0.916459680418061,282.5
227,5.095787577358417,-2.116630877017232,-1.9556207455277974,0.9405263702830996,-5.079943797847784,0.8614910202829934,283.75
228,5.09578758677444,-2.1166308993491176,-1.9556207551777534,0.9405263674975788,-5.079943818358637,0.7965223650479033,285.0
229,5.095787592070644,-2.1166309298987604,-1.95562076320171,0.9405263855175763,-5.079943830784263,0.7215537175355115,286.25
230,5.095787591351561,-2.116630970293188,-1.9556207685407223,0.9405264315702171,-5.0799438312983325,0.6365850787160688,287.5
231,5.09578759053714,-2.1166310155149928,-1.9556207744426888,0.9405264833572436,-5.079943831779797,0.5416164496998596,288.75
232,5.095787584817364,-2.116631064186464,-1.9556207818458669,0.9405265399221069,-5.079943826848283,0.4366478275638015,290.0
233,5.095787568279176,-2.11663111464504,-1.9556207918762452,0.9405266002176159,-5.0799438098554415,0.3216792139170713,291.25
234,5.095787550300425,-2.1166311694906152,-1.9556208027810171,0.9405266657505941,-5.079943791366692,0.1967106094055882,292.5
235,5.095787515736844,-2.116631219856935,-1.9556208165675009,0.9405267294500215,-5.079943756355674,0.06174201082726488,293.75
236,5.095787477303478,-2.1166312731884256,-1.9556208315491963,0.9405267972567155,-5.0799437174509885,-0.08322658702694165,295.0
237,5.09578742231926,-2.1166313161842236,-1.955620848619199,0.9405268566681926,-5.079943662068114,-0.23819517888838593,296.25
238,5.09578736086153,-2.116631357975994,-1.9556208668779655,0.9405269160003475,-5.0799436002162865,-0.4030428818510921,297.5
239,5.095787290026937,-2.116631381569432,-1.9556208847032246,0.940526956640787,-5.079943529127888,-0.565812533169757,298.75
240,5.095787221848862,-2.116631397220374,-1.9556209009354157,0.9405269877890967,-5.079943460763111,-0.7185821844884346,300.0
241,5.095787154721437,-2.1166313987783916,-1.9556209151028794,0.9405270028190384,-5.07994339356489,-0.8613518358071307,301.25
242,5.09578709241458,-2.116631395048856,-1.9556209275749246,0.9405270109264059,-5.079943331234553,-0.9941214871258315,302.5
243,5.095787035070662,-2.116631379824393,-1.9556209375087767,0.9405270050750483,-5.079943273965245,-1.1168911384445361,303.75
244,5.095786982397595,-2.116631365840017,-1.9556209466334757,0.9405269997002995,-5.079943221360712,-1.2296607897632568,305.0
245,5.095786938124171,-2.116631341720873,-1.9556209526832882,0.9405269812229957,-5.079943177245789,-1.3324304410819803,306.25
246,5.095786898590353,-2.116631318632079,-1.955620957882176,0.9405269629719245,-5.079943137866166,-1.4252000924007073,307.5
247,5.095786863318038,-2.116631298032117,-1.9556209625206518,0.9405269466882055,-5.079943102731425,-1.5079697437194373,308.75
248,5.095786836366876,-2.1166312742876006,-1.955620965016288,0.9405269252092686,-5.079943075950693,-1.5807393950381727,310.0
249,5.095786814354133,-2.116631252092588,-1.955620966687657,0.940526904503378,-5.079943054100011,-1.643509046356907,311.25
250,5.095786795848299,-2.1166312334335227,-1.955620968092754,0.9405268870961966,-5.07994303573042,-1.6962786976756326,312.5
251,5.095786780849373,-2.1166312183104043,-1.9556209692315796,0.9405268729877247,-5.079943020841917,-1.7390483489943511,313.75
252,5.095786769357356,-2.116631206723232,-1.9556209701041356,0.9405268621779639,-5.079943009434506,-1.7718180003130737,315.0
253,5.095786761372247,-2.116631198672006,-1.9556209707104222,0.9405268546669139,-5.079943001508184,-1.79458765163179,316.25
254,5.095772336158999,-2.116659141335057,-1.9555663834325832,0.9405002013976684,-5.079928609877897,-1.8074082803784528,317.5
255,5.094585227056248,-2.118959740822371,-1.9510727539945758,0.938306462065027,-5.078744262598686,-1.8125533420594875,318.75
256,5.093325747533563,-2.1214006031287926,-1.9463051632733974,0.9359789786944382,-5.077487714216575,-1.8079557294936457,320.0
257,5.093290276581589,-2.121469357206246,-1.9461708764806132,0.9359134185604844,-5.077452328327874,-1.7956816779106095,321.25
258,5.09329028488489,-2.1214693623192966,-1.9461708782481404,0.9359134142169419,-5.077452341195343,-1.7735315303541208,322.5
259,5.0932902969368365,-2.1214693697407068,-1.9461708808136433,0.9359134079124449,-5.077452359872015,-1.74138138279763,323.75
260,5.093290312737427,-2.121469379470476,-1.9461708841771213,0.9359133996469937,-5.077452384357888,-1.6992312352411478,325.0
261,5.093290331981143,-2.1214693912438394,-1.9461708886144147,0.9359133884484461,-5.0774524120001345,-1.6470810971617498,326.25
262,5.093290354442359,-2.121469404865268,-1.9461708943292306,0.9359133735988776,-5.077452440839649,-1.58493097249496,327.5
263,5.093290381366908,-2.1214694210533427,-1.9461708988905928,0.9359133624417653,-5.077452473432274,-1.5127808509046634,328.75
264,5.093290415971271,-2.1214694412280615,-1.9461708944477731,0.9359133780098735,-5.077452506418056,-1.4306307425069262,330.0
265,5.093290454781928,-2.121469463904289,-1.9461708894231107,0.9359133956687109,-5.077452543366317,-1.3384806403549423,331.25
266,5.093290498015166,-2.1214694884713365,-1.946170883676836,0.9359134147283786,-5.0774525845832255,-1.2363305454367781,332.5
267,5.093290550080949,-2.1214695023123364,-1.9461708746188475,0.9359134201029797,-5.077452636567203,-1.124180461647107,333.75
268,5.093290606791058,-2.1214695173881553,-1.9461708647523734,0.9359134259587559,-5.077452693202217,-1.0020303855719563,335.0
269,5.093290668408343,-2.1214695221767927,-1.9461708525245238,0.9359134191815388,-5.077452754837303,-0.86988031576299,336.25
270,5.093290734841222,-2.1214695206538856,-1.9461708384716736,0.9359134042953992,-5.077452821344379,-0.727730248465122,337.5
271,5.093290802656439,-2.121469506434324,-1.946170822461669,0.935913374795098,-5.077452889337322,-0.5755801853821451,338.75
272,5.093290872794794,-2.121469483117067,-1.9461708047713322,0.9359133345591801,-5.077452959728804,-0.413430128647423,340.0
273,5.093290934763752,-2.1214694427800427,-1.94617078654729,0.9359132767195395,-5.0774530220837475,-0.2481405647145299,341.25
274,5.093290990560587,-2.12146940087157,-1.946170769403695,0.9359132183282627,-5.077453078274097,-0.09255612596535986,342.5
275,5.093291028922796,-2.1214693477060984,-1.9461707544159321,0.9359131506781072,-5.07745311710715,0.053028312783817505,343.75
276,5.093291064410179,-2.1214692980525602,-1.9461707404892528,0.9359130875642148,-5.077453153033977,0.1886127515330095,345.0
277,5.093291082361308,-2.1214692433542326,-1.9461707295561668,0.9359130222279268,-5.077453171450701,0.3141971902822028,346.25
278,5.09329109888303,-2.1214691930114116,-1.9461707194936493,0.9359129620942142,-5.077453188400943,0.42978162903141065,347.5
279,5.093291105631469,-2.121469144809201,-1.946170711750459,0.9359129063151089,-5.077453195551744,0.5353660677806263,348.75
280,5.093291106663426,-2.1214690998244827,-1.9461707056222108,0.9359128553028956,-5.077453196954598,0.6309505065298412,350.0
281,5.093291107587422,-2.121469059546049,-1.946170700135092,0.9359128096275544,-5.077453198210685,0.7165349452790634,351.25
282,5.093291103841509,-2.1214690240784875,-1.9461706962541265,0.9359127703113247,-5.07745319475321,0.7921193840282907,352.5
283,5.093291095825597,-2.1214689934126296,-1.9461706938947194,0.9359127372645951,-5.077453186982505,0.8577038227775186,353.75
284,5.093291089031914,-2.121468967422555,-1.946170691895062,0.9359127092566716,-5.077453180396641,0.9132882615267399,355.0
285,5.093291083460457,-2.1214689461082648,-1.9461706902551532,0.9359126862875535,-5.0774531749956155,0.9588727002759484,356.25
286,5.0932910791112285,-2.1214689294697564,-1.9461706889749966,0.9359126683572422,-5.077453170779431,0.9944571390251613,357.5
287,5.093291075984228,-2.12146891750703,-1.9461706880545913,0.9359126554657377,-5.077453167748085,1.0200415777743752,358.75
288,5.0932910740794535,-2.121468910220086,-1.9461706874939384,0.9359126476130399,-5.077453165901578,1.0356260165235902,360.0
289,5.09254774646181,-2.122932348803409,-1.9433100986863316,0.934515074996218,-5.076711627941111,1.0429157477586184,361.25
290,5.091086732132691,-2.125808756198015,-1.9376875895680683,0.9317681417763559,-5.075254131295839,1.041048850272175,362.5
291,5.090828242144007,-2.1263176703745406,-1.936692823678312,0.9312821376515273,-5.0749962642958275,1.0309695092168636,363.75
292,5.090828244643563,-2.126317676808306,-1.9366928266681114,0.931282136482694,-5.0749962680342255,1.0116555309201434,365.0
293,5.09082824843729,-2.1263176865732163,-1.9366928312059084,0.9312821347086859,-5.0749962737082175,0.9823415526234296,366.25
294,5.090828253525187,-2.126317699669271,-1.9366928372917032,0.931282132329503,-5.0749962813178,0.9430275743267151,367.5
295,5.090828260004174,-2.1263177161383178,-1.9366928448762657,0.9312821294756566,-5.074996291709378,0.8937135977724149,368.75
296,5.090828268516681,-2.1263177362577315,-1.9366928536332844,0.931282127012224,-5.074996310493219,0.8343996329886751,370.0
297,5.090828278464349,-2.1263177597691643,-1.9366928638666872,0.9312821241334707,-5.074996332443911,0.7650856682049351,371.25
298,5.090828278909032,-2.1263177959969357,-1.936692869432854,0.931282162351524,-5.074996335183904,0.6857717182138112,372.5
299,5.090828278158906,-2.1263178378745593,-1.9366928749833459,0.93128221020332,-5.074996335691953,0.5964577723483235,373.75
300,5.0908282773132525,-2.126317884518323,-1.9366928810855883,0.9312822637449188,-5.074996336155417,0.49714383676050505,375.0
301,5.090828265112998,-2.1263179327305313,-1.9366928899235702,0.9312823208558749,-5.074996323950534,0.3878299101453237,376.25
302,5.090828248156756,-2.1263179843421125,-1.9366929002560336,0.9312823825993667,-5.074996306514313,0.26851599119084824,377.5
303,5.090828224101676,-2.126318036959247,-1.9366929122120584,0.9312824468690233,-5.074996281969842,0.1392020794381778,378.75
304,5.090828187612855,-2.126318087462921,-1.9366929265018042,0.931282511182048,-5.074996245027115,-0.00011182808445759848,380.0
305,5.090828143533117,-2.1263181365875523,-1.936692942196463,0.9312825754452021,-5.074996200499243,-0.14942573318786956,381.25
306,5.09082808609452,-2.1263181785278373,-1.9366929597357359,0.9312826342460732,-5.07499614266222,-0.30873963160795403,382.5
307,5.0908280198395595,-2.126318211409271,-1.936692977923172,0.9312826845629552,-5.074996076076091,-0.4750878439909838,383.75
308,5.090827951725793,-2.1263182340103413,-1.9366929951432006,0.9312827236332787,-5.074996007714687,-0.6335101226132354,385.0
309,5.090827884048118,-2.126318240420909,-1.9366930101365616,0.9312827443231104,-5.0749959399239755,-0.7819324012354996,386.25
310,5.090827819746565,-2.1263182418761803,-1.9366930237705504,0.9312827587431046,-5.074995875553452,-0.9203546798577764,387.5
311,5.090827760374119,-2.126318230861804,-1.9366930347293974,0.9312827580941614,-5.07499581621977,-1.0487769584800684,388.75
312,5.090827705724703,-2.1263182163564176,-1.9366930442404453,0.93128275256229,-5.074995761642237,-1.167199237102376,390.0
313,5.090827657073477,-2.126318198865466,-1.9366930521037957,0.9312827424652468,-5.074995713092956,-1.2756215157246764,391.25
314,5.0908276156337555,-2.1263181746961766,-1.9366930575787435,0.9312827233894667,-5.074995671816921,-1.3740437943469872,392.5
315,5.090827578404432,-2.1263181529825634,-1.936693062497414,0.9312827062518401,-5.0749956347346545,-1.4624660729692975,393.75
316,5.09082754641998,-2.1263181322928073,-1.9366930664547066,0.9312826892290134,-5.074995602893414,-1.5408883515916125,395.0
317,5.090827522712303,-2.1263181084304454,-1.9366930682633081,0.9312826669769649,-5.074995579362572,-1.609310630213936,396.25
318,5.090827502469531,-2.1263180880555965,-1.9366930698075802,0.9312826479770807,-5.07499555927079,-1.6677329088362498,397.5
319,5.090827485691665,-2.1263180711682628,-1.9366930710875196,0.9312826322293585,-5.074995542618071,-1.716155187458552,398.75
320,5.090827472378705,-2.126318057768443,-1.93669307210313,0.9312826197338007,-5.074995529404411,-1.754577466080849,400.0
321,5.090827462530651,-2.126318047856135,-1.936693072854412,0.9312826104904076,-5.074995519629815,-1.7829997447031471,401.25
322,5.090827456147505,-2.1263180414313414,-1.9366930733413654,0.9312826044991793,-5.0749955132942794,-1.8014220233254568,402.5
323,5.090472176003107,-2.1270285924367407,-1.9353031345113214,0.9306030250689913,-5.07464111808184,-1.810838825893596,403.75
324,5.089005228680711,-2.129962488168388,-1.9295640419097186,0.9277970367554907,-5.07317782473881,-1.811825421116989,405.0
325,5.088397513205843,-2.1311779277197016,-1.9271864840097133,0.9266345867256836,-5.0725716245963115,-1.8038805335213557,406.25
326,5.088397519305284,-2.131177931473399,-1.9271864853155058,0.9266345835568428,-5.072571634119238,-1.7874244808149968,407.5
327,5.0883975291112264,-2.1311779375081406,-1.9271864874148015,0.926634578462364,-5.072571649429048,-1.7609684281086393,408.75
328,5.088397542623673,-2.131177945823925,-1.9271864903076001,0.9266345714422466,-5.072571670525742,-1.7245123754022937,410.0
329,5.088397559842621,-2.131177956420754,-1.9271864939939016,0.9266345624964909,-5.0725716974093205,-1.678056322695953,411.25
330,5.088397580133298,-2.1311779687337977,-1.9271864990657992,0.926634549541713,-5.072571724509671,-1.6216002883864642,412.5
331,5.0883976038909315,-2.1311779831147324,-1.9271865051546444,0.9266345338750699,-5.072571755294862,-1.555144257459348,413.75
332,5.088397634064053,-2.1311780009125534,-1.92718650513393,0.9266345362730413,-5.072571787495191,-1.4786882365563314,415.0
333,5.0883976700497655,-2.131178021861335,-1.9271865004948592,0.9266345524011012,-5.072571821793518,-1.392232221797672,416.25
334,5.088397710186003,-2.131178045320213,-1.9271864952401732,0.9266345707680623,-5.072571859954685,-1.2957762188873563,417.5
335,5.088397756703248,-2.131178064893038,-1.9271864880967007,0.9266345835807812,-5.072571905316588,-1.1893202227022934,418.75
336,5.088397810122846,-2.1311780790914674,-1.92718647875865,0.9266345890518922,-5.07257195865454,-1.072864234725476,420.0
337,5.088397868159994,-2.1311780932614552,-1.9271864684484257,0.9266345935728793,-5.072572016627694,-0.9464082549392188,421.25
338,5.0883979311696095,-2.1311780918542915,-1.9271864550561346,0.9266345794309986,-5.07257207970882,-0.8099522811859965,422.5
339,5.088397998564667,-2.1311780894577703,-1.9271864406139447,0.926634563296598,-5.072572147187681,-0.6634963081105256,423.75
340,5.088398065430506,-2.1311780673131024,-1.9271864236687282,0.9266345249448392,-5.072572214298376,-0.5070403420220775,425.0
341,5.088398133289321,-2.1311780386512242,-1.9271864056527646,0.9266344790283186,-5.072572282457367,-0.3412550733841334,426.25
342,5.088398191087169,-2.131177996509937,-1.9271863879612958,0.9266344198790449,-5.072572340659038,-0.17997865901600296,427.5
343,5.088398238404915,-2.131177950046172,-1.9271863718941973,0.9266343579313084,-5.072572388407339,-0.028702244647918835,428.75
344,5.0883982751852965,-2.1311778992023425,-1.9271863574558499,0.926634293131422,-5.072572425645441,0.11257416972008333,430.0
345,5.088398302536459,-2.1311778479788885,-1.9271863449434963,0.9266342297806971,-5.072572453449059,0.24385058408801802,431.25
346,5.088398319662831,-2.131177795912095,-1.9271863344625044,0.9266341675134363,-5.072572471025782,0.36512699845589447,432.5
347,5.08839833482188,-2.1311777479912,-1.9271863249425794,0.926634110324534,-5.072572486598783,0.47640341282371446,433.75
348,5.088398335900603,-2.1311777010013477,-1.9271863184969482,0.9266340569928592,-5.072572488071075,0.5776798271914706,435.0
349,5.088398336872812,-2.13117765865126,-1.9271863126877526,0.9266340089271347,-5.072572489397993,0.668956241559179,436.25
350,5.088398337738508,-2.131177620940936,-1.9271863075149942,0.9266339661273615,-5.072572490579538,0.7502326559268554,437.5
351,5.088398330118092,-2.131177588057554,-1.927186304759712,0.9266339304743341,-5.072572483227044,0.8215090702944945,438.75
352,5.0883983227172465,-2.131177559806649,-1.9271863025715623,0.9266339000140694,-5.072572476055614,0.8827854846621126,440.0
353,5.088398316524182,-2.1311775361661502,-1.9271863007405048,0.9266338745247644,-5.072572470054525,0.9340618990297163,441.25
354,5.0883983115388975,-2.1311775171360563,-1.9271862992665416,0.9266338540064198,-5.072572465223777,0.9753383133973041,442.5
355,5.088398307761394,-2.131177502716366,-1.9271862981496741,0.9266338384590361,-5.07257246156337,1.0066147277648962,443.75
356,5.088398305191671,-2.1311774929070797,-1.9271862973899025,0.9266338278826135,-5.072572459073304,1.0278911421325,445.0
357,5.088318751204002,-2.1313391122640737,-1.9268699101664433,0.9264790193928174,-5.072493110057927,1.039445812512982,446.25
358,5.087025693433549,-2.1339661773650973,-1.921727321122476,0.9239628351823116,-5.07120338324722,1.0432664442259139,447.5
359,5.086001417709024,-2.1360471719516636,-1.9176536952807077,0.9219696777842866,-5.070181746471104,1.0374444580595181,448.75
360,5.086000705527849,-2.136048626874018,-1.9176508580415788,0.9219682877332129,-5.070181037046759,1.0238605743167362,450.0
361,5.086000708553958,-2.1360486346216296,-1.9176508616754415,0.9219682863210494,-5.070181041666042,1.000279497123038,451.25
362,5.0860007128633455,-2.1360486456547614,-1.917650866850312,0.9219682843100314,-5.070181048244219,0.9666984199293533,452.5
363,5.086000718456013,-2.1360486599734143,-1.9176508735661906,0.921968281700159,-5.070181056781291,0.9231173427356612,453.75
364,5.086000725759579,-2.136048677770198,-1.917650881596702,0.921968279100888,-5.070181071051191,0.8695362704734142,455.0
365,5.086000734796461,-2.13604869905521,-1.9176508909299799,0.9219682765441666,-5.0701810912517535,0.8059552021548919,456.25
366,5.086000741443215,-2.1360487269153556,-1.9176508995786685,0.9219682879842692,-5.070181106726919,0.7323741392362446,457.5
367,5.086000740751503,-2.136048765540768,-1.9176509047481816,0.9219683321151216,-5.070181107216953,0.6487930871701713,458.75
368,5.086000739968234,-2.136048808845226,-1.91765091048359,0.9219683817742839,-5.07018110768737,0.5552120432021258,460.0
369,5.0860007363923,-2.13604885606232,-1.917650917311038,0.9219684364580469,-5.07018110510849,0.45163100630171094,461.25
370,5.086000720445301,-2.136048904496691,-1.917650927076076,0.9219684944732209,-5.070181088711324,0.3380499788529863,462.5
371,5.086000703092336,-2.1360489571934806,-1.917650937702811,0.9219685575891776,-5.070181070853334,0.2144689605280473,463.75
372,5.08600067183167,-2.1360490068526716,-1.917650950864087,0.9219686200028071,-5.070181039133359,0.08088794799407689,465.0
373,5.086000634674118,-2.1360490581522646,-1.9176509654870528,0.9219686854358169,-5.0701810015073825,-0.06269306290132381,466.25
374,5.086000583508569,-2.136049101549334,-1.9176509820036227,0.9219687447310426,-5.070180949929467,-0.21627406868413587,467.5
375,5.086000525342838,-2.1360491438973894,-1.9176509998517253,0.921968804238542,-5.070180891354603,-0.3795500880687549,468.75
376,5.086000457684147,-2.1360491669888186,-1.9176510171368668,0.9219688438653514,-5.070180823440239,-0.5396383504003444,470.0
377,5.086000393257169,-2.1360491855317205,-1.9176510331387073,0.9219688777028847,-5.07018075879881,-0.6897266127318937,471.25
378,5.086000328955501,-2.1360491869482976,-1.9176510468393722,0.9219688921477024,-5.070180694427009,-0.8298148750633751,472.5
379,5.086000269256014,-2.136049187736856,-1.9176510594894955,0.9219689049631167,-5.070180634666846,-0.9599031373947792,473.75
380,5.086000214496205,-2.1360491732035403,-1.9176510690664244,0.9219688994648589,-5.070180579979844,-1.079991399726121,475.0
381,5.086000164296356,-2.136049159880447,-1.9176510778458546,0.9219688944244487,-5.070180529846741,-1.1900796620574046,476.25
382,5.086000120601555,-2.1360491418609096,-1.9176510846344836,0.92196888277372,-5.070180486264119,-1.2901679243886495,477.5
383,5.086000083121038,-2.136049120027892,-1.9176510896106969,0.9219688655692677,-5.070180448933519,-1.3802561867198297,478.75
384,5.086000049800942,-2.136049100618391,-1.9176510940345328,0.9219688502745464,-5.070180415746698,-1.4603444490509319,480.0
385,5.086000020887853,-2.1360490832919656,-1.9176510978089611,0.9219688364553157,-5.070180386953332,-1.530432711381996,481.25
386,5.086000000314678,-2.136049062618783,-1.9176510993862848,0.9219688171856186,-5.07018036653561,-1.5905209737130677,482.5
387,5.085999983165331,-2.136049045386069,-1.9176511007011072,0.92196880112282,-5.070180349515844,-1.6406092360441649,483.75
388,5.085999969439809,-2.1360490315938256,-1.9176511017534277,0.9219687882669199,-5.070180335894033,-1.6806974983752812,485.0
389,5.085999959138112,-2.136049021242052,-1.9176511025432457,0.9219687786179177,-5.070180325670177,-1.7107857607063726,486.25
390,5.085999952260241,-2.1360490143307476,-1.917651103070563,0.9219687721758147,-5.070180318844275,-1.7308740230374753,487.5
391,5.085999948806195,-2.1360490108599124,-1.9176511033353802,0.9219687689406108,-5.070180315416328,-1.7409622853685753,488.75
392,5.086541868847933,-2.1349839821075185,-1.9198295998688493,0.9230824538267584,-5.070720432761116,-1.7421553582456795,490.0
393,5.086652120423697,-2.1347673140973757,-1.9202727956210122,0.9233090257597902,-5.070830317573568,-1.7344845601478347,491.25
394,5.086798434919801,-2.134479782196781,-1.9208609488875472,0.9236097057917672,-5.070976145328648,-1.716940957718292,492.5
395,5.087028149901463,-2.134028354709889,-1.9217843544313138,0.92408177595481,-5.071205096122832,-1.689397355288755,493.75
396,5.087341265368681,-2.1334130316367,-1.9230430122523126,0.9247252362489191,-5.071517169956121,-1.6518537528592092,495.0
397,5.087741746115253,-2.1326356047831143,-1.924633267035571,0.9255382327103185,-5.071916348570042,-1.6043100618698136,496.25
398,5.088227316253856,-2.131695046014354,-1.926557216191973,0.9265218291362203,-5.072400346350139,-1.5467663532454772,497.5
399,5.088797269229472,-2.1305910360549696,-1.9288155110487812,0.9276763558774276,-5.072968453721304,-1.4792226446211592,498.75
400,5.089456614962787,-2.129325753351856,-1.9314037085356226,0.9289995590613984,-5.073625698407687,-1.4016788088368164,500.0
401,5.090201184285799,-2.1278973853730543,-1.9343255054162407,0.9304933139734198,-5.074367896426509,-1.3141349683616415,501.25
402,5.091037019133117,-2.1263085033052516,-1.9375756587320399,0.9321549632965931,-5.075201112900267,-1.2165909843004898,502.5
403,5.091961108234889,-2.1245578043810047,-1.9411568252998486,0.933985853879123,-5.076122324924805,-1.109046940619325,503.75
404,5.092976798790113,-2.122646678148297,-1.9450661721686533,0.9359845502726198,-5.077134892342847,-0.9915027693904075,505.0
405,5.094086407093957,-2.120576017821241,-1.9493018793554846,0.9381501313634251,-5.078241139708353,-0.8639584309768191,506.25
406,5.095289889921499,-2.118345755530401,-1.9538640860016905,0.9404826684401936,-5.07944102328787,-0.7264139442072424,507.5
407,5.096589409091773,-2.1159567016923737,-1.9587511412040328,0.9429813263651707,-5.080736712456706,-0.5788692801533917,508.75
408,5.097987177233819,-2.1134096482679703,-1.9639614322804353,0.9456452899863685,-5.082130427318201,-0.42132441165380263,510.0
409,5.09943141590966,-2.1108022294025988,-1.969295242820506,0.9483724533264606,-5.083570548833753,-0.2597875708255168,511.25
410,5.100800826955372,-2.1083517754817787,-1.9743079939121992,0.9509355018560205,-5.0849361194679705,-0.10774486010070972,512.5
411,5.10208889606644,-2.1060656514015736,-1.9789846137410867,0.9533267214413329,-5.086220630489052,0.03429801753576273,513.75
412,5.103295993688147,-2.10394391005448,-1.983324995941719,0.9555460597656433,-5.0874244530366495,0.16634106959481765,515.0
413,5.104418133573599,-2.1019850882105953,-1.9873321207621113,0.9575950239017867,-5.088543587146187,0.2883842300978607,516.25
414,5.105453089021326,-2.10018839745654,-1.9910075935365117,0.9594744251329909,-5.089575798656573,0.4004274695269939,517.5
415,5.106401437750101,-2.0985540102947233,-1.9943510635542416,0.961184086808782,-5.090521666997183,0.502470802459556,518.75
416,5.107261077366746,-2.097081183357578,-1.9973640444052632,0.9627247738293319,-5.091379082737868,0.5945141977212398,520.0
417,5.108029871209029,-2.0957692116763296,-2.000047970663029,0.9640972102336457,-5.0921459024218105,0.676557632938883,521.25
418,5.108708152094269,-2.0946181803854396,-2.0024026695125894,0.9653013092869409,-5.092822459750124,0.7486011123623709,522.5
419,5.1092943702737,-2.093627590069203,-2.0044291570303288,0.966337583574738,-5.09340720013038,0.8106446230872648,523.75
420,5.109786103442116,-2.092796660337072,-2.006129020942463,0.9672068340633195,-5.093897693687169,0.8626881338121779,525.0
421,5.110185645644779,-2.092126112870875,-2.0075007932729236,0.9679083205479548,-5.094296241511756,0.9047316753157317,526.25
422,5.1104909372093985,-2.0916152995480046,-2.0085457923723444,0.9684427077891264,-5.094600777605227,0.9367752290437568,527.5
423,5.110700954833053,-2.091263898419926,-2.0092646731178863,0.968810325999089,-5.0948102755215805,0.9588187827717817,528.75
424,5.110815698515742,-2.0910719094866383,-2.0096574355095496,0.9690111751778427,-5.094924735260815,0.9708623364998136,530.0
425,5.111334315425355,-2.090206588811073,-2.0114277281005633,0.969916491222837,-5.095442073082908,0.9735960734005102,531.25
426,5.111511229079707,-2.089911733876364,-2.012030956876508,0.9702249827110868,-5.095618550985622,0.9675376267244069,532.5
427,5.1115115976870005,-2.089911855801325,-2.0120307251433993,0.9702248737210152,-5.095618919981586,0.9518489086410957,533.75
428,5.111512201244843,-2.089912055441342,-2.0120303457034425,0.9702246952605947,-5.095619524175836,0.9261601905577699,535.0
429,5.111513039809403,-2.0899123328186944,-2.012029818529336,0.9702244473908063,-5.095620364050958,0.8904714804944337,536.25
430,5.111514113515071,-2.089912687986677,-2.0120291435557354,0.9702241302573886,-5.0956214407606755,0.8447827925476549,537.5
431,5.111515422225445,-2.0899131208911843,-2.012028320848937,0.9702237437121684,-5.095622753132604,0.7890941046009025,538.75
432,5.111516150762953,-2.0899133792268434,-2.0120278648505607,0.970223547880437,-5.095623483813664,0.7234054262709636,540.0
433,5.111516149973429,-2.089913416828992,-2.0120278696887017,0.9702235903576796,-5.0956234832516305,0.6477167571224728,541.25
434,5.1115161490768015,-2.0899134594193693,-2.0120278751485663,0.970223638533211,-5.0956234825919235,0.5620280920001401,542.5
435,5.111516147221527,-2.0899135067636316,-2.0120278813842223,0.9702236922834981,-5.095623480948011,0.4663394302154567,543.75
436,5.11151613144197,-2.0899135553457313,-2.012027890696876,0.970223749942394,-5.095623464770625,0.360650779245669,545.0
437,5.111516114168806,-2.08991360852405,-2.0120279008911695,0.9702238130549978,-5.095623447057694,0.244962134257729,546.25
438,5.111516086894948,-2.0899136612975155,-2.0120279130879792,0.9702238776497053,-5.095623419344808,0.11927349670806725,547.5
439,5.111516049560196,-2.0899137136307666,-2.0120279272951045,0.9702239436988543,-5.095623381573682,-0.01641513455420594,548.75
440,5.111516002909767,-2.0899137631552542,-2.0120279430595636,0.9702240084079472,-5.095623334501624,-0.16210376348745126,550.0
441,5.111515943947939,-2.0899138068290144,-2.012027960614202,0.9702240689441524,-5.095623275154216,-0.3177923883426975,551.25
442,5.111515874641638,-2.0899138403997597,-2.0120279790233724,0.9702241201480793,-5.095623205532254,-0.48199750405922775,552.5
443,5.111515803295106,-2.08991386451245,-2.0120279966659402,0.9702241611266409,-5.095623133941658,-0.6399828668283949,553.75
444,5.111515732179587,-2.0899138705418876,-2.0120280119960325,0.9702241817501055,-5.095623062722309,-0.7879682295975249,555.0
445,5.111515664856297,-2.0899138722483928,-2.0120280260074175,0.9702241967796532,-5.095622995331717,-0.9259535923666058,556.25
446,5.111515602729672,-2.0899138599288043,-2.012028037196842,0.9702241950436947,-5.095622933250593,-1.053938955135685,557.5
447,5.111515545545222,-2.0899138447212615,-2.0120280470116336,0.9702241891015287,-5.095622876137979,-1.1719243179047358,558.75
448,5.1115154948557135,-2.0899138257285386,-2.012028055021176,0.9702241776430063,-5.09562282555484,-1.2799096806737553,560.0
449,5.111515451528457,-2.089913800280561,-2.0120280607132677,0.9702241575003241,-5.095622782389862,-1.3778950434427681,561.25
450,5.111515412623007,-2.0899137774297065,-2.01202806582444,0.9702241394133213,-5.0956227436301305,-1.465880406211762,562.5
451,5.111515379481981,-2.0899137552939884,-2.012028069843798,0.9702241210067546,-5.095622710633916,-1.543865768980754,563.75
452,5.1115153547445065,-2.089913730174067,-2.0120280717670815,0.970224097611698,-5.095622686071115,-1.6118511317497441,565.0
453,5.111515333645679,-2.089913708749047,-2.0120280734074685,0.9702240776578315,-5.095622665121268,-1.669836494518749,566.25
454,5.111515316185498,-2.08991369101893,-2.012028074764955,0.9702240611451529,-5.095622647784373,-1.7178218572877768,567.5
455,5.111515302363965,-2.089913676983714,-2.0120280758395452,0.9702240480736651,-5.095622634060434,-1.755807220056802,568.75
456,5.111515292181079,-2.0899136666433993,-2.01202807663124,0.970224038443368,-5.09562262394945,-1.7837925828258319,570.0
457,5.111515285636839,-2.089913659997986,-2.0120280771400383,0.9702240322542616,-5.095622617451419,-1.8017779455948522,571.25
458,5.1110511385211925,-2.090728822995485,-2.010438063573272,0.9694488309587501,-5.095159340944448,-1.8108471885260118,572.5
459,5.109396983124782,-2.093633981936435,-2.004771437041164,0.9666861129611778,-5.093508288430214,-1.8113105201845958,573.75
460,5.108802209640649,-2.0946785782358286,-2.0027339157199613,0.9656927341106286,-5.092914632268136,-1.8029414260562515,575.0
461,5.1088022162729185,-2.094678582330137,-2.0027339170926703,0.9656927305629788,-5.092914642386424,-1.7858758448883727,576.25
462,5.10880222679153,-2.0946785888236064,-2.002733919269753,0.9656927249364955,-5.092914658433774,-1.7588102637204914,577.5
463,5.108802241196484,-2.094678597716237,-2.002733922251208,0.9656927172311791,-5.0929146804101855,-1.7217446825526013,578.75
464,5.108802259487781,-2.0946786090080294,-2.002733926037037,0.9656927074470293,-5.092914708315658,-1.6746791013847162,580.0
465,5.108802280914688,-2.094678622086705,-2.0027339312537182,0.9656926933639394,-5.09291473583798,-1.6176135409421986,581.25
466,5.108802306009358,-2.0946786373862754,-2.0027339374571755,0.9656926765556206,-5.092914767451535,-1.5505479826855564,582.5
467,5.1088023381878465,-2.0946786564650366,-2.0027339366685304,0.9656926811569828,-5.092914800860876,-1.4734824356378766,583.75
468,5.108802376228035,-2.0946786787752303,-2.002733931782931,0.9656926984223619,-5.092914837133082,-1.386416893869842,585.0
469,5.10880241862479,-2.0946787037473653,-2.0027339262495416,0.9656927180945941,-5.092914877465198,-1.2893513645208066,586.25
470,5.1088024680299755,-2.0946787236965214,-2.0027339186155593,0.9656927308482643,-5.0929149258014625,-1.1822858418243558,587.5
471,5.108802524414333,-2.09467873870738,-2.0027339089004714,0.9656927367755694,-5.092914982106134,-1.0652203272086642,588.75
472,5.108802585672742,-2.0946787525580834,-2.0027338980396343,0.9656927404450544,-5.092915043310608,-0.9381548205132767,590.0
473,5.108802652131098,-2.094678750890704,-2.002733884181844,0.9656927256007619,-5.092915109839491,-0.801089319371521,591.25
474,5.108802722863286,-2.094678746883414,-2.0027338691525034,0.9656927072927499,-5.0929151806638036,-0.6540238191614757,592.5
475,5.108802793352092,-2.0946787231056554,-2.0027338516887894,0.965692666819397,-5.092915251395556,-0.4969583259205668,593.75
476,5.108802863999555,-2.0946786911837196,-2.0027338331691222,0.9656926171646762,-5.092915322349678,-0.3309137220227031,595.0
477,5.108802924469971,-2.094678646460623,-2.002733815130922,0.9656925551135342,-5.092915383218476,-0.1702384909965764,596.25
478,5.108802973026038,-2.0946785962526797,-2.0027337988503224,0.9656924892252405,-5.092915432206079,-0.019563259970474665,597.5
479,5.108803011490535,-2.0946785424089325,-2.00273378418533,0.965692421221538,-5.092915471122302,0.12111197105560408,598.75
480,5.108803039097958,-2.094678487625953,-2.0027337716319877,0.9656923542815813,-5.092915499179965,0.25178720208162253,600.0
481,5.108803057000357,-2.094678432579805,-2.002733761038656,0.9656922889401143,-5.0929155175267775,0.37246243310764804,601.25
482,5.108803071953221,-2.0946783817054557,-2.0027337515752586,0.9656922288615623,-5.092915532889078,0.48313766413364995,602.5
483,5.108803073086575,-2.094678332113301,-2.0027337451110343,0.9656921729208504,-5.092915534410626,0.5838128951596318,603.75
484,5.108803074107352,-2.094678287447102,-2.002733739288893,0.9656921225366883,-5.092915535781039,0.674488126185587,605.0
485,5.108803075015555,-2.094678247706858,-2.0027337341088365,0.9656920777090773,-5.092915537000317,0.7551633572115498,606.25
486,5.1088030664551205,-2.094678213127346,-2.0027337315217872,0.9656920405278744,-5.092915528702964,0.825838588237507,607.5
487,5.108803058764603,-2.094678183449133,-2.0027337293719567,0.9656920086837649,-5.092915521237959,0.8865138192634726,608.75
488,5.108803052341574,-2.0946781586622434,-2.0027337275764414,0.9656919820879425,-5.092915515003275,0.9371890502894566,610.0
489,5.108803047186034,-2.0946781387666773,-2.002733726135243,0.965691960740408,-5.092915509998913,0.977864281315453,611.25
490,5.108803043297982,-2.0946781237624337,-2.0027337250483637,0.9656919446411618,-5.092915506224873,1.008539512341447,612.5
491,5.10880304067742,-2.094678113649512,-2.002733724315802,0.9656919337902042,-5.092915503681154,1.0292147433674386,613.75
492,5.108663392513518,-2.094927320893089,-2.0022472450359325,0.9654545606311832,-5.092776127206997,1.0403026119747816,615.0
493,5.107153487535339,-2.09762188489409,-1.9969872825432964,0.9628880687055854,-5.091269159399899,1.043457662733313,616.25
494,5.10612800146362,-2.0994519641654974,-1.9934148573670682,0.9611449766340011,-5.090245668526099,1.037114560246264,617.5
495,5.106128003376983,-2.099451969159301,-1.9934148596099357,0.9611449757080388,-5.0902456712660555,1.0227622893375206,618.75
496,5.1061280066234875,-2.0994519776325564,-1.9934148634155293,0.9611449741369089,-5.090245675915086,0.9984100184287801,620.0
497,5.106128011203134,-2.0994519895852646,-1.9934148687838498,0.961144971920611,-5.090245682473192,0.9640577475200427,621.25
498,5.106128017115925,-2.099452005017424,-1.9934148757148966,0.9611449690591455,-5.090245690940373,0.919705476611287,622.5
499,5.106128024896636,-2.099452024138592,-1.993414883962,0.9611449661823647,-5.090245705838756,0.8653532161022477,623.75
500,5.106128034446303,-2.099452046909988,-1.9934148935708094,0.9611449631737072,-5.0902457263314735,0.8010009616471546,625.0
501,5.106128040554522,-2.099452077500116,-1.9934149019474954,0.9611449786130948,-5.090245740218946,0.7266487139391181,626.25
502,5.1061280398243705,-2.099452118860896,-1.9934149072125065,0.9611450255460782,-5.0902457407494826,0.6422964760104292,627.5
503,5.1061280389976815,-2.099452165194542,-1.993414913040914,0.9611450783400304,-5.090245741258186,0.5479442470130652,628.75
504,5.1061280340832385,-2.0994522153616457,-1.9934149202019957,0.9611451362169209,-5.090245737275552,0.44359202493212835,630.0
505,5.1061280172213195,-2.099452267153176,-1.9934149301805453,0.9611451977881951,-5.0902457199646,0.32923981146214887,631.25
506,5.106127998882532,-2.0994523234717786,-1.9934149410337874,0.9611452647362669,-5.090245701120303,0.20488760769689202,632.5
507,5.106127964621345,-2.0994523758263743,-1.993414954681671,0.9611453302901733,-5.090245666409254,0.07053540941966291,633.75
508,5.106127925396717,-2.0994524306589595,-1.9934149696665306,0.9611453995905082,-5.0902456267176825,-0.07381678781518008,635.0
509,5.106127870221186,-2.099452475879296,-1.9934149867219764,0.961145461208139,-5.090245571140315,-0.2281689794441723,636.25
510,5.106127808176096,-2.0994525202447476,-1.9934150050832973,0.96114552320882,-5.090245508695016,-0.39249802465902484,637.5
511,5.106127735303773,-2.099452544779968,-1.9934150231731644,0.9611455650386538,-5.090245435569624,-0.5558881237915938,638.75
512,5.106127665482772,-2.099452562383882,-1.993415039761345,0.9611455984810853,-5.090245365552636,-0.7092782229241256,640.0
513,5.106127596389205,-2.0994525640992885,-1.9934150541970204,0.9611456139230099,-5.090245296388776,-0.8526683220566246,641.25
514,5.106127532211164,-2.099452561454758,-1.9934150670714872,0.9611456235030658,-5.090245232178812,-0.9860584211891065,642.5
515,5.106127473147389,-2.0994525457587696,-1.9934150772482602,0.9611456174133699,-5.090245173190078,-1.1094485203215478,643.75
516,5.106127418870363,-2.099452531334846,-1.9934150866002618,0.9611456118172023,-5.090245118982013,-1.22283861945398,645.0
517,5.106127372948475,-2.099452507224529,-1.9934150930117789,0.9611455936996468,-5.09024507321222,-1.326228718586388,646.25
518,5.106127332163766,-2.0994524833101154,-1.9934150983907586,0.9611455747975111,-5.0902450325822866,-1.4196188177187943,647.5
519,5.10612729574619,-2.099452461956404,-1.9934151031937652,0.9611455579193713,-5.090244996302912,-1.5030089168511827,648.75
520,5.106127267532623,-2.0994524377997115,-1.9934151059550678,0.961145536286159,-5.090244968256357,-1.5763990159835766,650.0
521,5.106127244752024,-2.099452414713755,-1.9934151077332385,0.9611455147938042,-5.090244945638806,-1.639789115115966,651.25
522,5.10612722556514,-2.0994523952696866,-1.993415109230895,0.961145496691939,-5.090244926589249,-1.693179214248387,652.5
523,5.106127209971971,-2.0994523794675057,-1.9934151104480375,0.961145481980564,-5.0902449111076855,-1.736569313380821,653.75
524,5.106127197972519,-2.099452367307211,-1.9934151113846688,0.9611454706596803,-5.090244899194118,-1.7699594125132383,655.0
525,5.106127189566782,-2.099452358788803,-1.993415112040788,0.9611454627292877,-5.090244890848544,-1.79334951164566,656.25
526,5.106124605224674,-2.0994570313799277,-1.9934059746890087,0.9611409961419346,-5.090242311742884,-1.8067476061218193,657.5
527,5.104955913246573,-2.101576221115252,-1.9892660028215003,0.9591194040570518,-5.0890759766104345,-1.812367284121206,658.75
528,5.103556202076324,-2.1041143286984063,-1.9843076551097023,0.9566981917353515,-5.087679089013068,-1.8082951549141504,660.0
529,5.103489299155828,-2.104235655164621,-1.9840706427860075,0.9565824533455266,-5.087612323459314,-1.7964672413320186,661.25
530,5.103489307458527,-2.104235660286824,-1.9840706445141878,0.9565824489329043,-5.08761233621755,-1.7748516963129157,662.5
531,5.1034893196023035,-2.1042356677787115,-1.9840706470418754,0.9565824424788703,-5.087612354878129,-1.7432361512938175,663.75
532,5.103489335587157,-2.1042356776402844,-1.9840706503690713,0.9565824339834246,-5.087612379441051,-1.7016206062747101,665.0
533,5.103489355136109,-2.104235689639836,-1.984070654734282,0.9565824226018402,-5.087612407552078,-1.6500050696288002,666.25
534,5.103489377933233,-2.1042357035130848,-1.9840706604095468,0.9565824073706243,-5.087612436525975,-1.5883895478654217,667.5
535,5.103489405049094,-2.1042357199142216,-1.984070665521275,0.9565823941125671,-5.087612469611469,-1.516774028321105,668.75
536,5.103489440271535,-2.10423574053448,-1.98407066098228,0.9565824100359338,-5.087612503192481,-1.4351585229856105,670.0
537,5.1034894798042085,-2.1042357637231053,-1.984070655850282,0.9565824280890235,-5.087612540841703,-1.3435430231554164,671.25
538,5.103489523644347,-2.1042357895014514,-1.984070650106475,0.9565824483630093,-5.087612582535502,-1.2419275306108866,672.5
539,5.103489576709889,-2.1042358037173905,-1.9840706409393487,0.9565824540066371,-5.087612635505613,-1.130312049735155,673.75
540,5.103489634565454,-2.1042358191101584,-1.9840706309304066,0.9565824600427322,-5.087612693286127,-1.0086965760660436,675.0
541,5.1034896974270865,-2.104235824903901,-1.9840706186878854,0.956582454265831,-5.087612756157659,-0.8770811088005546,676.25
542,5.103489765245282,-2.104235823238344,-1.9840706044899274,0.9565824390995301,-5.087612824049043,-0.7354656443158667,677.5
543,5.10348983478112,-2.1042358096326486,-1.9840705884277932,0.9565824101710256,-5.087612893752347,-0.5838501836905821,678.75
544,5.103489906417098,-2.104235785559307,-1.984070570608714,0.9565823690612567,-5.08761296563894,-0.42223472949995844,680.0
545,5.103489970682009,-2.1042357448985722,-1.9840705522122448,0.9565823107456456,-5.087613030280033,-0.25661953363653095,681.25
546,5.1034900287134946,-2.104235702108334,-1.9840705348320953,0.9565822512574963,-5.087613088699433,-0.10049634571133421,682.5
547,5.103490068343111,-2.1042356471918064,-1.9840705197138262,0.9565821817416562,-5.087613128797929,0.04562684221383368,683.75
548,5.1034901051022885,-2.104235595873188,-1.984070505642559,0.9565821168339238,-5.087613165995039,0.18175003013896962,685.0
549,5.103490124201024,-2.1042355395597,-1.9840704945820935,0.9565820497717057,-5.08761318555668,0.30787321806409135,686.25
550,5.103490141213811,-2.1042354873762505,-1.9840704844741262,0.9565819877621493,-5.087613202997854,0.42399640598917093,687.5
551,5.10349014894268,-2.104235437609414,-1.98407047658656,0.9565819302896088,-5.087613211128208,0.530119593914248,688.75
552,5.103490150009662,-2.10423539095577,-1.9840704704666945,0.9565818776233562,-5.087613212566425,0.6262427818393156,690.0
553,5.1034901509656425,-2.104235349155655,-1.9840704649834922,0.9565818304361385,-5.087613213855019,0.7123659697643818,691.25
554,5.103490147651499,-2.1042353123112254,-1.984070461007694,0.9565817896580769,-5.087613210830599,0.7884891576894373,692.5
555,5.103490139372521,-2.1042352804395437,-1.98407045868474,0.9565817554445313,-5.087613202797745,0.8546123456144917,693.75
556,5.103490132345598,-2.104235253387909,-1.984070456713093,0.9565817264051982,-5.087613195979723,0.9107355335395678,695.0
557,5.103490126570727,-2.1042352311563213,-1.9840704550927488,0.9565817025400768,-5.087613190376532,0.95685872146466,696.25
558,5.103490122047911,-2.1042352137447797,-1.9840704538237133,0.9565816838491689,-5.087613185988172,0.9929819093897568,697.5
559,5.103490118777148,-2.1042352011532834,-1.9840704529059856,0.9565816703324741,-5.0876131828146445,1.019105097314837,698.75
560,5.103490116758438,-2.1042351933818333,-1.9840704523395654,0.9565816619899927,-5.087613180855948,1.0352282852399148,700.0
561,5.102783266222771,-2.105537499173226,-1.9815243989608542,0.955337446185973,-5.086907807579359,1.0429005762954051,701.25
562,5.101218169340644,-2.1084210561621437,-1.9758869618163153,0.9525825281823516,-5.085345981686961,1.0415299319978668,702.5
563,5.100888721918089,-2.1090280403852852,-1.9747002979634336,0.9520026248565285,-5.085017223365555,1.031796952473008,703.75
564,5.1008887244102885,-2.1090280468553018,-1.974700300894656,0.9520026236526815,-5.085017227007385,1.0129371696060412,705.0
565,5.1008887282239215,-2.109028056755908,-1.9747003053800969,0.95200262181052,-5.085017232580216,0.9840773867390846,706.25
566,5.100888733358991,-2.1090280700871027,-1.974700311419756,0.9520026193300442,-5.085017240084051,0.9452176038721098,707.5
567,5.100888739880179,-2.1090280868753317,-1.974700318982575,0.9520026162921186,-5.0850172500718145,0.8963578224066979,708.75
568,5.100888748526685,-2.1090281074228128,-1.974700327713608,0.9520026136208722,-5.085017268862369,0.8374980563905576,710.0
569,5.100888758642193,-2.109028131461215,-1.9747003379280028,0.9520026104957933,-5.085017290845351,0.7686382903744277,711.25
570,5.100888759630349,-2.1090281681322587,-1.9747003437319446,0.9520026474214338,-5.085017294682426,0.6897785385165364,712.5
571,5.100888758867887,-2.1090282110844902,-1.9747003492168638,0.9520026962540145,-5.0850172952145,0.6009187909488511,713.75
572,5.100888758007247,-2.1090282589548113,-1.9747003552444649,0.952002750943318,-5.085017295700146,0.5020590541575523,715.0
573,5.100888746222978,-2.109028308660593,-1.9747003639055918,0.9520028094130804,-5.085017284009121,0.3931993258056712,716.25
574,5.100888728912247,-2.109028361698734,-1.9747003741930254,0.9520028725324419,-5.085017266223047,0.27433960518637945,717.5
575,5.100888705079718,-2.109028416225722,-1.9747003860235792,0.9520029385894127,-5.085017241899958,0.14547989188533117,718.75
576,5.100888667812117,-2.1090284681843317,-1.9747004003198145,0.9520030043537238,-5.085017204182183,0.006620183039298035,720.0
577,5.100888623477733,-2.109028519451513,-1.9747004159891,0.952003070728628,-5.085017159398168,-0.14223952371919313,721.25
578,5.100888564792058,-2.109028562659614,-1.9747004336020604,0.9520031308591952,-5.085017100317453,-0.30109922371730957,722.5
579,5.100888497429023,-2.109028597598083,-1.974700451959527,0.9520031833926454,-5.085017032618232,-0.46746933829407866,723.75
580,5.100888427437651,-2.109028621074157,-1.974700469406024,0.9520032235493114,-5.085016962380143,-0.6263498927360494,725.0
581,5.100888358126302,-2.109028628748185,-1.9747004847071161,0.9520032457978623,-5.085016892949108,-0.7752304471779973,726.25
582,5.100888292026239,-2.10902863035345,-1.9747004985744352,0.9520032605892402,-5.085016826780626,-0.914111001619908,727.5
583,5.100888230959714,-2.109028619866567,-1.9747005098671075,0.9520032607902118,-5.085016765746683,-1.0429915560618024,728.75
584,5.100888174751674,-2.109028604937729,-1.9747005195919094,0.9520032550402847,-5.08501670961086,-1.1618721105036651,730.0
585,5.100888124494043,-2.1090285875200325,-1.9747005277709238,0.9520032453218349,-5.085016659450369,-1.2707526649454977,731.25
586,5.100888081840082,-2.1090285625485503,-1.9747005334198118,0.9520032256129272,-5.085016616960391,-1.3696332193873366,732.5
587,5.100888043499804,-2.1090285401024893,-1.97470053849741,0.95200320789722,-5.085016578767512,-1.4585137738291667,733.75
588,5.100888010278019,-2.1090285190597697,-1.9747005426950008,0.9520031907544682,-5.085016545686198,-1.5373943282709877,735.0
589,5.100887985826869,-2.109028494328498,-1.974700544611629,0.952003167739705,-5.085016521412412,-1.606274882712818,736.25
590,5.100887964925509,-2.109028473187684,-1.9747005462500036,0.9520031480661989,-5.085016500662667,-1.6651554371546384,737.5
591,5.1008879475739395,-2.109028455637329,-1.9747005476101205,0.9520031317339481,-5.085016483436962,-1.7140359915965009,738.75
592,5.100887933772158,-2.109028441677432,-1.9747005486919842,0.9520031187429545,-5.085016469735296,-1.7529165460383587,740.0
593,5.100887923520168,-2.109028431307992,-1.9747005494955943,0.9520031090932182,-5.0850164595576715,-1.7817971004802067,741.25
594,5.100887916817968,-2.109028424529009,-1.9747005500209518,0.9520031027847392,-5.085016452904088,-1.8006776549220591,742.5
595,5.100566340556552,-2.109630384426213,-1.9735228254206845,0.9514271347793931,-5.0846955728760515,-1.8104271852449958,743.75
596,5.099024443805978,-2.112516713516025,-1.9678758007128232,0.9486654641489807,-5.083157014487484,-1.8118298499160752,745.0
597,5.098322170983732,-2.113831329853233,-1.965303794026761,0.9474076259394005,-5.082456263691453,-1.8041835490174938,746.25
598,5.098322177089481,-2.113831333617897,-1.965303795304755,0.947407622716194,-5.082456273141901,-1.7881023130227158,747.5
599,5.098322186992047,-2.1138313397235895,-1.9653037973774605,0.9474076174886603,-5.082456288469041,-1.76202107702795,748.75
600,5.098322200691429,-2.1138313481703115,-1.965303800244877,0.947407610256799,-5.0824563096728745,-1.725939841033175,750.0
601,5.0983222181876275,-2.1138313589580617,-1.965303803907005,0.9474076010206101,-5.082456336753401,-1.6798586050383906,751.25
602,5.098322238847368,-2.1138313715433465,-1.9653038089267034,0.9474075877885776,-5.082456364269942,-1.6237773877966948,752.5
603,5.098322263025818,-2.1138313862309808,-1.9653038149882989,0.947407571677622,-5.082456395273848,-1.5576961750416234,753.75
604,5.098322293600095,-2.1138314043593174,-1.9653038153171367,0.9474075728608657,-5.082456428127765,-1.4816149718035916,755.0
605,5.098322330299613,-2.113831425807935,-1.9653038105706822,0.947407589387457,-5.082456463112647,-1.3955337754027917,756.25
606,5.098322371251067,-2.113831449834296,-1.9653038051962033,0.9474076082021454,-5.082456502062969,-1.2994525902696168,757.5
607,5.098322418557731,-2.113831470373196,-1.9653037980244372,0.9474076219515918,-5.082456548116211,-1.1933714118997707,758.75
608,5.098322473106111,-2.1138314848791233,-1.9653037885476503,0.9474076275974489,-5.0824566025829805,-1.077290241806153,760.0
609,5.09832253236961,-2.113831500024025,-1.9653037781737137,0.9474076330385157,-5.082456661777911,-0.9512090799973976,761.25
610,5.098322596742518,-2.113831498478777,-1.9653037646395641,0.9474076186241543,-5.082456726221443,-0.8151279244049512,762.5
611,5.098322665809037,-2.1138314966781926,-1.9653037501006367,0.9474076029976309,-5.082456795364874,-0.6690467691756999,763.75
612,5.098322734147214,-2.1138314738000665,-1.9653037330295167,0.9474075637971469,-5.082456863945722,-0.5129656210072702,765.0
613,5.098322804025804,-2.1138314449493376,-1.9653037148789596,0.9474075175726191,-5.082456934116457,-0.3473741553416276,766.25
614,5.098322863379078,-2.113831401314445,-1.9653036970272109,0.9474074567847066,-5.082456993872227,-0.18571874372210478,767.5
615,5.098322912550255,-2.1138313537998497,-1.9653036807912303,0.9474073936360791,-5.082457043468542,-0.03406333210261396,768.75
616,5.09832295033482,-2.113831301188367,-1.965303666265649,0.9474073269942739,-5.082457081709682,0.10759207951683022,770.0
617,5.0983229790402556,-2.113831248539995,-1.9653036536164725,0.9474072620987364,-5.082457110864273,0.23924749113625668,771.25
618,5.0983229966441455,-2.1138311946716004,-1.9653036431121278,0.9474071980163743,-5.0824571289177225,0.36090290275566533,772.5
619,5.098323012767277,-2.1138311452222016,-1.9653036334770755,0.9474071391981039,-5.082457145453503,0.47255831437504264,773.75
620,5.098323013880099,-2.1138310965991645,-1.9653036270572035,0.9474070842654067,-5.082457146959544,0.5742137259944061,775.0
621,5.09832301488345,-2.113831052759253,-1.9653036212688604,0.9474070347365225,-5.082457148317432,0.6658691376137678,776.25
622,5.098323015777332,-2.113831013702466,-1.9653036161120474,0.9474069906114521,-5.082457149527169,0.7475245492331263,777.5
623,5.098323008311668,-2.1138309796268833,-1.9653036133213186,0.9474069537376228,-5.082457142330066,0.8191799608524901,778.75
624,5.098323000685156,-2.1138309503356565,-1.9653036111729254,0.9474069222791135,-5.082457134933378,0.880835372471851,780.0
625,5.098322994295599,-2.113830925795227,-1.9653036093729817,0.9474068959229143,-5.0824571287363725,0.9324907840912338,781.25
626,5.098322989143002,-2.1138309060055933,-1.9653036079214892,0.9474068746690261,-5.082457123739049,0.9741461957106252,782.5
627,5.0983229852273615,-2.113830890966755,-1.9653036068184486,0.9474068585174493,-5.082457119941406,1.005801607330014,783.75
628,5.098322982548678,-2.1138308806787127,-1.9653036060638605,0.9474068474681838,-5.082457117343446,1.0274570189493932,785.0
629,5.098261892117853,-2.113947058109524,-1.9650761323950825,0.9472955144344701,-5.0823961639224615,1.0393160792462766,786.25
630,5.096928238601448,-2.1164834863475086,-1.9601100897597894,0.9448650967977472,-5.081065500564871,1.043454980146102,787.5
631,5.095796050493139,-2.118636760450519,-1.9558942279799425,0.9428018241543056,-5.079935851257795,1.037896055761198,788.75
632,5.095792272388791,-2.1186439537129953,-1.9558801552523342,0.9427949350186077,-5.079932082483377,1.0245979297700611,790.0
633,5.095792275438947,-2.1186439615899477,-1.955880158852462,0.9427949335489514,-5.079932087031053,1.0013135216802203,791.25
634,5.095792279799058,-2.1186439728498296,-1.9558801639987435,0.942794931448119,-5.079932093531828,0.9680291135903896,792.5
635,5.095792285469126,-2.118643987492642,-1.9558801706911793,0.9427949287161104,-5.079932101985703,0.9247447055005475,793.75
636,5.095792292870946,-2.118644005698219,-1.9558801787188969,0.9427949259116211,-5.079932116037206,0.8714603057659658,795.0
637,5.095792302074746,-2.1186440274965053,-1.9558801880467862,0.9427949231276762,-5.079932136293171,0.8081759135646137,796.25
638,5.095792309196508,-2.1186440557686614,-1.95588019687133,0.9427949333586607,-5.079932152534845,0.7348915263208878,797.5
639,5.09579230849193,-2.118644095435415,-1.95588020198071,0.9427949784597817,-5.079932153042508,0.6516071505341561,798.75
640,5.095792307694261,-2.118644139921689,-1.9558802076529056,0.942795029219477,-5.079932153537305,0.5583227823949789,800.0
641,5.095792304474546,-2.1186441885702694,-1.9558802143348595,0.9427950852166316,-5.079932151403083,0.4550384213194062,801.25
642,5.095792288178757,-2.1186442383852495,-1.9558802240617874,0.9427951445686804,-5.079932134660439,0.3417540700516561,802.5
643,5.095792270442508,-2.1186442925957296,-1.9558802346492317,0.9427952091530947,-5.079932116422828,0.21846972758033717,803.75
644,5.095792238962641,-2.1186443439917584,-1.955880247746538,0.9427952732373279,-5.079932084483557,0.08518539095514023,805.0
645,5.095792200976165,-2.1186443968146613,-1.9558802623826823,0.9427953401962994,-5.079932046031922,-0.05809894390933454,806.25
646,5.0957921491142075,-2.118644441992092,-1.9558802789236893,0.9427954012885996,-5.079931993757216,-0.21138327385144423,807.5
647,5.095792089527598,-2.1186444857339293,-1.9558802968854403,0.9427954622900465,-5.079931933763736,-0.3746675975526951,808.75
648,5.095792018668735,-2.1186445108501246,-1.9558803148093895,0.9427955045495602,-5.079931862639687,-0.5390872848596614,810.0
649,5.0957919506346405,-2.1186445301661427,-1.9558803314058835,0.942795539722238,-5.079931794389997,-0.6935411690595383,811.25
650,5.0957918827163535,-2.1186445317772633,-1.9558803457170977,0.9427955549416027,-5.079931726400196,-0.8379950532595588,812.5
651,5.095791819551538,-2.118644531017009,-1.9558803587382225,0.9427955665532536,-5.07993166318724,-0.9724489374597262,813.75
652,5.095791761421887,-2.11864451558375,-1.955880368839633,0.9427955606536255,-5.079931605133106,-1.0969028216600327,815.0
653,5.095791707963011,-2.118644501390575,-1.955880378129375,0.9427955552280348,-5.079931551743677,-1.2113567058604287,816.25
654,5.0957916622238075,-2.1186444791187746,-1.9558803847840953,0.9427955391846066,-5.079931506146261,-1.3158105900609645,817.5
655,5.09579162197296,-2.118644455588193,-1.9558803901382111,0.9427955206408728,-5.079931466052158,-1.410264474261571,818.75
656,5.095791585983539,-2.118644434548838,-1.955880394925472,0.9427955040603944,-5.079931430202888,-1.4947183584622712,820.0
657,5.0957915574431505,-2.1186444115680616,-1.955880397917749,0.942795483824165,-5.079931401824842,-1.5691722426630221,821.25
658,5.095791534840196,-2.118644388747872,-1.955880399697436,0.9427954625967784,-5.079931379388032,-1.6336261268638226,822.5
659,5.095791515744084,-2.1186443694682278,-1.9558804012010043,0.9427954446628135,-5.079931360432287,-1.6880800110646685,823.75
660,5.095791500154812,-2.11864435372913,-1.9558804024284524,0.9427954300222697,-5.079931344957604,-1.732533895265535,825.0
661,5.095791488072381,-2.118644341530578,-1.955880403379783,0.9427954186751488,-5.0799313329639855,-1.7669877794664124,826.25
662,5.095791479496792,-2.11864433287257,-1.9558804040549969,0.9427954106214507,-5.079931324451431,-1.791441663667259,827.5
663,5.095791474428044,-2.118644327755107,-1.9558804044540934,0.9427954058611755,-5.079931319419941,-1.8058955478681027,828.75
664,5.094857987816189,-2.12044802811009,-1.9523464501702021,0.9410646172598145,-5.0789999995405095,-1.8123475989999593,830.0
665,5.093440868520894,-2.123186225572565,-1.9469815623543107,0.9384371136189952,-5.0775861702066445,-1.8093483380824296,831.25
666,5.093294999400178,-2.1234680881216654,-1.9464293211481736,0.9381666458691336,-5.077440641967437,-1.798417921554074,832.5
667,5.093295007081928,-2.1234680928554917,-1.9464293227650171,0.9381666418419018,-5.077440653944126,-1.7779525806104142,833.75
668,5.093295018517223,-2.123468099902413,-1.9464293251719005,0.9381666358468399,-5.077440671772996,-1.7474872396667092,835.0
669,5.093295033706057,-2.123468109262428,-1.9464293283688239,0.9381666278839476,-5.077440695454047,-1.7070218987230095,836.25
670,5.093295052470445,-2.1234681207787904,-1.9464293325191229,0.9381666173761236,-5.0774407234417716,-1.6565565633917996,837.5
671,5.093295074351574,-2.123468134047444,-1.9464293380438362,0.9381666028357452,-5.07744075175224,-1.5960912453051075,838.75
672,5.093295099930961,-2.123468149545803,-1.9464293442866603,0.9381665864656787,-5.077440784655467,-1.5256259275539787,840.0
673,5.093295133824743,-2.1234681693233135,-1.946429339886171,0.9381666016701927,-5.0774408169617935,-1.4451606257347862,841.25
674,5.093295171926742,-2.123468191588201,-1.9464293349122648,0.9381666188906366,-5.077440853248033,-1.3546953279888698,842.5
675,5.093295214231311,-2.1234682163820127,-1.9464293293275483,0.9381666383050584,-5.077440893464826,-1.2542300390675571,843.75
676,5.093295264958819,-2.123468231602466,-1.946429320705089,0.9381666454438431,-5.077440943853417,-1.1437647604672219,845.0
677,5.09329532088538,-2.1234682464704315,-1.9464293109446569,0.9381666511881191,-5.077440999702592,-1.0232994893169973,846.25
678,5.093295381648892,-2.123468254116739,-1.9464292992614318,0.9381666478139361,-5.077441060459203,-0.8928342249981174,847.5
679,5.093295447293402,-2.123468252578645,-1.9464292853978002,0.9381666330930709,-5.077441126176928,-0.7523689642253416,848.75
680,5.093295515236455,-2.1234682418313042,-1.9464292698755243,0.9381666075461645,-5.077441194269236,-0.6019037066110677,850.0
681,5.09329558464508,-2.1234682186831435,-1.9464292524588815,0.9381665677442299,-5.077441263927966,-0.44143845553783545,851.25
682,5.093295648868082,-2.123468181434938,-1.9464292343148668,0.9381665130896117,-5.07744132851215,-0.2753265937222109,852.5
683,5.093295705912273,-2.1234681396208894,-1.9464292170802693,0.9381664547136168,-5.077441385948722,-0.11805738500715449,853.75
684,5.09329574661228,-2.123468087637706,-1.946429201945189,0.9381663881195469,-5.0774414271102515,0.029211823708046886,855.0
685,5.093295782783027,-2.123468037403327,-1.9464291879771594,0.9381663243910665,-5.077441463724247,0.1664810324233712,856.25
686,5.093295803404709,-2.1234679832841605,-1.9464291767484594,0.9381662593643229,-5.077441484807499,0.29375024113884807,857.5
687,5.093295820167191,-2.12346793210939,-1.946429166700531,0.9381661984170094,-5.07744150200406,0.411019449854462,858.75
688,5.093295829414629,-2.1234678836830048,-1.9464291585693747,0.9381661420517557,-5.0774415116565095,0.5182886585701441,860.0
689,5.093295830464933,-2.1234678378239376,-1.9464291524737944,0.9381660901996148,-5.07744151308365,0.6155578672859621,861.25
690,5.093295831407258,-2.123467796679528,-1.9464291470048791,0.9381660436782584,-5.07744151436407,0.7028270760018351,862.5
691,5.093295829280466,-2.1234677603191643,-1.94642914278801,0.9381660031517389,-5.077441512533486,0.7800962847177906,863.75
692,5.09329582105888,-2.123467728813753,-1.9464291404621923,0.93816596929858,-5.077441504563009,0.8473654934337936,865.0
693,5.093295814059486,-2.1234677019918236,-1.9464291384821215,0.9381659404779106,-5.077441497777395,0.904634702149839,866.25
694,5.093295808282283,-2.123467679853377,-1.946429136847796,0.9381659166897292,-5.077441492176643,0.9519039108659224,867.5
695,5.093295803727271,-2.1234676623984123,-1.9464291355592187,0.9381658979340377,-5.077441487760753,0.9891731195820028,868.75
696,5.0932958003944515,-2.123467649626929,-1.9464291346163898,0.9381658842108359,-5.077441484529727,1.0164423282980737,870.0
697,5.093295798283823,-2.123467641538927,-1.9464291340193096,0.9381658755201242,-5.077441482483563,1.0337115370141348,871.25
698,5.0927912495104986,-2.1244580700429125,-1.9444872509747493,0.937214146694222,-5.076938145744952,1.042257374514723,872.5
699,5.091293811160832,-2.127397557266961,-1.9387239712835713,0.9343895394563012,-5.075444304571614,1.0420742375687368,873.75
700,5.090832971914336,-2.1283021947563068,-1.9369503089077476,0.9335202591990774,-5.074984572932651,1.0332504993579656,875.0
701,5.090832974203775,-2.128302200637852,-1.9369503116200668,0.9335202580990062,-5.074984576414984,1.0156218417324665,876.25
702,5.090832977791916,-2.128302209855752,-1.9369503158709707,0.9335202563749101,-5.074984581872698,0.987993184106956,877.5
703,5.09083298267876,-2.1283022224100066,-1.93695032166046,0.9335202540267897,-5.074984589305794,0.9503645264814273,878.75
704,5.090832988864308,-2.1283022383006163,-1.9369503289885344,0.9335202510546449,-5.074984598714272,0.9027358688559157,880.0
705,5.090832997132812,-2.128302257876111,-1.936950337446927,0.9335202485571943,-5.074984616946989,0.8451072240552817,881.25
706,5.090833006871551,-2.128302280864192,-1.9369503473546092,0.9335202456760304,-5.074984638653068,0.7774785797834485,882.5
707,5.090833009220729,-2.128302314763137,-1.9369503537641457,0.9335202758070935,-5.0749846453171195,0.6998499475495852,883.75
708,5.090833008487257,-2.1283023559112544,-1.9369503590942414,0.9335203226499708,-5.074984645839142,0.6122213200285935,885.0
709,5.090833007655872,-2.1283024018480585,-1.9369503649486473,0.9335203752378032,-5.074984646295806,0.5145927049524862,886.25
710,5.090832998024624,-2.128302450068815,-1.9369503730501294,0.9335204317985132,-5.074984636965967,0.4069640968749958,887.5
711,5.0908329813082265,-2.128302501049471,-1.9369503830750971,0.9335204926078791,-5.074984619779144,0.2893354967794434,888.75
712,5.09083296018739,-2.128302554617533,-1.9369503943556867,0.933520557195155,-5.074984598157352,0.16170690445217037,890.0
713,5.0908329241403365,-2.1283026046152678,-1.9369504083089852,0.9335206206721083,-5.074984561662522,0.02407831739105147,891.25
714,5.0908328830531975,-2.12830265580571,-1.9369504234676687,0.9335206864922712,-5.074984520113923,-0.12355026831381646,892.5
715,5.090832826222925,-2.128302697402071,-1.9369504406779159,0.9335207446280129,-5.074984462890057,-0.2811788471423008,893.75
716,5.090832761938649,-2.128302733680518,-1.9369504587600481,0.9335207982511642,-5.074984398249551,-0.44739328440708126,895.0
717,5.090832693101243,-2.1283027565942962,-1.9369504760738625,0.9335208377207691,-5.074984329162268,-0.6075008554326837,896.25
718,5.090832625540729,-2.1283027665069887,-1.9369504914493294,0.933520862289934,-5.074984261460416,-0.7576084264583982,897.5
719,5.090832560457278,-2.1283027680126914,-1.9369505052267209,0.9335208768963423,-5.074984196307266,-0.8977159974842994,898.75
720,5.090832500238964,-2.1283027598147486,-1.9369505167408776,0.9335208796054698,-5.0749841361037085,-1.0278235685102834,900.0
721,5.090832444812707,-2.1283027451025287,-1.9369505264171807,0.9335208740249873,-5.074984080750248,-1.1479311395364495,901.25
722,5.090832394673972,-2.128302729563569,-1.9369505348835916,0.9335208664642445,-5.0749840306957905,-1.258038710562684,902.5
723,5.090832352525397,-2.1283027049564067,-1.9369505405162533,0.9335208471022398,-5.0749839887134485,-1.3581462815890388,903.75
724,5.09083231458715,-2.128302682807319,-1.9369505455862492,0.9335208296743529,-5.074983950924828,-1.4482538526154831,905.0
725,5.090832280960636,-2.1283026629756505,-1.9369505500543311,0.9335208140020088,-5.074983917432586,-1.5283614236420031,906.25
726,5.090832256669474,-2.128302638493495,-1.936950551975991,0.9335207912386078,-5.074983893322333,-1.5984689946685764,907.5
727,5.090832235843154,-2.1283026175034236,-1.9369505536235492,0.9335207717221314,-5.074983872651117,-1.6585765656952036,908.75
728,5.090832218481673,-2.128302600005438,-1.9369505549970027,0.9335207554525782,-5.074983855418937,-1.7086841367218422,910.0
729,5.090832204585036,-2.1283025859995366,-1.9369505560963547,0.9335207424299499,-5.074983841625794,-1.7487917077485209,911.25
730,5.09083219415324,-2.1283025754857197,-1.936950556921606,0.9335207326542468,-5.074983831271689,-1.7788992787751756,912.5
731,5.090832187186284,-2.1283025684639867,-1.9369505574727561,0.9335207261254689,-5.074983824356621,-1.7990068498018201,913.75
732,5.090656761711417,-2.1286523976351246,-1.9362641914944498,0.933184098980854,-5.074808834880833,-1.809677956442353,915.0
733,5.08925531226782,-2.1314472195543663,-1.9307807960256256,0.9304948038234065,-5.073410868489789,-1.8123487166804593,916.25
734,5.088402248143475,-2.133148439524731,-1.9274430345340847,0.9288578197924896,-5.0725599258909275,-1.8056586402392016,917.5
735,5.088402253625058,-2.1331484429009016,-1.9274430356943517,0.9288578169386892,-5.07255993450031,-1.7908884099938165,918.75
736,5.088402262817879,-2.1331484485628662,-1.9274430376401628,0.9288578121527589,-5.072559948938567,-1.7661181797484362,920.0
737,5.088402275721937,-2.133148456510625,-1.9274430403715184,0.9288578054346985,-5.072559969205699,-1.7313479495030253,921.25
738,5.088402292337233,-2.1331484667441787,-1.9274430438884183,0.9288577967845084,-5.072559995301706,-1.6865777192576263,922.5
739,5.0884023121629625,-2.133148478810878,-1.9274430486654883,0.9288577845282922,-5.072560022832,-1.6318075037024011,923.75
740,5.0884023353478005,-2.133148492845103,-1.927443054561825,0.9288577691629833,-5.072560053101216,-1.5670372951845524,925.0
741,5.088402364138117,-2.1331485099444167,-1.9274430563165361,0.9288577661414319,-5.072560085587117,-1.4922670939644165,926.25
742,5.0884023994212475,-2.1331485305022744,-1.9274430517169054,0.9288577819091192,-5.072560119213721,-1.4074969016134116,927.5
743,5.088402438856797,-2.133148553555679,-1.9274430465106107,0.9288577998391082,-5.072560156720538,-1.3127267189287712,928.75
744,5.0884024838767825,-2.1331485749965786,-1.927443039885661,0.9288578149651008,-5.072560200246217,-1.2079565431787327,930.0
745,5.088402536521804,-2.1331485889899575,-1.9274430306544608,0.9288578203283309,-5.0725602528074765,-1.0931863759516343,931.25
746,5.088402593756016,-2.1331486042034644,-1.9274430206178792,0.9288578261614941,-5.0725603099677565,-0.9684162180995644,932.5
747,5.088402655948108,-2.133148604449017,-1.9274430076333808,0.9288578140769523,-5.072560372216341,-0.8336460661275873,933.75
748,5.088402722795867,-2.1331486029226374,-1.9274429934485444,0.9288577990619765,-5.072560439139889,-0.6888759150906894,935.0
749,5.088402789581077,-2.133148583397267,-1.9274429769541408,0.9288577637734161,-5.072560506147578,-0.5341057699074172,936.25
750,5.0884028589141295,-2.1331485581882608,-1.9274429591931503,0.9288577215723094,-5.072560575752213,-0.3694173466653213,937.5
751,5.088402917315404,-2.1331485155042142,-1.9274429414646184,0.9288576618497018,-5.072560634560897,-0.20645514428404133,938.75
752,5.088402967668094,-2.1331484709432504,-1.927442925178057,0.9288576016123218,-5.072560685329465,-0.05349294190265812,940.0
753,5.088403004886985,-2.1331484193844634,-1.9274429107367594,0.928857536099859,-5.07256072301082,0.08946926047885019,941.25
754,5.088403035229607,-2.1331483689391444,-1.9274428978780072,0.9288574732098671,-5.072560753800518,0.2224314628605326,942.5
755,5.088403052593967,-2.13314831604708,-1.9274428874192466,0.9288574101432632,-5.072560771620783,0.3453936652423336,943.75
756,5.088403068546156,-2.13314826745651,-1.9274428778110462,0.9288573522055991,-5.0725607879918,0.45835586762425634,945.0
757,5.088403071445622,-2.133148220077788,-1.9274428710905296,0.928857298229639,-5.072560791288389,0.561318070006265,946.25
758,5.088403072435923,-2.1331481768686436,-1.9274428653075522,0.9288572493327848,-5.072560792639391,0.6542802723883678,947.5
759,5.0884030733196965,-2.1331481383075355,-1.92744286014665,0.9288572056957932,-5.072560793845065,0.7372424747705526,948.75
760,5.08840306720459,-2.1331481045518563,-1.9274428570703748,0.9288571688667803,-5.072560788005616,0.8102046771527922,950.0
761,5.088403059600354,-2.133148075475784,-1.927442854909565,0.9288571376081826,-5.072560780636741,0.8731668795350858,951.25
762,5.088403053203864,-2.133148051017733,-1.9274428530919445,0.9288571113142445,-5.072560774438232,0.9261290819174094,952.5
763,5.08840304801512,-2.1331480311777025,-1.9274428516175148,0.9288570899849669,-5.072560769410088,0.9690912842997543,953.75
764,5.0884030440341235,-2.133148015955692,-1.927442850486277,0.9288570736203503,-5.072560765552308,1.002053486682111,955.0
765,5.0884030412608725,-2.1331480053517016,-1.9274428496982319,0.9288570622203949,-5.072560762864893,1.0250156890644293,956.25
766,5.088394377503473,-2.1331655481482374,-1.9274083957180599,0.9288401468195401,-5.072552121422221,1.0380100684328055,957.5
767,5.087289144259267,-2.135404645437671,-1.9230123735116762,0.926682684385906,-5.071449729197998,1.0433299228974864,958.75
768,5.0860520091826,-2.1379109700829253,-1.9180917126633947,0.9242677441250802,-5.070215774490679,1.0389255380824993,960.0
769,5.086005445590278,-2.1380053107613897,-1.9179065033565448,0.9241768462889914,-5.070169331450735,1.0268621537242908,961.25
770,5.086005448409611,-2.1380053179664316,-1.9179065067098644,0.9241768449378793,-5.070169335825032,1.0049673580746068,962.5
771,5.086005452516617,-2.1380053284622287,-1.9179065115947447,0.9241768429696746,-5.0701693421972,0.9730725624248973,963.75
772,5.0860054579112965,-2.138005342248782,-1.917906518011185,0.9241768403843771,-5.070169350567239,0.9311777667751906,965.0
773,5.0860054648875535,-2.1380053594621735,-1.9179065257998515,0.9241768376167876,-5.070169363529011,0.87928297448743,966.25
774,5.0860054737139375,-2.1380053802267445,-1.9179065348151587,0.9241768350641905,-5.070169383452566,0.8173881875247557,967.5
775,5.086005482120805,-2.138005405905787,-1.9179065442439782,0.9241768390564897,-5.070169402729816,0.7454934032212772,968.75
776,5.086005481443273,-2.1380054438219096,-1.9179065491892076,0.9241768822583806,-5.070169403213347,0.6635986325100176,970.0
777,5.086005480676485,-2.138005486409717,-1.9179065547001035,0.9241769309155247,-5.070169403697906,0.5717038677205877,971.25
778,5.086005479512384,-2.1380055335991406,-1.917906560821185,0.9241769850425683,-5.070169403817763,0.4698091102008739,972.5
779,5.086005463802145,-2.1380055814062113,-1.9179065702889164,0.9241770421361277,-5.070169387664139,0.35791436410763117,973.75
780,5.086005446686306,-2.1380056334842323,-1.9179065806043902,0.9241771043263005,-5.070169370052907,0.23601962548135869,975.0
781,5.086005418412,-2.13800568413244,-1.9179065930878156,0.9241771670942154,-5.070169341307334,0.10412489321131467,976.25
782,5.086005381691212,-2.1380057349362382,-1.9179066073715054,0.9241772316984055,-5.070169304124266,-0.03776983638465068,977.5
783,5.086005333554681,-2.138005780437893,-1.9179066233633972,0.924177292601283,-5.07016925556142,-0.18966456192400388,978.75
784,5.0860052758818695,-2.1380058225283562,-1.9179066409140424,0.9241773515601986,-5.070169197483557,-0.3515589199625205,980.0
785,5.086005209426928,-2.1380058492620853,-1.9179066583185476,0.9241773949549451,-5.070169130744472,-0.5133334539884874,981.25
786,5.086005144948852,-2.1380058706424823,-1.917906674615041,0.9241774319193824,-5.070169066028934,-0.6651079880145807,982.5
787,5.086005080050686,-2.1380058727826667,-1.9179066885081302,0.9241774472733724,-5.070169001054403,-0.8068825220406727,983.75
788,5.086005019565977,-2.1380058741450907,-1.9179067013745268,0.9241774608703405,-5.070168940503828,-0.938657056066848,985.0
789,5.086004963986243,-2.1380058616686517,-1.9179067114197519,0.9241774578853007,-5.070168884978785,-1.0604315900930492,986.25
790,5.086004913018263,-2.1380058481406965,-1.9179067203612359,0.9241774527950296,-5.07016883407847,-1.1722061241192887,987.5
791,5.086004867908928,-2.1380058318714745,-1.9179067277185626,0.9241774434456292,-5.070168789065081,-1.273980658145554,988.75
792,5.086004829727492,-2.1380058096077152,-1.9179067328461148,0.9241774259556828,-5.070168751036135,-1.3657551921718474,990.0
793,5.0860047957064065,-2.138005789769878,-1.9179067374149499,0.924177410371485,-5.070168717150923,-1.447529726198153,991.25
794,5.086004765845671,-2.13800577235796,-1.9179067414250723,0.9241773966930387,-5.070168687409447,-1.519304260224469,992.5
795,5.086004744123193,-2.138005751868398,-1.91790674332921,0.9241773779216272,-5.07016866583938,-1.581078794250768,993.75
796,5.086004726396817,-2.138005734031999,-1.9179067447385247,0.9241773613449478,-5.070168648246745,-1.6328533282770357,995.0
797,5.086004712094206,-2.1380057196406135,-1.9179067458756367,0.9241773479699732,-5.070168634052042,-1.674627862303271,996.25
798,5.086004701215356,-2.1380057086942434,-1.9179067467405444,0.9241773377967026,-5.070168623255269,-1.706402396329533,997.5
