AdelaJim/TFM_AdelaJimenez/workspace/ros_ur_driver/src/trayectories/data/saved_trajectories/20250204_1655_trajectory.csv
,shoulder_pan_joint,shoulder_lift_joint,elbow_joint,wrist_1_joint,wrist_2_joint,wrist_3_joint,time_from_start
0,1.576460421226447,-1.0623020168543595,2.2651053277761317,-4.131508024595944,-1.679669802816343,-0.020414499443672053,0.0
1,1.5754911995740006,-1.0625341655243092,2.2636959211200915,-4.131066226468117,-1.6774844405312739,-0.015414499443672054,1.25
2,1.572583534616661,-1.0632306115341583,2.259467701151972,-4.129740832084637,-1.6709283536760666,-0.0004144994436721134,2.5
3,1.5677374263544286,-1.0643913548839072,2.2524206678717724,-4.127531841445504,-1.6600015422507215,0.0245855005563278,3.75
4,1.5609556380722196,-1.0660126216767791,2.242552577316158,-4.124443599502154,-1.6447114493228046,0.059585505135496986,5.0
5,1.5524465153635456,-1.0678098211666236,2.229694144524271,-4.12080375285901,-1.6256192841932284,0.10458607603786296,6.25
6,1.542501775320911,-1.0693845650351692,2.2136085128776974,-4.117070975630698,-1.6035107966873823,0.15958761416143352,7.5
7,1.5313776558510321,-1.0703905369108058,2.194089075951779,-4.113642275122186,-1.5790858935820276,0.22459007385708918,8.75
8,1.519345250148068,-1.0705240423092466,2.1709397803019024,-4.110834803744796,-1.5532581839085389,0.29959336723323327,10.0
9,1.5070848838882753,-1.0694785415393848,2.1447805694525486,-4.109066535885421,-1.5277711549065596,0.3819649526452822,11.25
10,1.4967593678872824,-1.0675843873084183,2.1204263861822197,-4.108426419768266,-1.507245747894925,0.4567102450210552,12.5
11,1.4884076979448513,-1.0652597315267163,2.098872852553252,-4.108543594920146,-1.4914529671453578,0.5214567601406974,13.75
12,1.4817419349923404,-1.0628542088805473,2.080334118981244,-4.10901906564205,-1.479508756822292,0.5762038337460423,15.0
13,1.4765503042855028,-1.0606131547672513,2.064973151679013,-4.1096088774419375,-1.470707446221625,0.6209514441910325,16.25
14,1.4726769828875337,-1.0587035102214926,2.052916510989321,-4.110190857830752,-1.4644653179838558,0.6556993931848819,17.5
15,1.4700009518185613,-1.0572549235542907,2.044262475531486,-4.110670125523541,-1.4603290388783858,0.6804475581280048,18.75
16,1.4682014573370772,-1.0562560135419248,2.0383808289931404,-4.111007187612969,-1.4575814647778753,0.6951978404830705,20.0
17,1.465356934460438,-1.0546770474153273,2.029083590364812,-4.111539619508848,-1.4532383320786444,0.6999602744919561,21.25
18,1.4625553420014894,-1.0531219357739618,2.0199267126821816,-4.112063815858622,-1.4489607752384461,0.6947264193247096,22.5
19,1.4617487945002914,-1.0526742633070916,2.01729059796115,-4.112214503641676,-1.4477293450309014,0.6821717250944387,23.75
20,1.4617487135973004,-1.052674268337116,2.0172904244836847,-4.112214106931467,-1.4477292791033893,0.6617266129479696,25.0
21,1.4617485931234866,-1.052674275827398,2.017290166155881,-4.112213516184557,-1.4477291809297774,0.6312815008014996,26.25
22,1.4617484408700405,-1.0526742836746386,2.017289820370935,-4.11221273666622,-1.4477291117654567,0.5908364060827933,27.5
23,1.4617482577850702,-1.0526742916228828,2.0172893868115676,-4.112211769017087,-1.4477290790647412,0.5403913250527006,28.75
24,1.4617480384061803,-1.0526743011467503,2.0172888673053913,-4.112210609545655,-1.4477290398815872,0.47994624402260827,30.0
25,1.4617480024296055,-1.052674272361837,2.017288801413825,-4.112210491912403,-1.4477290514057246,0.4095011661734088,31.25
26,1.4617479941040812,-1.0526742335437582,2.01728880662065,-4.11221054152711,-1.4477290730931143,0.3290560888058665,32.5
27,1.4617479845103147,-1.052674188057096,2.017288810961133,-4.112210604930002,-1.4477290956113675,0.23861102272952725,33.75
28,1.4617479648043255,-1.0526741429967799,2.0172888184309676,-4.112210665845739,-1.4477290941235583,0.1381659619572935,35.0
29,1.461747932275178,-1.0526740999987532,2.0172888298273426,-4.112210721415538,-1.4477290606632403,0.027720907670048367,36.25
30,1.4617478967583657,-1.05267405313749,2.0172888422851853,-4.112210781912691,-1.447729023840361,-0.09272414389236115,37.5
31,1.461747844601535,-1.052674015808304,2.017288857051526,-4.112210833589031,-1.4477289711732044,-0.22316919448433878,38.75
32,1.4617477876533913,-1.0526739763986115,2.017288873026111,-4.112210888411835,-1.4477289137338214,-0.36361423803272536,40.0
33,1.461747716501101,-1.0526739506985225,2.0172888899432766,-4.112210930362333,-1.447728842252746,-0.5140592738577299,41.25
34,1.4617476413197412,-1.0526739269929928,2.017288907372419,-4.112210970798232,-1.4477287667660523,-0.6693549484828748,42.5
35,1.4617475648746396,-1.0526739250300001,2.0172889222426624,-4.112210986915894,-1.4477286902141913,-0.8154481761869488,43.75
36,1.4617474936167574,-1.0526739233628324,2.0172889360829136,-4.112211001756274,-1.4477286188582774,-0.9515414038910204,45.0
37,1.4617474279521216,-1.0526739389897388,2.0172889466265413,-4.112210996052589,-1.4477285532625936,-1.07763463159509,46.25
38,1.461747367507702,-1.0526739539824237,2.0172889562536533,-4.112210990115728,-1.4477284928872873,-1.1937278592991571,47.5
39,1.461747314888353,-1.0526739752818068,2.0172889635723177,-4.112210975634959,-1.4477284404046782,-1.299821087003223,48.75
40,1.461747269192985,-1.0526740002732116,2.017288969091555,-4.112210955726397,-1.447728394888355,-1.3959143147072863,50.0
41,1.461747228252933,-1.052674022663868,2.0172889740364237,-4.11221093788963,-1.4477283541087158,-1.4820075424113441,51.25
42,1.4617471946371128,-1.052674045827755,2.0172889774812157,-4.112210917847924,-1.4477283206689786,-1.5581007701154037,52.5
43,1.4617471687362225,-1.052674070278009,2.0172889792851425,-4.112210894950848,-1.447728294965057,-1.6241939978194653,53.75
44,1.4617471467541736,-1.052674091028904,2.017288980816132,-4.112210875518132,-1.4477282731501757,-1.6802872255235288,55.0
45,1.461747128690967,-1.0526741080804398,2.0172889820741817,-4.112210859549773,-1.4477282552243342,-1.7263804532275933,56.25
46,1.4617471145466019,-1.0526741214326176,2.017288983059296,-4.112210847045777,-1.4477282411875334,-1.7624736809316575,57.5
47,1.4617471043210786,-1.052674131085437,2.017288983771474,-4.11221083800614,-1.4477282310397723,-1.7885669086357208,58.75
48,1.4617470980143972,-1.0526741370388983,2.017288984210716,-4.112210832430865,-1.4477282247810515,-1.804660136339784,60.0
49,1.461969262867549,-1.0514378566196343,2.014887533671019,-4.111046124925993,-1.4479549984585864,-1.8122977656541792,61.25
50,1.462498577055601,-1.048492158809235,2.0091655595960765,-4.108270950959516,-1.4484952942829492,-1.8110977407602629,62.5
51,1.4626053971157031,-1.0478965086414944,2.0080083988754325,-4.107709663096968,-1.4486043359608929,-1.8017092963065138,63.75
52,1.4626050107922586,-1.0478962245513004,2.0080076018438477,-4.107709149838149,-1.4486039527927406,-1.7831984088022999,65.0
53,1.462604415768154,-1.0478957869891596,2.008006374237777,-4.107708359305309,-1.448603362628488,-1.754687521298084,66.25
54,1.4626036120433892,-1.0478951959550722,2.008004716057222,-4.107707291498448,-1.4486025654681358,-1.7161766337938686,67.5
55,1.46260259963565,-1.047894451452147,2.0080026273026514,-4.107705946394786,-1.4486015614458216,-1.6676657474880543,68.75
56,1.462601378910107,-1.047893553544538,2.008000107983601,-4.107704323523734,-1.448600353331674,-1.6091548833836509,70.0
57,1.4625999495522766,-1.0478925021769478,2.007997158091684,-4.107702423290338,-1.4485989387406326,-1.5406440192792505,71.25
58,1.462599705166097,-1.0478922828395179,2.007996586214896,-4.107702070592857,-1.4485986975686949,-1.4621331683755334,72.5
59,1.4625997470513432,-1.0478922600194849,2.007996581170752,-4.1077020885828315,-1.4485987399503086,-1.3736223218248829,73.75
60,1.4625997936628037,-1.047892234656971,2.0079965755874034,-4.107702108461827,-1.4485987870733368,-1.2751114866755688,75.0
61,1.4625998482949543,-1.047892216444966,2.007996567493326,-4.107702118963378,-1.448598841825858,-1.166600659557747,76.25
62,1.4625999095493083,-1.0478922012493839,2.007996557714636,-4.107702124932581,-1.44859890299492,-1.0480898402670027,77.5
63,1.4625999760796515,-1.0478921899148972,2.007996546423136,-4.10770212558461,-1.4485989694823356,-0.9195790284866762,78.75
64,1.4626000480783101,-1.047892191583512,2.0079965323973745,-4.107702110569343,-1.448599041579508,-0.7810682214893205,80.0
65,1.4626001237822592,-1.0478921986809846,2.0079965169595715,-4.1077020887463815,-1.4485991174373796,-0.6325574164579589,81.25
66,1.4626001999650877,-1.0478922226807004,2.007996499246603,-4.107702047744341,-1.4485991939335388,-0.47404661817370075,82.5
67,1.4626002738735422,-1.0478922576991805,2.007996480546441,-4.1077019947113,-1.4485992682556181,-0.30769336456472063,83.75
68,1.4626003379581374,-1.0478923020423359,2.007996462526001,-4.10770193293762,-1.4485993328294686,-0.1484724375507675,85.0
69,1.4626003869225188,-1.0478923540741738,2.0079964464125126,-4.107701865237139,-1.4485993823372763,0.0007484894631876841,86.25
70,1.4626004275407354,-1.0478924074001712,2.0079964317327104,-4.107701797597064,-1.4485994235012567,0.13996941647714445,87.5
71,1.4626004540833581,-1.0478924629991995,2.007996419459106,-4.107701729956691,-1.4485994505944362,0.2691903434911028,88.75
72,1.4626004728466548,-1.047892517427261,2.0079964088289186,-4.107701665057724,-1.4485994698882578,0.38841127050506197,90.0
73,1.4626004862284816,-1.0478925682350286,2.007996399698628,-4.107701605229377,-1.4485994837604907,0.49763219751902343,91.25
74,1.4626004872466092,-1.0478926171554248,2.0079963931836367,-4.107701549787727,-1.448599485236939,0.5968531245329837,92.5
75,1.4626004881621244,-1.0478926611453665,2.0079963873252544,-4.107701499933771,-1.4485994865645835,0.6860740515469466,93.75
76,1.4626004877997276,-1.0478927001776117,2.0079963823524403,-4.107701455912638,-1.4485994865664955,0.7652949785609098,95.0
77,1.462600478268598,-1.0478927340692428,2.0079963798023646,-4.1077014193700645,-1.4485994773409234,0.8345159055748712,96.25
78,1.4626004701143829,-1.0478927630647197,2.007996377620685,-4.107701388106614,-1.4485994694481235,0.8937368325888331,97.5
79,1.4626004633370824,-1.0478927871640416,2.0079963758073998,-4.107701362122285,-1.4485994628880958,0.9429577596027909,98.75
80,1.462600457936696,-1.0478928063672095,2.0079963743625107,-4.107701341417077,-1.44859945766084,0.9821786866167481,100.0
81,1.4626004539132242,-1.047892820674224,2.0079963732860193,-4.107701325990992,-1.4485994537663567,1.0113996136307046,101.25
82,1.462600451266667,-1.047892830085085,2.0079963725779253,-4.10770131584403,-1.448599451204645,1.0306205406446642,102.5
83,1.462678680888647,-1.0474504879214732,2.0071363906653397,-4.1072838398565334,-1.4486793376889755,1.040530730414983,103.75
84,1.4631906407861528,-1.0445556145653796,2.001508362835324,-4.104551757167218,-1.449202140479245,1.0424465857090361,105.0
85,1.463446711752926,-1.0431067518762827,1.9986914904263244,-4.103184283585084,-1.4494636393869496,1.035328654326005,106.25
86,1.4634463943442704,-1.0431065057912587,1.998690816513803,-4.103183855212871,-1.4494633254987435,1.0199541368299978,107.5
87,1.4634458704844824,-1.0431060996459118,1.998689704270439,-4.103183148215839,-1.4494628074492,0.9945796193339913,108.75
88,1.4634451401735618,-1.043105533440242,1.9986881536962324,-4.10318216259399,-1.4494620852383184,0.9592051018379886,110.0
89,1.463444203411508,-1.0431048071742486,1.9986861647911829,-4.103180898347325,-1.449461158866099,0.9138305843419837,111.25
90,1.4634430599611985,-1.0431039206778503,1.9986837374331934,-4.10317935623134,-1.4494600263466728,0.8584560715436722,112.5
91,1.4634417099245414,-1.043102874024142,1.998680871674705,-4.103177535921255,-1.4494586885336573,0.7930815604421443,113.75
92,1.4634409704002436,-1.043102281636695,1.9986793053803567,-4.103176561448698,-1.4494579552283136,0.7177070576053751,115.0
93,1.463440969445184,-1.0431022398092762,1.9986793109305523,-4.103176609029461,-1.4494579532533034,0.6323325626628321,116.25
94,1.463440968373356,-1.0431021931144486,1.9986793171583426,-4.10317666205504,-1.4494579510084513,0.5369580781089552,117.5
95,1.4634409613717154,-1.0431021429950085,1.9986793249878962,-4.103176719990202,-1.449457943018398,0.43158360040375565,118.75
96,1.463440943343267,-1.0431020907262465,1.9986793352384271,-4.103176782323082,-1.4494579244717511,0.3162091311095424,120.0
97,1.4634409237531623,-1.0431020339272994,1.9986793463774504,-4.103176850057497,-1.4494579043251246,0.1908346705750184,121.25
98,1.463440885173601,-1.0431019821224694,1.998679360514624,-4.103176915648458,-1.4494578652142573,0.05546021627468277,122.5
99,1.4634408430647825,-1.043101926862106,1.9986793757782764,-4.1031769857906735,-1.4494578225376091,-0.08991423750526888,123.75
100,1.4634407820321802,-1.0431018829294607,1.9986793932151772,-4.103177046595113,-1.4494577610200285,-0.2452886849224444,125.0
101,1.46344071407499,-1.0431018404872852,1.998679411791307,-4.103177106982109,-1.4494576925836113,-0.41043608612769195,126.25
102,1.463440636602245,-1.0431018161040941,1.9986794298580637,-4.103177148704642,-1.449457614790282,-0.5727969555523157,127.5
103,1.4634405617825663,-1.043101800754916,1.9986794462435813,-4.10317717973422,-1.4494575397381078,-0.7251578249769273,128.75
104,1.4634404883140317,-1.043101799068522,1.9986794605985192,-4.103177195078903,-1.449457466167165,-0.8675186944014891,130.0
105,1.4634404201326099,-1.0431018035698043,1.9986794731342579,-4.103177202464911,-1.4494573979477572,-0.9998795638260243,131.25
106,1.4634403573404557,-1.043101819164315,1.998679483195423,-4.103177196330724,-1.4494573352282931,-1.122240433250554,132.5
107,1.4634402996800204,-1.0431018334843536,1.998679492434328,-4.103177190697852,-1.4494572776346073,-1.2346013026750793,133.75
108,1.463440251378843,-1.0431018587888627,1.9986794984488738,-4.103177170941465,-1.4494572295145116,-1.336962172099599,135.0
109,1.4634402080895952,-1.0431018824715395,1.9986795037092278,-4.103177152100798,-1.4494571863969967,-1.4293230415241163,136.25
110,1.4634401694873156,-1.0431019035900682,1.9986795084000346,-4.103177135300026,-1.4494571479478566,-1.5116839109486329,137.5
111,1.4634401402332562,-1.0431019282614322,1.998679510831694,-4.103177112774849,-1.4494571188913614,-1.5840447803731492,138.75
112,1.463440116146331,-1.0431019509987736,1.9986795125197603,-4.103177091489751,-1.4494570949898986,-1.646405649797663,140.0
113,1.4634400959219125,-1.043101970090023,1.9986795139371312,-4.103177073617867,-1.449457074921202,-1.6987665192221868,141.25
114,1.4634400795599998,-1.0431019855351806,1.9986795150838075,-4.1031770591591945,-1.449457058685271,-1.7411273886467131,142.5
115,1.4634400670605934,-1.0431019973342477,1.9986795159597917,-4.103177048113737,-1.4494570462821068,-1.7734882580712372,143.75
116,1.4634400584236935,-1.0431020054872238,1.9986795165650835,-4.103177040481493,-1.4494570377117084,-1.7958491274957624,145.0
117,1.463445187309932,-1.0430725162351813,1.9986221290286188,-4.103149152954719,-1.4494622776196513,-1.8082636663924696,146.25
118,1.463855336709229,-1.0407161366553537,1.994037171932323,-4.100921438644127,-1.4498812940721308,-1.813137225575466,147.5
119,1.464268493320129,-1.0383418639654256,1.989417341433803,-4.098676750510396,-1.4503033855845429,-1.808396424946302,148.75
120,1.4642743252522603,-1.0383067478339483,1.9893488567039432,-4.098643394509471,-1.4503093510439005,-1.7961070166659576,150.0
121,1.4642738817867154,-1.038306382610848,1.9893478619698817,-4.098642764649818,-1.4503089114584098,-1.7738817883518574,151.25
122,1.4642732387886666,-1.038305853059582,1.9893464196660369,-4.0986418513916565,-1.4503082740862037,-1.7416565600377538,152.5
123,1.4642723962581146,-1.0383051591801502,1.9893445297924088,-4.0986406547349885,-1.4503074389272823,-1.6994313317236502,153.75
124,1.4642713543479766,-1.0383043010024302,1.9893421923557435,-4.0986391744688,-1.4503064071561087,-1.6472061121716175,155.0
125,1.4642701131631994,-1.038303278546892,1.9893394073605486,-4.098637410448118,-1.45030517957908,-1.5849809046308463,156.25
126,1.4642689748550655,-1.0383023313812798,1.9893368368625033,-4.09863578578719,-1.4503040539080323,-1.5127557002267924,157.5
127,1.4642690132093037,-1.0383023104746378,1.9893368322129295,-4.0986358022553135,-1.4503040927146278,-1.4305305085904625,158.75
128,1.4642690562248424,-1.038302287044099,1.989336827014168,-4.0986358206509514,-1.4503041362151836,-1.3383053233526268,160.0
129,1.4642691041548321,-1.0383022618428188,1.989336821118577,-4.09863584008019,-1.4503041846247282,-1.236080145389711,161.25
130,1.4642691613332592,-1.0383022476402346,1.9893368119351575,-4.09863584562076,-1.4503042417251244,-1.1238549784556158,162.5
131,1.4642692236059054,-1.0383022321715718,1.9893368019330562,-4.098635851657527,-1.4503043039075119,-1.0016298193428557,163.75
132,1.4642692912255835,-1.0383022274555687,1.9893367894961362,-4.098635844573599,-1.4503043715549997,-0.8694046665152961,165.0
133,1.4642693641005207,-1.0383022291113855,1.98933677521365,-4.098635829331532,-1.4503044445309878,-0.7271795162142973,166.25
134,1.4642694383981782,-1.0383022440408665,1.9893367589309445,-4.0986357988245725,-1.4503045190577672,-0.5749543701901174,167.5
135,1.4642695152542564,-1.0383022682067427,1.9893367409536529,-4.09863575740781,-1.4503045962338859,-0.41272923047908616,168.75
136,1.4642695829342631,-1.0383023100652582,1.9893367224474168,-4.09863569767626,-1.450304664390468,-0.24749306366963608,170.0
137,1.464269643803565,-1.0383023534885256,1.9893367050524047,-4.098635637425646,-1.4503047257430604,-0.09198793903029209,171.25
138,1.4642696856500848,-1.038302408381184,1.989336689838227,-4.098635567701228,-1.4503047681588335,0.05351718560904292,172.5
139,1.4642697242247196,-1.0383024597179207,1.9893366757179127,-4.098635502596466,-1.4503048072651794,0.1890223102483722,173.75
140,1.4642697436956833,-1.0383025161613664,1.9893366646212585,-4.098635435224626,-1.4503048272935073,0.31452743488769486,175.0
141,1.4642697616152396,-1.0383025681075049,1.9893366544087554,-4.098635373220837,-1.4503048457260177,0.43003255952701375,176.25
142,1.4642697687157695,-1.0383026178594492,1.989336646569913,-4.098635315682276,-1.4503048533058858,0.5355376841663233,177.5
143,1.4642697696821014,-1.0383026642529665,1.9893366403517811,-4.098635263065324,-1.4503048547124835,0.6310428088056304,178.75
144,1.464269770547252,-1.0383027057887817,1.989336634784722,-4.098635215957705,-1.4503048559718015,0.7165479334449364,180.0
145,1.464269766232991,-1.0383027423514837,1.9893366308639973,-4.098635175421629,-1.4503048519984862,0.7920530580842405,181.25
146,1.464269757342356,-1.0383027739547779,1.989336628471421,-4.098635141330961,-1.4503048433964207,0.8575581827235492,182.5
147,1.4642697498089632,-1.0383028007335184,1.989336626444094,-4.098635112444567,-1.450304836107545,0.9130633073628591,183.75
148,1.4642697436328134,-1.0383028226877051,1.9893366247820148,-4.098635088762448,-1.4503048301318588,0.9585684320021772,185.0
149,1.464269738813906,-1.038302839817339,1.9893366234851868,-4.098635070284604,-1.4503048254693627,0.9940735566414928,186.25
150,1.4642697353522418,-1.0383028521224207,1.9893366225536098,-4.098635057011035,-1.4503048221200558,1.019578681280806,187.5
151,1.4642697332478198,-1.0383028596029495,1.9893366219872837,-4.09863504894174,-1.4503048200839388,1.0350838059201204,188.75
152,1.4645094606785782,-1.0369035230334445,1.986611607050295,-4.097309877812346,-1.4505498375456758,1.0422883390937547,190.0
153,1.4650093321659152,-1.0339853766648666,1.9809289057510175,-4.094546380591273,-1.4510607410405698,1.040500124137313,191.25
154,1.4650925114051216,-1.033498544235355,1.9799807487600605,-4.094085232105129,-1.4511457623198254,1.0306783793796623,192.5
155,1.4650921347012908,-1.03349821820979,1.9799798798495372,-4.094084688566588,-1.4511453900383007,1.0116062149844032,193.75
156,1.4650915604824726,-1.0334977212410859,1.9799785553480773,-4.0940838600375615,-1.4511448225605112,0.9825340505891453,195.0
157,1.4650907887486668,-1.0334970533292425,1.9799767752556812,-4.094082746518048,-1.4511440598864573,0.943461886193885,196.25
158,1.4650898194692934,-1.0334962144513637,1.979974539555525,-4.094081348109575,-1.4511431017565535,0.8943897230830834,197.5
159,1.465088652381998,-1.033495204411013,1.979971848103213,-4.094079665683001,-1.4511419459440265,0.8353175705209424,198.75
160,1.4650872877249093,-1.0334940233864836,1.9799687010297335,-4.09407769844768,-1.4511405944703495,0.7662454179588062,200.0
161,1.4650871077332974,-1.0334938344881612,1.979968292235093,-4.094077478563715,-1.4511404153861505,0.6871732795762346,201.25
162,1.4650871067517002,-1.0334937914938842,1.979968297981866,-4.094077527493303,-1.4511404133489165,0.5981011453815134,202.5
163,1.4650871056547607,-1.033493743705081,1.9799683044021184,-4.094077581785489,-1.451140411042093,0.4990290218218108,203.75
164,1.4650870927774815,-1.0334936940335018,1.9799683133731438,-4.09407764031946,-1.4511403974629946,0.38995690695134394,205.0
165,1.465087074434663,-1.033493640887968,1.9799683238654158,-4.0940777037646345,-1.4511403785887813,0.27088479979641283,206.25
166,1.4650870487440113,-1.0334935864545933,1.9799683359463798,-4.094077770025077,-1.4511403523495492,0.14181269994603604,207.5
167,1.4650870090307377,-1.0334935343822893,1.9799683504290166,-4.094077836214403,-1.4511403120941055,0.0027406045066114618,208.75
168,1.4650869613997752,-1.033493483344023,1.979968366310032,-4.0940779026918515,-1.4511402639209854,-0.14633148864053835,210.0
169,1.4650868987345982,-1.0334934400574884,1.9799683840914453,-4.094077963171019,-1.4511402007684584,-0.3054035750916567,211.25
170,1.4650868265798835,-1.0334934055486336,1.9799684025656636,-4.094078015471395,-1.4511401281986456,-0.47176626918865844,212.5
171,1.4650867519440256,-1.033493382103886,1.979968420077248,-4.094078055717757,-1.4511400532501175,-0.630427993988304,213.75
172,1.4650866778595972,-1.0334933748958086,1.979968435364252,-4.094078077503171,-1.4511399790083428,-0.7790897187879775,215.0
173,1.4650866073132909,-1.0334933733093559,1.9799684492328287,-4.094078092280801,-1.4511399083624748,-0.9177514435876856,216.25
174,1.4650865421120511,-1.0334933841881977,1.9799684604404253,-4.094078091979683,-1.451139843186809,-1.0464131683874318,217.5
175,1.4650864820804905,-1.033493399117052,1.9799684701186298,-4.094078086147591,-1.4511397832255897,-1.1650748931872092,218.75
176,1.4650864284983744,-1.0334934168169392,1.97996847818643,-4.094078075995181,-1.4511397297479312,-1.2737366179870107,220.0
177,1.4650863829108494,-1.0334934417654429,1.9799684837605833,-4.0940780561751,-1.4511396843434812,-1.3723983427868294,221.25
178,1.465086341943913,-1.033493464185253,1.9799684887697544,-4.094078038363907,-1.4511396435410635,-1.4610600675866725,222.5
179,1.4650863065807183,-1.0334934853654714,1.9799684928554164,-4.094078020923025,-1.451139608337288,-1.539721792386536,223.75
180,1.4650862804357545,-1.0334935100453797,1.9799684946994516,-4.094077997828328,-1.451139582396114,-1.6083835171864131,225.0
181,1.4650862580985837,-1.0334935311308677,1.9799684962749184,-4.094077978097178,-1.4511395602330526,-1.6670452419863035,226.25
182,1.4650862395692061,-1.0334935486219345,1.979968497581814,-4.094077961729573,-1.4511395418481037,-1.7157069667861986,227.5
183,1.4650862248476213,-1.0334935625185815,1.9799684986201425,-4.094077948725516,-1.4511395272412675,-1.7543686915860914,228.75
184,1.4650862139338299,-1.0334935728208086,1.979968499389903,-4.0940779390850075,-1.4511395164125445,-1.7830304163859834,230.0
185,1.4650862068278312,-1.033493579528616,1.979968499891096,-4.094077932808046,-1.4511395093619341,-1.801692141185873,231.25
186,1.465183757464233,-1.0329150565008918,1.9788409952679076,-4.093529158703447,-1.451239257051483,-1.8112175835293465,232.5
187,1.4656810835487712,-1.0299656705268019,1.9730928525018907,-4.090731459882665,-1.4517477838733006,-1.812602372711923,233.75
188,1.4658977683771042,-1.0286796807971963,1.9705864616527289,-4.089511519913631,-1.45196935324883,-1.805100431155939,235.0
189,1.4658974647581764,-1.0286794019856702,1.970585721861588,-4.089511058706749,-1.4519690524745383,-1.7891943611643768,236.25
190,1.46589697025682,-1.0286789478879,1.9705845169705571,-4.089510307543339,-1.4519685626062135,-1.7632882911728078,237.5
191,1.4658962848730344,-1.028678318503886,1.9705828469796356,-4.089509266423402,-1.4519678836438565,-1.7273822211812342,238.75
192,1.46589540860682,-1.0286775138336282,1.970580711888824,-4.089507935346937,-1.4519670155874669,-1.6814761511896663,240.0
193,1.4658943417442623,-1.0286765339384953,1.9705781117154892,-4.089506313892329,-1.4519659606625652,-1.6255700878604509,241.25
194,1.4658930841329558,-1.0286753787857768,1.9705750464503187,-4.089504402284106,-1.4519647176837323,-1.5596640263131805,242.5
195,1.4658924941076543,-1.0286748072603065,1.970573556639658,-4.0895034833837185,-1.4519641349932602,-1.4837579737064706,243.75
196,1.4658925336134303,-1.028674785718423,1.9705735518215155,-4.089503500323734,-1.451964174958168,-1.3978519279688828,245.0
197,1.4658925777121503,-1.028674761701421,1.9705735464711531,-4.089503519104675,-1.4519642195290086,-1.3019458934450077,246.25
198,1.4658926283663893,-1.0286747409607775,1.9705735393962889,-4.089503533043118,-1.4519642704419933,-1.1960398657219806,247.5
199,1.4658926865898776,-1.0286747264783755,1.9705735299863807,-4.089503538654081,-1.45196432858395,-1.0801338463096495,248.75
200,1.4658927498423773,-1.028674711053264,1.9705735197225887,-4.089503544403357,-1.4519643917456218,-0.9542278352982884,250.0
201,1.4658928185006057,-1.0286747125804934,1.9705735061828464,-4.08950353000041,-1.4519644605001747,-0.8183218307164107,251.25
202,1.4658928922107466,-1.028674714220025,1.9705734916467763,-4.089503514537948,-1.4519645343138816,-0.672415826549566,252.5
203,1.4658929650932964,-1.028674736865493,1.9705734745228263,-4.08950347546642,-1.4519646075014832,-0.5165098293378974,253.75
204,1.4658930397922352,-1.0286747653533481,1.9705734562814083,-4.089503429450809,-1.4519646825636856,-0.35102065624224693,255.0
205,1.4658931030931766,-1.028674809053016,1.97057343826387,-4.08950336833243,-1.4519647463599221,-0.18919789331487086,256.25
206,1.4658931557766355,-1.0286748563821688,1.9705734218342497,-4.089503305068731,-1.4519647995606524,-0.03737513038746503,257.5
207,1.4658931959911592,-1.0286749090885083,1.970573407123565,-4.089503238024597,-1.4519648403289422,0.10444763253995161,258.75
208,1.4658932267941769,-1.0286749616779236,1.9705733942567578,-4.0895031728503035,-1.4519648716732494,0.23627039546737655,260.0
209,1.4658932454285574,-1.0286750156595672,1.9705733835720278,-4.089503108347785,-1.4519648908475824,0.3580931583948095,261.25
210,1.4658932625333072,-1.0286750652100443,1.9705733737643627,-4.0895030491400455,-1.4519649084479624,0.4699159213222433,262.5
211,1.4658932637780921,-1.0286751138955283,1.970573367151363,-4.089502993838882,-1.4519649101609455,0.5717386842497003,263.75
212,1.4658932646943987,-1.0286751578509363,1.9705733612211742,-4.089502943948858,-1.4519649114997115,0.6635614471771508,265.0
213,1.465893265510914,-1.0286751970193584,1.970573355936812,-4.089502899492129,-1.4519649126926788,0.7453842101046022,266.25
214,1.4658932575869141,-1.0286752312085479,1.9705733530022653,-4.089502862281444,-1.451964905086852,0.8172069730320588,267.5
215,1.4658932493142038,-1.0286752606052156,1.9705733507626373,-4.089502830556276,-1.4519648970859529,0.8790297359595161,268.75
216,1.465893242379627,-1.028675285246891,1.9705733488852724,-4.089502803962739,-1.4519648903792208,0.9308524988869642,270.0
217,1.4658932367831832,-1.0286753051335746,1.9705733473701725,-4.089502782500833,-1.4519648849666562,0.9726752618144022,271.25
218,1.465893232524873,-1.028675320265268,1.9705733462173394,-4.089502766170561,-1.4519648808482586,1.0044980247418485,272.5
219,1.4658932296046965,-1.028675330641971,1.970573345426773,-4.08950275497192,-1.4519648780240282,1.0263207876692957,273.75
220,1.465904080706824,-1.0286099519087357,1.9704458151944861,-4.089440626667405,-1.4519759786061377,1.0382609283965334,275.0
221,1.4663158941982286,-1.0261288908317958,1.9656065958106554,-4.087083349140125,-1.4523972568416932,1.0426752916440905,276.25
222,1.4666914922541916,-1.0238653376598525,1.9611915604714099,-4.084932670337771,-1.4527814907219414,1.0374823709793595,277.5
223,1.466693510055533,-1.0238514950762518,1.9611644097772802,-4.084919366635978,-1.4527835634426511,1.024720729761701,278.75
224,1.4666930801647138,-1.0238510814037447,1.9611633334324055,-4.084918703209981,-1.4527831388942558,1.001984674367616,280.0
225,1.4666924611950005,-1.0238504857856445,1.9611617836787283,-4.084917747989305,-1.4527825276167254,0.9692486189735299,281.25
226,1.4666916531463945,-1.0238497082219515,1.9611597605162492,-4.084916500973951,-1.4527817296100605,0.9265125635794467,282.5
227,1.4666906558814765,-1.0238487486053962,1.961157263864408,-4.084914962638828,-1.4527807436918918,0.8737765187059197,283.75
228,1.4666894693444625,-1.0238476068924216,1.9611542936903883,-4.08491313317643,-1.4527795693826886,0.8110404855059223,285.0
229,1.466688448134774,-1.0238466155344974,1.9611517390760085,-4.08491156910376,-1.452778558477345,0.7383044562755803,286.25
230,1.466688447238181,-1.0238465761689397,1.9611517443651028,-4.084911613958907,-1.4527785566206919,0.6555684390801724,287.5
231,1.4666884462299472,-1.0238465320654304,1.9611517503111955,-4.084911664154603,-1.4527785545132872,0.5628324289193797,288.75
232,1.4666884435082417,-1.0238464836283288,1.9611517571772838,-4.08491171952119,-1.45277855063933,0.460096425947206,290.0
233,1.4666884263830438,-1.0238464340459608,1.9611517670333731,-4.084911778777938,-1.4527785330086187,0.34736043341158124,291.25
234,1.4666884077396158,-1.023846380065682,1.9611517777637892,-4.084911843289797,-1.452778513820729,0.22462444918485563,292.5
235,1.4666883753916737,-1.023846328352238,1.9611517908624072,-4.084911907791803,-1.4527784809354969,0.09188847105215851,293.75
236,1.4666883352005928,-1.0238462756996212,1.9611518056105632,-4.08491197481729,-1.4527784401890123,-0.050847504895820406,295.0
237,1.4666882810963686,-1.0238462298336366,1.961151822179843,-4.08491203673993,-1.4527783855770036,-0.20358347625605874,296.25
238,1.4666882178821792,-1.0238461862203032,1.961151840229242,-4.084912097800708,-1.452778321865185,-0.36631944134924604,297.5
239,1.4666881428430836,-1.0238461599148867,1.9611518583112526,-4.084912141465957,-1.4527782464810433,-0.5311880018882886,298.75
240,1.466688070372389,-1.0238461394251241,1.9611518751289696,-4.084912178074511,-1.4527781737245293,-0.6861842889960593,300.0
241,1.4666879976327112,-1.023846137825011,1.9611518895188995,-4.084912193357405,-1.4527781008809242,-0.8311805761038453,301.25
242,1.466687929936872,-1.023846137638333,1.9611519027399915,-4.084912206106672,-1.4527780331009288,-0.9661768632116428,302.5
243,1.4666878675831874,-1.0238461531667515,1.9611519128562847,-4.084912200083348,-1.4527779708211808,-1.0911731503194404,303.75
244,1.4666878102179461,-1.0238461674528563,1.9611519221632423,-4.0849121945419,-1.4527779135239611,-1.206169437427255,305.0
245,1.4666877608253337,-1.0238461891383916,1.9611519289444725,-4.084912179150656,-1.452777864280448,-1.3111657245350745,306.25
246,1.4666877175441513,-1.0238462128336125,1.9611519342704713,-4.084912160353351,-1.4527778211751865,-1.4061620116428954,307.5
247,1.4666876788190608,-1.0238462340344996,1.9611519390358116,-4.084912143534786,-1.4527777826074981,-1.4911582987507224,308.75
248,1.466687647728565,-1.0238462567740159,1.9611519421108485,-4.0849121235611,-1.4527777516985338,-1.5661545858585457,310.0
249,1.4666876233248518,-1.0238462798104906,1.9611519438433804,-4.084912102012914,-1.4527777274873512,-1.6311508729663817,311.25
250,1.4666876026757703,-1.023846299302689,1.9611519453093522,-4.084912083780022,-1.4527777070011785,-1.6861471600742042,312.5
251,1.4666875857813206,-1.0238463152506108,1.961151946508763,-4.084912068862423,-1.452777690240016,-1.7311434471820175,313.75
252,1.4666875726415032,-1.0238463276542578,1.9611519474416164,-4.084912057260119,-1.4527776772038634,-1.7661397342898353,315.0
253,1.4666875632563174,-1.0238463365136294,1.9611519481079118,-4.084912048973112,-1.4527776678927211,-1.7911360213976506,316.25
254,1.4666875576257636,-1.0238463418287262,1.9611519485076496,-4.0849120440014,-1.4527776623065887,-1.8061323085054668,317.5
255,1.4669449299409263,-1.0222711494911139,1.9580772107184934,-4.083413051979962,-1.4530410705621142,-1.8130003472696508,318.75
256,1.4674143974118146,-1.019397549801628,1.9524679890564063,-4.080678439613701,-1.4535215495539213,-1.8107316531867512,320.0
257,1.4674771262271107,-1.0190123074070558,1.9517158847480987,-4.080311712859317,-1.453585755700483,-1.8005624945493557,321.25
258,1.4674767689693196,-1.019011942978946,1.9517149399295284,-4.080311132215805,-1.4535854020257404,-1.7810096093748897,322.5
259,1.4674762289979353,-1.0190113921701016,1.951713511899114,-4.080310254611764,-1.453584867469896,-1.7514567242004198,323.75
260,1.4674755063129572,-1.0190106549805225,1.9517116006568558,-4.080309080047194,-1.4535841520329487,-1.7119038390259536,325.0
261,1.4674746009651778,-1.0190097314220976,1.9517092062067867,-4.080307608442582,-1.453583256114732,-1.662350955644184,326.25
262,1.4674735132195775,-1.0190086215568268,1.9517063285698746,-4.080305839383015,-1.4535821818013666,-1.6027980818369567,327.5
263,1.4674722428219018,-1.0190073253251895,1.951702967725902,-4.080303773266487,-1.4535809270914402,-1.5332452080297259,328.75
264,1.4674721770083792,-1.019007205550438,1.9517027005840535,-4.080303625964797,-1.4535808628907034,-1.4536923488328704,330.0
265,1.467472217617062,-1.0190071834057726,1.9517026956074721,-4.0803036433228765,-1.4535809039543954,-1.3641394936726932,331.25
266,1.4674722627550385,-1.0190071588174308,1.9517026901011858,-4.080303662501624,-1.4535809495604677,-1.2645866486341881,332.5
267,1.467472316085252,-1.0190071425322245,1.9517026818395373,-4.080303670951146,-1.4535810029354348,-1.1550338128435336,333.75
268,1.467472375308155,-1.0190071277791608,1.9517026722063457,-4.080303676626964,-1.453581062072065,-1.0354809847033033,335.0
269,1.4674724396273704,-1.0190071185939993,1.9517026608400894,-4.080303675060732,-1.4535811263683294,-0.9059281637653924,336.25
270,1.4674725091511507,-1.0190071201055133,1.9517026470420311,-4.08030366043194,-1.4535811959909282,-0.7663753470314294,337.5
271,1.4674725816220109,-1.0190071289538434,1.9517026317009554,-4.080303636949909,-1.4535812686358747,-0.6168225329524032,338.75
272,1.4674726551172408,-1.019007151969234,1.9517026142932097,-4.0803035972394435,-1.4535813424446895,-0.45726972547329736,340.0
273,1.4674727246559265,-1.0190071874575104,1.951702596016108,-4.08030354414435,-1.4535814124131656,-0.29095363221066595,341.25
274,1.467472785672719,-1.0190072295287644,1.9517025785385924,-4.08030348518052,-1.45358147391318,-0.13277924797159021,342.5
275,1.4674728306063032,-1.0190072804809658,1.9517025630369007,-4.080303419151561,-1.4535815193964623,0.015395136267483341,343.75
276,1.467472869243799,-1.0190073310752745,1.9517025488138566,-4.080303354697625,-1.4535815585724592,0.15356952050657438,345.0
277,1.4674728927289067,-1.0190073847738828,1.9517025371456205,-4.080303289544986,-1.4535815826076208,0.2817439047456812,346.25
278,1.4674729105551096,-1.0190074363783674,1.9517025268601453,-4.080303227814456,-1.4535816009566105,0.39991828898479437,347.5
279,1.467472921698793,-1.0190074849055193,1.951702518287187,-4.080303170809268,-1.4535816125850132,0.5080926732239124,348.75
280,1.4674729226652148,-1.0190075312262994,1.9517025119955702,-4.080303118192825,-1.4535816140022546,0.6062670574630309,350.0
281,1.467472923533197,-1.0190075728288617,1.9517025063448088,-4.080303070935867,-1.4535816152751366,0.6944414417021642,351.25
282,1.4674729220881229,-1.0190076096650493,1.95170250177443,-4.080303029504417,-1.4535816141858582,0.7726158259412984,352.5
283,1.4674729130920878,-1.019007641620956,1.9517024993239702,-4.080302995000684,-1.453581605488985,0.8407902101804308,353.75
284,1.4674729054156153,-1.0190076688894851,1.95170249723295,-4.08030296555805,-1.4535815980677924,0.8989645944195677,355.0
285,1.4674728990587051,-1.0190076914706352,1.9517024955013667,-4.080302941176514,-1.45358159192228,0.9471389786586837,356.25
286,1.4674728940213573,-1.0190077093644083,1.9517024941292236,-4.080302921856078,-1.4535815870524487,0.9853133628977977,357.5
287,1.4674728903035714,-1.0190077225708045,1.9517024931165217,-4.080302907596741,-1.4535815834582972,1.01348774713692,358.75
288,1.4674728879053485,-1.0190077310898236,1.9517024924632602,-4.080302898398505,-1.4535815811398267,1.031662131376043,360.0
289,1.4675836256252872,-1.018319261431661,1.9503575896794407,-4.07964670469103,-1.4536949687147094,1.0408298714920938,361.25
290,1.4680627314936752,-1.0153405073238433,1.944538718356429,-4.076807623365928,-1.4541855394278826,1.0417278212560417,362.5
291,1.4682519027340466,-1.0141633766042144,1.942239157206717,-4.07568560200324,-1.4543792425243642,1.033859610769923,363.75
292,1.4682516063401627,-1.0141630605802092,1.9422383522915632,-4.0756851125873945,-1.4543789500303723,1.0174939837198926,365.0
293,1.4682511288387154,-1.0141625514539143,1.9422370555436483,-4.075684324120467,-1.4543784788117944,0.9911283566698537,366.25
294,1.4682504702297048,-1.0141618492253301,1.9422352669629723,-4.075683236602458,-1.4543778288686302,0.9547627296198311,367.5
295,1.4682496305131307,-1.0141609538944563,1.9422329865495356,-4.0756818500333685,-1.4543770002008802,0.908397102569807,368.75
296,1.4682486094467324,-1.0141598652643167,1.9422302141519436,-4.075680165282715,-1.454375990697311,0.8520314940762913,370.0
297,1.4682474071779612,-1.0141585834547833,1.9422269498622047,-4.0756781818209245,-1.4543748016434253,0.7856658892224496,371.25
298,1.4682468862652986,-1.0141580062773745,1.9422255399298747,-4.075677348757491,-1.4543742859056012,0.7093002940938965,372.5
299,1.4682468853437096,-1.0141579657701407,1.9422255454078965,-4.075677394953713,-1.4543742839955216,0.6229347051516505,373.75
300,1.4682468843098302,-1.014157920605924,1.9422255515499942,-4.075677446364341,-1.4543742818188055,0.5265691279807336,375.0
301,1.4682468760558594,-1.0141578725575497,1.9422255595091475,-4.075677502341758,-1.4543742726785958,0.42020355754802985,376.25
302,1.4682468586223154,-1.014157822117538,1.9422255696066106,-4.075677562691588,-1.4543742547254161,0.3038379953414314,377.5
303,1.4682468386340648,-1.0141577679216236,1.9422255807023585,-4.075677627770119,-1.454374234182846,0.177472441368987,378.75
304,1.4682468007646423,-1.0141577183555062,1.9422255946875688,-4.0756776909626105,-1.4543741957837621,0.04110689350720306,380.0
305,1.4682467595492195,-1.0141576656915918,1.9422256097389374,-4.0756777582872825,-1.4543741540043458,-0.10525865370342966,381.25
306,1.4682466996449153,-1.0141576244134023,1.9422256269532039,-4.07567781620174,-1.4543740936227818,-0.2616241939279037,382.5
307,1.4682466330330346,-1.0141575857257978,1.9422256451414797,-4.07567787243282,-1.4543740265506437,-0.42736462223925004,383.75
308,1.4682465592141432,-1.0141575626338484,1.9422256626825545,-4.075677912345571,-1.454373952414925,-0.5887297293219418,385.0
309,1.4682464873949588,-1.0141575501182374,1.942225678432966,-4.075677939907983,-1.4543738803846922,-0.7400948364046451,386.25
310,1.468246417452521,-1.014157548615684,1.9422256923591177,-4.075677954648405,-1.4543738103410977,-0.8814599434873628,387.5
311,1.4682463526140654,-1.0141575547081623,1.9422257042794606,-4.075677959836071,-1.454373745481981,-1.0128250505700953,388.75
312,1.4682462929047455,-1.014157569600522,1.9422257140297838,-4.075677954101821,-1.4543736858442955,-1.1341901576528366,390.0
313,1.4682462382557242,-1.0141575836723555,1.9422257228953947,-4.07567794835345,-1.45437363126515,-1.2455552647355754,391.25
314,1.4682461927083454,-1.014157608618514,1.9422257285370712,-4.075677928593328,-1.4543735859051172,-1.3469203718183278,392.5
315,1.4682461516543648,-1.0141576311036502,1.9422257336221735,-4.0756779107826056,-1.4543735450200008,-1.4382854789010895,393.75
316,1.4682461150937822,-1.0141576511277655,1.9422257381507038,-4.075677894921282,-1.4543735086098,-1.5196505859838505,395.0
317,1.4682460880186388,-1.0141576752247088,1.942225740279122,-4.075677872679253,-1.454373481736547,-1.5910156930666175,396.25
318,1.4682460652954041,-1.0141576966754435,1.9422257419032227,-4.075677852622725,-1.454373459194737,-1.6523808001493772,397.5
319,1.4682460462751263,-1.0141577146305858,1.9422257432626588,-4.075677835834589,-1.4543734403263189,-1.7037459072321248,398.75
320,1.4682460309578054,-1.014157729090136,1.9422257443574322,-4.075677822314844,-1.4543734251312928,-1.7451110143148685,400.0
321,1.4682460193434415,-1.0141577400540953,1.9422257451875446,-4.0756778120634936,-1.4543734136096587,-1.7764761213976097,401.25
322,1.4682460114320344,-1.0141577475224632,1.9422257457529957,-4.075677805080535,-1.454373405761417,-1.7978412284803658,402.5
323,1.4682643915203435,-1.0140416525408127,1.941998782700135,-4.075566976932928,-1.4543922346879814,-1.8094106534871455,403.75
324,1.4686770233253463,-1.0114358304638948,1.9369046271136126,-4.0730795404587194,-1.4548149398428336,-1.8134501016347853,405.0
325,1.4690143778604856,-1.0093046820712797,1.932738355751223,-4.071045151031627,-1.4551605333776063,-1.807925932944243,406.25
326,1.469014488614074,-1.0093022670435126,1.9327334823826205,-4.071042693279176,-1.4551606549342124,-1.7947567146459602,407.5
327,1.4690140832429786,-1.0093018091938026,1.932732319598583,-4.071041988075041,-1.4551602539139519,-1.771591625165182,408.75
328,1.4690135028796403,-1.0093011536976686,1.932730654859205,-4.071040978445518,-1.455159679779635,-1.7384265356844228,410.0
329,1.4690127475240597,-1.0093003005551107,1.9327284881644864,-4.07103966439061,-1.455158932531262,-1.695261446203665,411.25
330,1.4690118173467228,-1.0092992498093878,1.9327258195313326,-4.071038045627939,-1.4551580135262872,-1.6420963683608156,412.5
331,1.4690107123828327,-1.009298001469383,1.932722648963078,-4.071036122099011,-1.4551569230454016,-1.5789313013501354,413.75
332,1.469009829919164,-1.0092969878996543,1.9327200871801442,-4.071034572889138,-1.4551560523902332,-1.5057662388876845,415.0
333,1.4690098671155714,-1.009296967600637,1.9327200825861017,-4.071034588795947,-1.455156090007059,-1.4226011874613746,416.25
334,1.4690099087807134,-1.0092969448815108,1.9327200774583808,-4.071034606531706,-1.4551561321153423,-1.3294361437202,417.5
335,1.4690099555797929,-1.009296921693956,1.932720071391507,-4.071034623810257,-1.455156179300153,-1.2262711071703194,418.75
336,1.4690100108729367,-1.00929690789873,1.9327200623384733,-4.071034629076701,-1.455156234514835,-1.1131060805349227,420.0
337,1.469010071051385,-1.0092968928838637,1.9327200524849966,-4.071034634811326,-1.4551562946023606,-0.989941062685991,421.25
338,1.4690101363940822,-1.0092968898755972,1.932720040016475,-4.071034625992457,-1.4551563599909862,-0.8567760508581559,422.5
339,1.4690102067431656,-1.0092968913678972,1.932720025962967,-4.071034611143968,-1.4551564304413651,-0.7136110410484743,423.75
340,1.469010277906403,-1.0092969075231264,1.9327200098040822,-4.071034579530567,-1.4551565018518091,-0.5604460361018448,425.0
341,1.469010352039006,-1.0092969306877582,1.932719992130576,-4.071034539420318,-1.455156576304531,-0.3972810373322633,426.25
342,1.4690104155025812,-1.0092969723803173,1.932719974100463,-4.071034480314604,-1.4551566402569858,-0.23276916176567636,427.5
343,1.469010472038543,-1.0092970150228002,1.9327199573087248,-4.071034421428446,-1.4551566972825243,-0.07820859591352042,428.75
344,1.4690105119099586,-1.0092970671848187,1.9327199425362387,-4.071034354874249,-1.455156737716297,0.0663519699385665,430.0
345,1.4690105470885135,-1.0092971167983957,1.9327199290260815,-4.071034292085053,-1.4551567734263133,0.200912535790605,431.25
346,1.4690105656217374,-1.0092971704112554,1.9327199182637067,-4.071034227878343,-1.4551567925095577,0.3254731016425635,432.5
347,1.4690105826670727,-1.00929721971995,1.932719908365351,-4.071034168826287,-1.455156810060757,0.44003366749445727,433.75
348,1.4690105880283784,-1.0092972672695226,1.9327199010015466,-4.071034113952657,-1.4551568158960726,0.5445942333462952,435.0
349,1.4690105889467993,-1.0092973112525252,1.932719894985911,-4.071034063950757,-1.4551568172479117,0.6391547991980707,436.25
350,1.4690105897680947,-1.0092973505842198,1.9327198896064384,-4.071034019236673,-1.4551568184567907,0.7237153650498132,437.5
351,1.4690105847026333,-1.0092973851417608,1.9327198860197077,-4.07103398103251,-1.4551568137246527,0.7982759309015196,438.75
352,1.4690105763000316,-1.0092974149792484,1.9327198837163915,-4.071033948800085,-1.455156805604825,0.8628364967532106,440.0
353,1.4690105691989368,-1.0092974401951078,1.9327198817698423,-4.071033921560246,-1.4551567987427045,0.9173970626048789,441.25
354,1.4690105633993489,-1.009297460789339,1.9327198801800596,-4.071033899312994,-1.4551567931382907,0.9619576284565257,442.5
355,1.4690105589012676,-1.0092974767619431,1.9327198789470452,-4.071033882058328,-1.4551567887915842,0.996518194308173,443.75
356,1.4690105557046933,-1.0092974881129204,1.9327198780708004,-4.07103386979625,-1.4551567857025844,1.0210787601598357,445.0
357,1.4690105538096256,-1.0092974948422708,1.9327198775513244,-4.07103386252676,-1.455156783871292,1.0356393260115029,446.25
358,1.4692758206612269,-1.0075959452770915,1.9293910606969646,-4.069407175091303,-1.4554286569877757,1.0421886425212137,447.5
359,1.4697189546072125,-1.00475308677045,1.923829427990296,-4.066689369581852,-1.4558828287414773,1.0394853569931177,448.75
360,1.4697689411966008,-1.0044310675185981,1.9231993323034065,-4.066381402487892,-1.4559340672660617,1.0289972557403269,450.0
361,1.4697685947487074,-1.0044306594342096,1.9231983125047378,-4.066380790154675,-1.4559337256454916,1.009036974634822,451.25
362,1.469768074732169,-1.004430046901604,1.9231967817920885,-4.0663798710456085,-1.4559332128747422,0.9790766935293362,452.5
363,1.4697673811469867,-1.0044292299207813,1.923194740165458,-4.066378645160693,-1.4559325289538128,0.9391164124238478,453.75
364,1.4697665139418592,-1.0044282084483278,1.923192187590653,-4.066377112690722,-1.4559316734302208,0.889156133320444,455.0
365,1.4697654729254788,-1.004426982322338,1.923189123940113,-4.066375274347083,-1.4559306446167275,0.8291958625094954,456.25
366,1.4697642582914063,-1.0044255517066127,1.9231855493428245,-4.0663731294098255,-1.455929444220704,0.7592355916985208,457.5
367,1.469764215582767,-1.0044254665038226,1.9231854309345382,-4.066373096362173,-1.4559294011272474,0.6792753362346793,458.75
368,1.4697642146356764,-1.004425424913047,1.923185436606426,-4.066373143809956,-1.4559293991526403,0.5893150846939826,460.0
369,1.4697642135786821,-1.0044253787258643,1.9231854429331705,-4.066373196423269,-1.4559293969204155,0.48935484271617113,461.25
370,1.4697641998157391,-1.0044253311113853,1.9231854519924756,-4.066373252967327,-1.4559293825337503,0.3793946104645043,462.5
371,1.469764182087393,-1.0044252798547664,1.923185462328007,-4.066373314365736,-1.4559293642728464,0.25943438578195605,463.75
372,1.4697641557979952,-1.0044252282032053,1.9231854744052108,-4.066373377827175,-1.4559293374397704,0.12947416815013926,465.0
373,1.469764117457205,-1.004425178067069,1.923185488657596,-4.066373441847414,-1.4559292985563241,-0.010486045551372988,466.25
374,1.4697640700901395,-1.0044251302836844,1.923185504380725,-4.066373504895197,-1.4559292506580563,-0.16044625636455892,467.5
375,1.4697640096396822,-1.004425088683121,1.9231855218666332,-4.066373563390801,-1.455929189720235,-0.3204064606131106,468.75
376,1.4697639407055618,-1.004425057905388,1.9231855395884891,-4.066373611211965,-1.455929120395115,-0.4837588165713693,470.0
377,1.4697638713456826,-1.0044250362564033,1.9231855561792088,-4.066373648766461,-1.455929050733979,-0.6374612869979266,471.25
378,1.4697638024517157,-1.0044250303833389,1.9231855705776393,-4.066373668353038,-1.455928981695348,-0.7811637574244245,472.5
379,1.469763737197776,-1.0044250290167824,1.9231855836566893,-4.066373682148759,-1.4559289163458846,-0.9148662278508305,473.75
380,1.4697636770490239,-1.004425038504487,1.9231855942817278,-4.066373682684086,-1.45592885621536,-1.0385686982771842,475.0
381,1.4697636218684547,-1.0044250522893483,1.9231856033527577,-4.066373677416571,-1.4559288011017566,-1.1522711687034755,476.25
382,1.469763572112859,-1.00442506651563,1.9231856112927999,-4.066373670630587,-1.4559287514243102,-1.2559736391297036,477.5
383,1.469763530579879,-1.004425089273289,1.923185616471926,-4.066373652631896,-1.4559287100641796,-1.3496761095558858,478.75
384,1.4697634934793307,-1.0044251096022314,1.923185621098328,-4.066373636554037,-1.4559286731180343,-1.433378579982042,480.0
385,1.4697634608112138,-1.0044251275024578,1.923185625172008,-4.066373622397012,-1.4559286405858738,-1.5070810504081478,481.25
386,1.4697634359132352,-1.0044251473384493,1.9231856274522587,-4.066373604587689,-1.455928615852759,-1.5707835208342287,482.5
387,1.4697634162973034,-1.0044251658567074,1.9231856288639664,-4.0663735872805535,-1.4559285963952981,-1.6244859912602934,483.75
388,1.4697634003340776,-1.004425180926659,1.923185630012798,-4.066373573196202,-1.455928580561034,-1.668188461686352,485.0
389,1.4697633880235572,-1.0044251925483025,1.9231856308987516,-4.066373562334631,-1.4559285683499663,-1.701890932112403,486.25
390,1.4697633793657423,-1.0044252007216399,1.9231856315218296,-4.06637355469584,-1.4559285597620952,-1.7255934025384705,487.5
391,1.4697633743606333,-1.0044252054466711,1.923185631882033,-4.066373550279833,-1.4559285547974208,-1.7392958729645351,488.75
392,1.4696719193937084,-1.004997997043657,1.924357077989886,-4.066972011468541,-1.4558345362694287,-1.743648170467983,490.0
393,1.469569107432931,-1.005641936505815,1.9256740385721474,-4.067644815286759,-1.4557288422799508,-1.7393394922771337,491.25
394,1.4695331210146407,-1.0058673530899833,1.9261350603407517,-4.067880344447102,-1.4556918469275257,-1.7255855872300496,492.5
395,1.469470970086586,-1.0062566624619795,1.926931275472278,-4.068287118907987,-1.4556279535033907,-1.7018316821829607,493.75
396,1.4693826546487667,-1.0068098646218036,1.9280626839667259,-4.068865138669416,-1.4555371620075452,-1.6680777771358888,495.0
397,1.4692675271267903,-1.007526018813632,1.9295273658473362,-4.06961342397343,-1.4554188327218576,-1.624323795037605,496.25
398,1.4691252422344745,-1.0084046228969084,1.9313242962998896,-4.070531451860113,-1.455272624551858,-1.5705697210591691,497.5
399,1.4689564877405483,-1.0094466758163838,1.933455514057489,-4.071620262688206,-1.4550992169234398,-1.5068156470807614,498.75
400,1.468760339647348,-1.0106508892701844,1.935918390375173,-4.072878514921533,-1.4548976973961043,-1.4330614528491876,500.0
401,1.4685369048442312,-1.0120174118609997,1.9387132284710287,-4.0743063633019965,-1.4546681715245349,-1.3493071737247841,501.25
402,1.4682856592416496,-1.013545545736415,1.9418386049552026,-4.0759030818449205,-1.4544101210111986,-1.2555527546591434,502.5
403,1.4680066887915413,-1.0152354078318042,1.9452947583871794,-4.0776687922630535,-1.4541236307929963,-1.151798226478989,503.75
404,1.4676986302356059,-1.017085207313968,1.9490780362554383,-4.079601631558879,-1.4538073532916524,-1.0380434318049043,505.0
405,1.4673619768741517,-1.0190956413388625,1.9531898611501537,-4.081702325653374,-1.4534617758065678,-0.9142884540777508,506.25
406,1.4669960726633269,-1.0212658790012012,1.957628538816004,-4.0839700105436245,-1.4530862496270414,-0.7805332345179334,507.5
407,1.4666002451600166,-1.0235951082034092,1.9623924139143516,-4.086403842317889,-1.452680109555472,-0.636777716676474,508.75
408,1.4661734979237768,-1.0260821631283277,1.9674791106477019,-4.089002610001838,-1.4522423696298041,-0.483021813153251,510.0
409,1.4657200269340924,-1.0287015693256971,1.9728365289426095,-4.091739696731386,-1.4517773390597173,-0.32083430772046917,511.25
410,1.465280933968379,-1.031214363499142,1.9779759246366666,-4.094365405756748,-1.4513271752359598,-0.16499918969564978,512.5
411,1.4648669835927894,-1.0335623954395472,1.9827783600593305,-4.096818970989941,-1.4509028960852168,-0.019163723743297504,513.75
412,1.4644788345977258,-1.0357464913198484,1.9872455196744319,-4.099101251378179,-1.4505051530881587,0.11667203186439398,515.0
413,1.4641171632503183,-1.0377674591676282,1.9913790503997237,-4.101213086485882,-1.4501346152850876,0.24250801974910202,516.25
414,1.463782364734415,-1.039625768032279,1.995179908201746,-4.103154963624249,-1.4497916736585488,0.35834421451671605,517.5
415,1.463474242333139,-1.0413212606599742,1.9986477736406014,-4.104926720411126,-1.4494761330522103,0.46418064546112797,518.75
416,1.4631944519476099,-1.0428557285678173,2.0017862955579737,-4.1065302158227635,-1.4491896329706258,0.560017157797764,520.0
417,1.4629422379346386,-1.0442283880122898,2.0045938781816295,-4.107964637076964,-1.4489314250171281,0.6458538417712818,521.25
418,1.4627190458111632,-1.0454407629788234,2.0070736248619667,-4.109231564980233,-1.4487029406744196,0.7216905609933413,522.5
419,1.4625239852581462,-1.046491943423679,2.009223682873103,-4.110330055962915,-1.4485032980671209,0.7875274167656555,523.75
420,1.4623585525709697,-1.047383459432479,2.0110471672673924,-4.111261696483222,-1.4483339792966692,0.8433642725379694,525.0
421,1.4622223948912154,-1.0481149589997139,2.0125433615436528,-4.112026121693933,-1.4481946347897987,0.8892011626401883,526.25
422,1.462115328583454,-1.0486862592386033,2.013711893441519,-4.112623142038462,-1.4480850826191805,0.9250381210406877,527.5
423,1.4620381382229102,-1.0490981429800028,2.014554356401053,-4.113053568907658,-1.4480061000547755,0.9508750794411776,528.75
424,1.461990823809584,-1.0493506102239125,2.0150707504222574,-4.113317402301521,-1.4479576870965838,0.9667120378416652,530.0
425,1.4619233995809588,-1.0497096245789366,2.015805093142655,-4.1136925975682646,-1.447888701450204,0.9728520323647296,531.25
426,1.4617623305535294,-1.0505664750635766,2.017557749572976,-4.1145880855299115,-1.447723906603363,0.9702831401652029,532.5
427,1.461762246443205,-1.0505663848069067,2.0175575779693973,-4.114588003999288,-1.4477238234113519,0.9586253377922195,533.75
428,1.461762090183498,-1.0505662171285521,2.0175572591651942,-4.114587852532135,-1.4477236688576822,0.9369675354192276,535.0
429,1.4617618617744086,-1.0505659720285132,2.0175567931603666,-4.114587631128453,-1.4477234429423542,0.9053097330462487,536.25
430,1.4617615611442725,-1.0505656494135476,2.0175561798840445,-4.114587340196955,-1.4477231450893029,0.8636519493587831,537.5
431,1.4617611883351396,-1.0505652493383737,2.017555419377775,-4.114586979497597,-1.447722775636782,0.8119941685963032,538.75
432,1.4617607943819688,-1.0505648231276297,2.0175546163478795,-4.1145866024068685,-1.447722385179705,0.7503363897403889,540.0
433,1.4617607936158854,-1.0505647874402793,2.0175546209465804,-4.11458664281281,-1.4477223839055067,0.6786786262550544,541.25
434,1.4617607927420657,-1.0505647467752026,2.0175546261892414,-4.114586688847546,-1.4477223824470187,0.5970208644029222,542.5
435,1.461760791757853,-1.0505647011404942,2.0175546320829247,-4.114586740479167,-1.447722380783472,0.505363108834706,543.75
436,1.4617607805994033,-1.050564653048438,2.0175546402448092,-4.114586796673558,-1.447722369070175,0.40370536076381097,545.0
437,1.4617607628976206,-1.050564601589699,2.017554650088791,-4.114586857816378,-1.447722350867175,0.29204761911299526,546.25
438,1.4617607414686025,-1.0505645466947615,2.017554661075868,-4.114586923504628,-1.4477223289026073,0.17038988410240574,547.5
439,1.4617607027772368,-1.0505644957702258,2.0175546748573496,-4.114586987865022,-1.4477222896957453,0.03873215772832449,548.75
440,1.4617606607519427,-1.0505644413512016,2.017554689714102,-4.114587056765212,-1.447722247118821,-0.102925564742471,550.0
441,1.4617605992669735,-1.0505643986797124,2.0175547068108948,-4.114587115971923,-1.4477221851679432,-0.2545832860678867,551.25
442,1.4617605312679418,-1.0505643572025518,2.017554725001353,-4.114587175016583,-1.4477221167065335,-0.41624099964949735,552.5
443,1.461760452839385,-1.0505643323925862,2.017554743090101,-4.11458721718917,-1.4477220379578175,-0.5782450286777715,553.75
444,1.4617603768950431,-1.0505643175048611,2.017554759458632,-4.1145872477392835,-1.4477219617880173,-0.7302521091921403,555.0
445,1.461760302541541,-1.05056431572774,2.0175547738771495,-4.114587263239349,-1.4477218873322348,-0.8722591897064813,556.25
446,1.4617602335654547,-1.0505643208864646,2.01755478639809,-4.1145872699540496,-1.4477218183242682,-1.0042662702207839,557.5
447,1.4617601700428344,-1.0505643366411617,2.017554796547339,-4.114587263748649,-1.4477217548741306,-1.1262733507350782,558.75
448,1.461760111726684,-1.0505643511045617,2.017554805864723,-4.114587258051854,-1.4477216966245223,-1.2382804312493494,560.0
449,1.461760063061829,-1.0505643771987363,2.017554811879044,-4.114587237507748,-1.4477216481449966,-1.3402875117635964,561.25
450,1.4617600193102565,-1.0505644011492556,2.017554817224509,-4.114587218485149,-1.4477216045645849,-1.432294592277838,562.5
451,1.4617599803139234,-1.0505644224966568,2.0175548219889867,-4.114587201530066,-1.44772156572081,-1.514301672792067,563.75
452,1.4617599510018193,-1.0505644477282854,2.017554824416841,-4.11458717844352,-1.4477215366083924,-1.5863087533062903,565.0
453,1.4617599267026926,-1.0505644706960209,2.01755482617191,-4.114587156995764,-1.4477215124937861,-1.648315833820529,566.25
454,1.461759906322332,-1.0505644899597053,2.0175548276439335,-4.114587139006927,-1.4477214922681871,-1.7003229143347796,567.5
455,1.4617598898607378,-1.0505645055193389,2.017554828832912,-4.1145871244770085,-1.4477214759315968,-1.742329994849042,568.75
456,1.4617598773179103,-1.0505645173749223,2.017554829738849,-4.114587113406012,-1.447721463484015,-1.774337075363302,570.0
457,1.4617598686938493,-1.0505645255264555,2.017554830361743,-4.1145871057939365,-1.4477214549254422,-1.796344155877567,571.25
458,1.4617690091514532,-1.050513803628525,2.017455954608347,-4.114538970754107,-1.4477307853704866,-1.8084428711963518,572.5
459,1.4622075313859362,-1.0480814095979922,2.012714717553722,-4.112231032146288,-1.4481784160371132,-1.813008562355344,573.75
460,1.462615415301321,-1.045818302542008,2.008303396376989,-4.110083659402367,-1.4485947750087564,-1.8079732678911726,575.0
461,1.4626179319061943,-1.0458026832711727,2.0082727958782782,-4.110068683706758,-1.448597351501613,-1.7953479990497319,576.25
462,1.4626174603776128,-1.045802327355367,2.0082718241013096,-4.110068067484999,-1.4485968838107655,-1.7727516295691037,577.5
463,1.4626167801745442,-1.0458018139293888,2.0082704222654457,-4.110067178554937,-1.4485962091438163,-1.7401552600884727,578.75
464,1.4626158912969882,-1.0458011429932381,2.0082685903706876,-4.110066016916573,-1.4485953275007648,-1.6975588906078314,580.0
465,1.4626147939186147,-1.0458003145827315,2.008266328426015,-4.110064582325327,-1.4485942401991976,-1.6449625318956147,581.25
466,1.4626134881220483,-1.0457993287148721,2.0082636364355646,-4.110062874664656,-1.448592947866413,-1.5823661858370222,582.5
467,1.4626123507390938,-1.0457984591233729,2.008261273381521,-4.110061379896301,-1.4485918223975067,-1.509769843521889,583.75
468,1.4626123898257628,-1.0457984378073835,2.008261268618873,-4.110061396654094,-1.4485918619539495,-1.4271735134511054,585.0
469,1.4626124336409843,-1.0457984139314367,2.008261263297523,-4.110061415357393,-1.4485919062705896,-1.3345771902423555,586.25
470,1.4626124826156295,-1.0457983887731312,2.0082612571672263,-4.1100614345116515,-1.4485919557190383,-1.23198087424601,587.5
471,1.4626125408124788,-1.04579837433751,2.008261247847659,-4.110061440150892,-1.4485920138371018,-1.1193845688481052,588.75
472,1.4626126041771352,-1.0457983586192319,2.008261237699983,-4.110061446293704,-1.448592077110311,-0.9967882716264225,590.0
473,1.4626126729812134,-1.0457983545535805,2.008261225037719,-4.110061438337463,-1.4485921459491728,-0.8641919805517355,591.25
474,1.462612747102686,-1.045798356308465,2.0082612106214435,-4.110061422865063,-1.4485922201720622,-0.7215956917561562,592.5
475,1.4626128224389878,-1.0457983723745436,2.0082611941699735,-4.110061391052576,-1.4485922957453132,-0.5689994074629672,593.75
476,1.462612900584643,-1.0457983970720754,2.008261176093324,-4.110061349006791,-1.4485923742120166,-0.40640312944903084,595.0
477,1.4626129686532894,-1.0457984404100773,2.008261157598544,-4.110061287801366,-1.4485924427635943,-0.24142890468938574,596.25
478,1.4626130296371194,-1.0457984850963462,2.008261140290739,-4.110061226367444,-1.4485925042346646,-0.08629350070042235,597.5
479,1.462613071980844,-1.045798540805084,2.0082611251642954,-4.110061155913195,-1.4485925471466112,0.058841903288490816,598.75
480,1.4626131103563316,-1.0457985932506804,2.008261111208831,-4.110061089856733,-1.4485925860553066,0.1939773072773733,600.0
481,1.4626131300506775,-1.0457986504884862,2.008261100227365,-4.110061021804474,-1.4485926063057657,0.31911271126623747,601.25
482,1.4626131481711806,-1.0457987031522173,2.0082610901234577,-4.110060959190502,-1.4485926249379415,0.4342481152550884,602.5
483,1.4626131547687828,-1.0457987537109428,2.008261082491458,-4.110060901045545,-1.448592632014198,0.5393835192439087,603.75
484,1.4626131557453403,-1.0457988006999952,2.00826107638559,-4.110060847944584,-1.4485926334296155,0.6345189232327237,605.0
485,1.4626131566192488,-1.0457988427498686,2.0082610709215247,-4.110060800425239,-1.448592634696254,0.719654327221522,606.25
486,1.4626131518524121,-1.0457988797294142,2.008261067176393,-4.110060759643648,-1.4485926302683507,0.7947897312103254,607.5
487,1.462613142884176,-1.0457989116727178,2.00826106487025,-4.110060725299332,-1.4485926215872444,0.8599251351991192,608.75
488,1.4626131352928005,-1.0457989387118825,2.0082610629181596,-4.110060696227773,-1.4485926142389163,0.9150605391879292,610.0
489,1.4626131290782853,-1.0457989608469078,2.008261061320121,-4.11006067242897,-1.448592608223367,0.960195943176761,611.25
490,1.4626131242406306,-1.045798978077795,2.0082610600761366,-4.110060653902924,-1.4485926035405958,0.9953313471655905,612.5
491,1.462613120779836,-1.0457989904045442,2.0082610591862067,-4.1100606406496345,-1.4485926001906035,1.0204667511544174,613.75
492,1.4626131186959024,-1.0457989978271551,2.008261058650331,-4.110060632669104,-1.4485925981733894,1.0356021551432422,615.0
493,1.4628790114773933,-1.0443002837033526,2.0053374276802547,-4.1086362671900645,-1.448864129130003,1.0425272188652415,616.25
494,1.4633880559023105,-1.041430702822099,1.9997395480235753,-4.1059090240260945,-1.449383969285826,1.0403608151473336,617.5
495,1.4634591766252087,-1.041028488968316,1.9989548083467077,-4.105526645759535,-1.449456604812383,1.0302626352903885,618.75
496,1.4634587749337695,-1.0410281698225672,1.998953956366456,-4.105526112237076,-1.449456207567144,1.0108032362140469,620.0
497,1.4634581668169222,-1.0410276866708554,1.9989526665616608,-4.1055253045425015,-1.449455606181357,0.981343837137709,621.25
498,1.463457352274667,-1.0410270395131802,1.998950938932322,-4.105524222675813,-1.449454800655022,0.9418844380613605,622.5
499,1.4634563312633109,-1.0410262283166525,1.9989487734545284,-4.105522866782699,-1.4494537906221796,0.8924250398627351,623.75
500,1.4634551035316625,-1.041025252892188,1.998946169990793,-4.105521237700669,-1.449452573979027,0.8329656469189783,625.0
501,1.463453669317643,-1.0410241134188802,1.9989431286713033,-4.105519334636354,-1.4494511527183882,0.7635062539752189,626.25
502,1.4634535403196047,-1.041023975628093,1.9989428615150657,-4.105519205346576,-1.449451024002598,0.6840468758963094,627.5
503,1.4634535393170625,-1.0410239317270318,1.9989428672032736,-4.105519255129308,-1.4494510219217247,0.594587501881707,628.75
504,1.4634535381972384,-1.0410238829504623,1.9989428735549126,-4.105519310348692,-1.449451019567236,0.49512813797573463,630.0
505,1.463453524490124,-1.0410238324108763,1.9989428825740205,-4.10551936978998,-1.4494510051823866,0.38566878321268216,631.25
506,1.4634535058235132,-1.0410237781878267,1.9989428930201534,-4.105519434265689,-1.449450985982271,0.26620943608654685,632.5
507,1.4634534790116491,-1.0410237230271986,1.9989429051469245,-4.105519501293364,-1.4494509586223798,0.13675009612214467,633.75
508,1.463453438616255,-1.0410236699036184,1.9989429196201733,-4.105519568524036,-1.4494509176829546,-0.0027092396885552462,635.0
509,1.4634533895341513,-1.0410236184434432,1.9989429355520165,-4.105519635467161,-1.449450868061796,-0.15216857297886038,636.25
510,1.46345332581491,-1.0410235742709455,1.9989429533749878,-4.1055196968725225,-1.4494508038536504,-0.3116278996085683,637.5
511,1.463453252146611,-1.0410235399274959,1.9989429718673009,-4.105519749020665,-1.449450729776932,-0.4779605292372292,638.75
512,1.4634531766237346,-1.0410235160814965,1.9989429893894353,-4.10551978968022,-1.4494506539418874,-0.6362364832094776,640.0
513,1.463453101444394,-1.0410235095116371,1.9989430046625447,-4.105519810812358,-1.4494505786127592,-0.784512437181674,641.25
514,1.4634530300847863,-1.0410235078382235,1.998943018583106,-4.105519825730165,-1.4494505071537531,-0.9227883911538449,642.5
515,1.4634529641608198,-1.0410235195089852,1.9989430297732285,-4.105519824620649,-1.4494504412618745,-1.051064345125985,643.75
516,1.4634529034657477,-1.0410235345817624,1.9989430395289265,-4.105519818723194,-1.4494503806369208,-1.169340299098112,645.0
517,1.463452849490758,-1.0410235529950576,1.9989430475714962,-4.105519807834755,-1.449450326771252,-1.2776162530702155,646.25
518,1.4634528034298542,-1.0410235782178272,1.9989430532332206,-4.105519787828874,-1.4494502808927976,-1.3758922070423085,647.5
519,1.4634527620558446,-1.0410236008740688,1.998943058318834,-4.105519769858674,-1.4494502396826723,-1.4641681610143873,648.75
520,1.4634527266006943,-1.0410236225839082,1.9989430623869464,-4.105519751873805,-1.4494502043894757,-1.542444114986456,650.0
521,1.463452700229559,-1.0410236475097565,1.9989430643035278,-4.105519728606514,-1.4494501782211022,-1.6107200689585282,651.25
522,1.4634526777208576,-1.041023668784854,1.998943065939398,-4.105519708747054,-1.449450155885465,-1.6689960229306047,652.5
523,1.4634526590745898,-1.041023686409199,1.9989430672945536,-4.105519692295423,-1.449450137382564,-1.7172719769027098,653.75
524,1.463452644290756,-1.041023700382794,1.998943068368999,-4.105519679251623,-1.4494501227123995,-1.7555479308748172,655.0
525,1.4634526333693558,-1.0410237107056384,1.9989430691627341,-4.105519669615655,-1.4494501118749712,-1.7838238848469081,656.25
526,1.4634526263103895,-1.0410237173777328,1.9989430696757589,-4.105519663387517,-1.4494501048702797,-1.8020998388190035,657.5
527,1.4635682165081032,-1.040361677637681,1.9976505770939825,-4.1048894515209415,-1.4495681971138599,-1.8113372860786234,658.75
528,1.4640842160545844,-1.037406269693186,1.9918807853806917,-4.102076143614823,-1.4500953659483564,-1.812327788828367,660.0
529,1.4642869668888934,-1.0362440269907311,1.9896116707647835,-4.100969694642675,-1.4503025100359586,-1.804540476983447,661.25
530,1.4642866415015572,-1.0362437526917754,1.9896109416170584,-4.1009692395566155,-1.4503021874863207,-1.7882309511814445,662.5
531,1.464286116606682,-1.0362433102095392,1.9896097654007103,-4.100968505439723,-1.4503016671690456,-1.7619214253794278,663.75
532,1.4642853922042673,-1.036242699544022,1.9896081421157383,-4.100967492291996,-1.4503009490841332,-1.725611899577425,665.0
533,1.4642844682943135,-1.0362419206952238,1.9896060717621433,-4.100966200113437,-1.4503000332315839,-1.6793023737754078,666.25
534,1.4642833451906174,-1.0362409737340692,1.9896035543618633,-4.100964628433058,-1.4502989220220668,-1.6229928651464407,667.5
535,1.4642820227047988,-1.0362398586179389,1.9896005899015827,-4.100962777533411,-1.4502976140088444,-1.5566833600294492,668.75
536,1.464281463885902,-1.0362393568573012,1.9895992852279965,-4.100961974051806,-1.4502970618067659,-1.4803738645441031,670.0
537,1.4642815041448516,-1.0362393348947012,1.9895992802937028,-4.100961991289561,-1.4502971025422478,-1.394064375329897,671.25
538,1.4642815490618668,-1.0362393104225713,1.98959927481837,-4.100962010383409,-1.4502971479466011,-1.2977548978241578,672.5
539,1.4642816008198967,-1.0362392898549249,1.9895992675016996,-4.100962023916666,-1.4502971999488927,-1.1914454270642565,673.75
540,1.4642816600782025,-1.0362392751361635,1.989599257954232,-4.100962029628544,-1.4502972591245908,-1.0751359645409624,675.0
541,1.4642817244524893,-1.0362392601944137,1.9895992474485964,-4.100962034655916,-1.4502973234147705,-0.9488265102738513,676.25
542,1.4642817942954671,-1.0362392618157636,1.989599233782316,-4.10096202003496,-1.4502973933544403,-0.8125170621573982,677.5
543,1.4642818690864505,-1.0362392641822307,1.9895992190678842,-4.100962003668012,-1.4502974682551109,-0.6662076146649949,678.75
544,1.4642819431392167,-1.0362392875413724,1.9895992018347946,-4.100961963775184,-1.4502975426158995,-0.509898174162243,680.0
545,1.4642820184910448,-1.0362393174454247,1.9895991835216593,-4.100961916267733,-1.4502976183390448,-0.34418621035639974,681.25
546,1.4642820825342584,-1.0362393618168884,1.9895991655540195,-4.100961854525884,-1.450297682876685,-0.18276542212608354,682.5
547,1.46428213516405,-1.0362394104773607,1.9895991492423413,-4.100961790040728,-1.4502977360278742,-0.03134463389580497,683.75
548,1.4642821758358648,-1.0362394639415493,1.9895991346263298,-4.100961722331904,-1.450297777252271,0.11007615433443423,685.0
549,1.464282206286281,-1.0362395176482408,1.989599121949509,-4.100961656222151,-1.4502978082454707,0.24149694256464993,686.25
550,1.464282225123788,-1.0362395723595483,1.989599111383454,-4.100961591107412,-1.4502978276215102,0.3629177307948379,687.5
551,1.464282242018448,-1.0362396226621953,1.9895991017507015,-4.100961531317477,-1.450297845010805,0.4743385190249951,688.75
552,1.4642822430449907,-1.0362396720166207,1.9895990952963656,-4.10096147550305,-1.45029784650427,0.5757593072551607,690.0
553,1.4642822439703174,-1.0362397165047414,1.9895990894784177,-4.1009614251918745,-1.4502978478504807,0.6671800954852943,691.25
554,1.4642822447944277,-1.0362397561265582,1.9895990842968587,-4.10096138038395,-1.450297849049437,0.7486008837154338,692.5
555,1.4642822363611137,-1.0362397906694691,1.9895990815432918,-4.100961342996172,-1.4502978409320972,0.8200216719455482,693.75
556,1.4642822280251389,-1.0362398203506884,1.9895990793872662,-4.10096131107008,-1.4502978328663365,0.8814424601756902,695.0
557,1.4642822210463553,-1.0362398451994677,1.9895990775822636,-4.100961284341915,-1.4502978261137731,0.9328632484058534,696.25
558,1.4642822154247626,-1.0362398652158078,1.9895990761282856,-4.10096126281168,-1.450297820674407,0.9742840366360261,697.5
559,1.464282211160361,-1.0362398803997097,1.9895990750253336,-4.100961246479375,-1.4502978165482379,1.005704824866189,698.75
560,1.4642822082531508,-1.0362398907511736,1.989599074273408,-4.100961235344999,-1.450297813735266,1.0271256130963569,700.0
561,1.4642994164502496,-1.0361397461777841,1.9894034033388164,-4.100865745045509,-1.4503154021926266,1.0387235412774392,701.25
562,1.4647389582694827,-1.033581879953934,1.9844059137359857,-4.098427043115564,-1.4507646547034647,1.0427718090905584,702.5
563,1.4651046538679817,-1.031453032963095,1.9802465715931064,-4.096397314645579,-1.451138433142327,1.0372638110968664,703.75
564,1.4651047597365996,-1.0314506745181342,1.9802418140331308,-4.096394915847067,-1.4511385501368994,1.0241038299678802,705.0
565,1.4651043024296004,-1.0314502699588228,1.9802407602116903,-4.096394265792625,-1.4511380981882194,1.0009479248235063,706.25
566,1.4651036476321573,-1.0314496906884347,1.9802392512918923,-4.096393335008738,-1.4511374510631136,0.9677920196791296,707.5
567,1.46510279534427,-1.0314489367069704,1.9802372872737362,-4.096392123495405,-1.451136608761582,0.924636114534743,708.75
568,1.465101745409902,-1.0314480078919996,1.9802348680661892,-4.096390631794104,-1.4511355699589978,0.8714802156160375,710.0
569,1.465100497795318,-1.031446904217049,1.9802319936495103,-4.096388860021737,-1.4511343343692302,0.8083243225156447,711.25
570,1.4650994872294463,-1.03144599981039,1.9802296673209083,-4.096387437321063,-1.4511333332819245,0.7351684340771579,712.5
571,1.465099486313624,-1.0314459595919503,1.980229672556513,-4.096387482986224,-1.4511333313869823,0.652012557062789,713.75
572,1.465099485283918,-1.0314459145592534,1.9802296784412525,-4.096387534053191,-1.4511333292343087,0.5588566876036921,715.0
573,1.4650994818705039,-1.0314458652818062,1.9802296853441537,-4.096387590292791,-1.4511333246809275,0.4557008252667932,716.25
574,1.465099464438376,-1.0314458146799603,1.9802296951577933,-4.096387650525766,-1.451133306740718,0.342544972878606,717.5
575,1.4650994454666058,-1.0314457596064537,1.980229705838775,-4.096387716080488,-1.4511332872223166,0.2193891291997471,718.75
576,1.465099411836504,-1.0314457072399976,1.980229719003446,-4.096387781295287,-1.4511332530557697,0.08623329145844505,720.0
577,1.4650993709571607,-1.0314456535257863,1.9802297337387764,-4.096387849368886,-1.4511332116190472,-0.05692254437767114,721.25
578,1.4650993152505851,-1.0314456073747822,1.9802297503790776,-4.096387911639555,-1.4511331554082265,-0.21007837536692084,722.5
579,1.4650992509770622,-1.0314455628698986,1.9802297684664496,-4.096387973628371,-1.4511330906354347,-0.37323420012800873,723.75
580,1.4650991744991122,-1.0314455369882118,1.980229786545096,-4.096388016862283,-1.4511330138205287,-0.5377615913710595,725.0
581,1.4650991009595549,-1.0314455170125332,1.980229803304475,-4.096388052897313,-1.4511329400036055,-0.6923395438974402,726.25
582,1.4650990274041047,-1.0314455153224955,1.9802298177413873,-4.096388068318455,-1.451132866344419,-0.8369174964237788,727.5
583,1.4650989589793924,-1.0314455158221987,1.9802298309077722,-4.096388080327923,-1.4511327978428807,-0.9714954489501008,728.75
584,1.465098895955618,-1.0314455314947426,1.9802298411002268,-4.0963880742378125,-1.4511327348928054,-1.096073401476419,730.0
585,1.4650988379908267,-1.031445545909231,1.9802298504745135,-4.096388068636558,-1.4511326769957968,-1.2106513540026915,731.25
586,1.4650987882950133,-1.031445568385457,1.9802298572247141,-4.096388052426402,-1.4511326274541818,-1.3152293065289689,732.5
587,1.465098744595106,-1.0314455923238612,1.9802298626296468,-4.096388033465926,-1.4511325839295062,-1.4098072590552275,733.75
588,1.4650987055157154,-1.0314456137311865,1.9802298674630954,-4.096388016510193,-1.4511325450068198,-1.494385211581472,735.0
589,1.4650986744172256,-1.0314456370228162,1.9802298705137944,-4.096387995963465,-1.4511325140924414,-1.5689631641077117,736.25
590,1.4650986498277285,-1.0314456602647348,1.9802298723123017,-4.096387974276774,-1.4511324896943432,-1.6335411166339444,737.5
591,1.465098629045955,-1.0314456799076044,1.9802298738323063,-4.096387955948302,-1.4511324690743297,-1.6881190691602026,738.75
592,1.4650986120719043,-1.0314456959514242,1.9802298750738068,-4.0963879409780475,-1.4511324522324007,-1.73269702168648,740.0
593,1.465098598905577,-1.031445708396196,1.9802298760368062,-4.096387929366012,-1.4511324391685565,-1.7672749742127478,741.25
594,1.4650985895469728,-1.0314457172419198,1.9802298767213047,-4.096387921112196,-1.4511324298827977,-1.7918529267390202,742.5
595,1.465098583996092,-1.0314457224885951,1.9802298771273021,-4.0963879162166,-1.4511324243751231,-1.8064308792652832,743.75
596,1.465384641518773,-1.0297543920960461,1.9769229184238262,-4.094772890866498,-1.451424931735959,-1.8129841371898852,745.0
597,1.4658595123799625,-1.0269463224539677,1.9714324381561703,-4.092091481300399,-1.4519105113697846,-1.8102894413906623,746.25
598,1.4659099522005177,-1.0266467255365332,1.9708465344721477,-4.091805281139325,-1.4519620948430199,-1.7998071350727098,747.5
599,1.4659095706881302,-1.0266463677909634,1.9708456057472343,-4.091804709896221,-1.4519617168942793,-1.7798178664111342,748.75
600,1.465908998317141,-1.0266458310765796,1.9708442124105683,-4.0918038528782255,-1.4519611498697165,-1.7498285977495598,750.0
601,1.4659082350875496,-1.0266451153933822,1.97084235446215,-4.091802710085341,-1.4519603937693313,-1.7098393290879803,751.25
602,1.4659072810672837,-1.0266442207580384,1.9708400319079014,-4.091801281409181,-1.4519594491216525,-1.6598500620529968,752.5
603,1.46590613650387,-1.0266431472312691,1.9708372447693572,-4.0917995664547355,-1.451958317852734,-1.5998608016362539,753.75
604,1.465904801145736,-1.0266418947513405,1.970833993024561,-4.091797565623381,-1.4519569980052414,-1.5298715412195114,755.0
605,1.465904795079334,-1.0266418359818152,1.9708338867225543,-4.091797518227023,-1.4519569928421199,-1.4498822961971314,756.25
606,1.4659048364605867,-1.0266418134074569,1.9708338816284856,-4.091797535883185,-1.4519570346931372,-1.3598930550915147,757.5
607,1.4659048824349874,-1.0266417883528822,1.970833875993422,-4.091797555387207,-1.4519570811522085,-1.2599038235155304,758.75
608,1.4659049369274195,-1.0266417723708672,1.9708338674831982,-4.091797563301565,-1.4519571356666776,-1.149914601699359,760.0
609,1.465904997200793,-1.0266417573783428,1.9708338577112183,-4.0917975690804225,-1.451957195852593,-1.0299253874483343,761.25
610,1.465905062658886,-1.0266417488502686,1.9708338461055943,-4.091797566621484,-1.4519572612955636,-0.8999361802412059,762.5
611,1.4659051333791187,-1.0266417504575898,1.9708338321816363,-4.091797551773835,-1.4519573321150077,-0.7599469769507918,763.75
612,1.4659052068310738,-1.0266417604383937,1.9708338166593662,-4.091797526978082,-1.4519574057499707,-0.6099577765691082,765.0
613,1.4659052815619034,-1.0266417839642217,1.9708337991608413,-4.091797486668733,-1.4519574807954818,-0.4499685827468627,766.25
614,1.4659053515012301,-1.0266418209653214,1.9708337808723853,-4.0917974320437835,-1.4519575511724911,-0.2837307482445277,767.5
615,1.4659054132045173,-1.0266418636649157,1.970833763454479,-4.091797372509569,-1.4519576133580052,-0.1259912208673002,768.75
616,1.465905457928402,-1.0266419160090918,1.9708337480997007,-4.0917973052269225,-1.4519576586358758,0.02174830650992505,770.0
617,1.4659054969850271,-1.026641967305626,1.9708337339779545,-4.09179724017051,-1.4519576982296627,0.15948783388710475,771.25
618,1.4659055199766036,-1.026642022126322,1.970833722522919,-4.091797174100354,-1.4519577217727762,0.2872273612642612,772.5
619,1.4659055379865684,-1.0266420743986582,1.9708337123594037,-4.091797111822714,-1.451957740303938,0.4049668886413979,773.75
620,1.465905548578184,-1.0266421236967487,1.9708337040144452,-4.091797054267099,-1.451957751379411,0.5127064160185041,775.0
621,1.4659055495538578,-1.0266421705674698,1.9708336978445689,-4.091797001221756,-1.451957752804188,0.6104459433956146,776.25
622,1.4659055504297078,-1.0266422126427148,1.970833692305943,-4.091796953603625,-1.4519577540831918,0.6981854707727058,777.5
623,1.4659055485019648,-1.026642249861021,1.9708336879309103,-4.0917969119804045,-1.4519577525088165,0.7759249981498014,778.75
624,1.4659055394378457,-1.0266422821238892,1.9708336855725372,-4.091796877261826,-1.4519577437421312,0.8436645255268976,780.0
625,1.4659055317118108,-1.0266423096239736,1.9708336835623173,-4.0917968476685544,-1.4519577362696214,0.9014040529039973,781.25
626,1.4659055253238606,-1.026642332361273,1.9708336819002463,-4.091796823200586,-1.4519577300912878,0.9491435802811241,782.5
627,1.4659055202739943,-1.02664235033579,1.9708336805863294,-4.091796803857924,-1.4519577252071296,0.9868831076582554,783.75
628,1.465905516562212,-1.026642363547524,1.9708336796205665,-4.091796789640567,-1.4519577216171473,1.014622635035377,785.0
629,1.4659055141885138,-1.0266423719964752,1.9708336790029577,-4.091796780548517,-1.4519577193213407,1.0323621624124963,786.25
630,1.4660367250044561,-1.02585419416902,1.9692914619961879,-4.091043019464612,-1.4520919492387727,1.0412051525134263,787.5
631,1.466532510500296,-1.0228759078657559,1.963463908763446,-4.088194803374052,-1.4525991429761471,1.0416593538767007,788.75
632,1.4667058679044473,-1.0218334809209597,1.9614241273988966,-4.08719781644785,-1.4527764946422215,1.03347083521791,790.0
633,1.4667055499370123,-1.0218331688560283,1.9614233319927146,-4.087197332549625,-1.4527761806192339,1.0166520968953174,791.25
634,1.4667050429141146,-1.0218326712451153,1.9614220636579658,-4.08719656093765,-1.4527756798860536,0.989833358572723,792.5
635,1.4667043468357543,-1.0218319880882203,1.9614203223946494,-4.087195501611925,-1.4527749924426805,0.953014620250134,793.75
636,1.4667034617019319,-1.0218311193853435,1.961418108202766,-4.087194154572451,-1.4527741182891147,0.906195881927543,795.0
637,1.466702387246697,-1.0218300649192211,1.961415420917327,-4.0871925207788316,-1.4527730551369344,0.8493771632483181,796.25
638,1.4667011236498881,-1.0218288248367575,1.9614122606497661,-4.087190599581808,-1.4527718045341347,0.7825584471899902,797.5
639,1.4667006409478023,-1.021828327199103,1.9614110580037565,-4.087189894318562,-1.4527713261944075,0.7057397416349003,798.75
640,1.466700640006585,-1.0218282858150036,1.9614110634252224,-4.08718994134611,-1.4527713242454703,0.6189210415801808,800.0
641,1.4667006389507282,-1.0218282397001386,1.9614110695031015,-4.087189993645189,-1.452771322021874,0.5221023538490298,801.25
642,1.4667006298643062,-1.0218281908259041,1.9614110775169133,-4.087190050494587,-1.4527713120716559,0.41528367279828976,802.5
643,1.4667006121189305,-1.0218281393494744,1.961411087568796,-4.087190111834325,-1.45277129380427,0.2984649998885222,803.75
644,1.4667005910117228,-1.021828084475997,1.9614110987098399,-4.087190177628814,-1.4527712721433905,0.17164633505007487,805.0
645,1.4667005524868997,-1.0218280339001127,1.9614111126829339,-4.087190241818148,-1.4527712330868363,0.03482767602526494,806.25
646,1.466700509836796,-1.021827980865349,1.9614111277736506,-4.087190309544885,-1.4527711898763527,-0.11199098209224895,807.5
647,1.46670044892156,-1.0218279387367735,1.9614111450231015,-4.087190368343267,-1.4527711284821514,-0.2688096332654898,808.75
648,1.4667003807344448,-1.021827900223409,1.961411163225046,-4.087190424407146,-1.4527710598420214,-0.43475653294976824,810.0
649,1.4667003060961439,-1.0218278767510107,1.9614111807569954,-4.087190464692837,-1.4527709848875499,-0.5956701074556436,811.25
650,1.4667002332353603,-1.021827864918784,1.9614111964527603,-4.087190491515996,-1.4527709118246952,-0.7465836819616303,812.5
651,1.466700162544627,-1.021827863329764,1.9614112104147874,-4.087190506380265,-1.4527708410330311,-0.8874972564677575,813.75
652,1.4667000970451283,-1.0218278702377828,1.9614112222786135,-4.087190510697239,-1.4527707755206087,-1.0184108309740458,815.0
653,1.466700036728868,-1.0218278852588865,1.9614112320949528,-4.087190504901623,-1.4527707152757285,-1.1393244054804281,816.25
654,1.4666999817512223,-1.0218279000538535,1.9614112409011784,-4.087190498373999,-1.452770660373757,-1.250237979986971,817.5
655,1.4666999357747648,-1.021827925249177,1.9614112466240052,-4.08719047844704,-1.4527706145839014,-1.3511515544936008,818.75
656,1.4666998943543301,-1.0218279479477763,1.961411251779726,-4.087190460494734,-1.4527705733315777,-1.4420651290003086,820.0
657,1.4666998574899186,-1.0218279681496518,1.9614112563683435,-4.087190444517082,-1.4527705366167858,-1.5229787035070896,821.25
658,1.4666998304835768,-1.0218279928153124,1.9614112584668102,-4.087190421680008,-1.4527705098149353,-1.5938922780139344,822.5
659,1.466699807613181,-1.0218280144327752,1.9614112601505371,-4.087190401517507,-1.4527704871247271,-1.654805852520824,823.75
660,1.46669978849735,-1.0218280325013627,1.9614112615578492,-4.087190384665021,-1.4527704681595028,-1.7057194270277534,825.0
661,1.4666997731360836,-1.0218280470210752,1.9614112626887485,-4.087190371122554,-1.4527704529192622,-1.7466330015346876,826.25
662,1.466699761529382,-1.0218280579919137,1.9614112635432357,-4.087190360890105,-1.4527704414040057,-1.7775465760416334,827.5
663,1.466699753677245,-1.021828065413878,1.9614112641213115,-4.0871903539676735,-1.4527704336137328,-1.7984601505485414,828.75
664,1.4667271723165969,-1.0216607222258733,1.961083583675359,-4.087030075112819,-1.4527984961182088,-1.8096625968747901,830.0
665,1.4671662432722494,-1.0189812839240822,1.9558369996152785,-4.084463865119758,-1.4532478756593572,-1.8132752471566342,831.25
666,1.467489353207855,-1.0170087468701803,1.9519745299046807,-4.082574621252759,-1.4535785751493646,-1.8074172797795691,832.5
667,1.4674891041076934,-1.0170084879395649,1.9519738716918078,-4.0825742218083425,-1.453578328540502,-1.7937822138767827,833.75
668,1.4674886723166938,-1.0170080391084262,1.9519727307435546,-4.0825735294101415,-1.4535779010679282,-1.7701471479740092,835.0
669,1.4674880578348568,-1.0170074003767642,1.9519711070599213,-4.082572544058156,-1.4535772927316426,-1.7365120820711994,836.25
670,1.4674872606621814,-1.0170065717445782,1.951969000640907,-4.082571265752385,-1.4535765035316457,-1.6928770161683953,837.5
671,1.4674862809923135,-1.0170055532631972,1.9519664115070947,-4.082569694165873,-1.4535755349926704,-1.6392419567967904,838.75
672,1.4674851188309463,-1.0170043449341053,1.9519633396590104,-4.082567829288905,-1.4535743871597595,-1.5756069024349055,840.0
673,1.4674842573755669,-1.0170034306876068,1.9519610302365005,-4.0825664331529605,-1.453573536604425,-1.501971853390031,841.25
674,1.4674842953017162,-1.0170034099816652,1.95196102553089,-4.082566449348757,-1.4535735749666738,-1.4183368147297128,842.5
675,1.4674843377581583,-1.0170033868230142,1.9519610202832918,-4.082566467388081,-1.4535736178798868,-1.3247017843473703,843.75
676,1.4674843856328956,-1.0170033638208253,1.951961013961695,-4.082566484235488,-1.4535736661270289,-1.2210667610796602,845.0
677,1.4674844419239212,-1.0170033497982522,1.9519610047771148,-4.082566489600083,-1.4535737223387761,-1.1074317471820398,846.25
678,1.4674845031677872,-1.0170033345410125,1.951960994783784,-4.082566495439849,-1.4535737834904285,-0.9837967425229015,847.5
679,1.4674845696658023,-1.0170033323623764,1.951960982078783,-4.082566485559052,-1.4535738500433417,-0.850161743712553,848.75
680,1.4674846412225007,-1.0170033339521805,1.9519609679001815,-4.08256647049101,-1.4535739217017485,-0.7065267466104495,850.0
681,1.4674847133255366,-1.0170033514358554,1.9519609515733631,-4.082566437380956,-1.4535739940618253,-0.5528917546566299,851.25
682,1.4674847887004678,-1.0170033751148368,1.9519609338117994,-4.082566396670816,-1.453574069758025,-0.3892567688359858,852.5
683,1.4674848522867294,-1.0170034183928995,1.9519609158347881,-4.082566336025082,-1.4535741338407884,-0.22516982536298202,853.75
684,1.467484908680627,-1.01700346235766,1.9519608991741377,-4.082566275938457,-1.4535741907290456,-0.07107765643727061,855.0
685,1.4674849489728135,-1.017003515229728,1.9519608845137508,-4.082566208784694,-1.45357423158212,0.0730145124885694,856.25
686,1.4674849837253594,-1.0170035659361467,1.9519608712133751,-4.082566145103038,-1.4535742668678293,0.20710668141457034,857.5
687,1.4674850024444017,-1.0170036202287671,1.9519608605834795,-4.082566080347784,-1.4535742861351593,0.33119885034069546,858.75
688,1.4674850196549654,-1.0170036701461969,1.9519608508101869,-4.082566020810845,-1.4535743038498263,0.44529101926693565,860.0
689,1.467485024361915,-1.0170037184287073,1.951960843688724,-4.08256596543883,-1.4535743090297841,0.5493831881932976,861.25
690,1.4674850252884455,-1.017003762902257,1.9519608377948208,-4.082565915067468,-1.4535743103878436,0.6434753571197261,862.5
691,1.4674850261165056,-1.0170038026492099,1.9519608325273101,-4.0825658700495095,-1.4535743116015698,0.7275675260462716,863.75
692,1.4674850205139764,-1.017003837528847,1.9519608291408619,-4.08256583171845,-1.4535743063297482,0.8016596949728441,865.0
693,1.4674850120569163,-1.0170038676206408,1.9519608269269055,-4.082565799321201,-1.4535742981535738,0.865751863899484,866.25
694,1.4674850049193713,-1.0170038930173526,1.9519608250583806,-4.082565771978742,-1.4535742912530893,0.919844032826157,867.5
695,1.467484999101342,-1.0170039137189821,1.9519608235352874,-4.0825657496910726,-1.453574285628295,0.9639362017528488,868.75
696,1.4674849946028279,-1.017003929725531,1.951960822357628,-4.082565732458194,-1.4535742812791907,0.9980283706795591,870.0
697,1.467484991423829,-1.017003941036999,1.951960821525403,-4.0825657202801064,-1.4535742782057766,1.0221205396062314,871.25
698,1.4674849895643456,-1.0170039476533863,1.9519608210386115,-4.08256571315681,-1.4535742764080526,1.036212708532908,872.5
699,1.4677807304703985,-1.0151705458479325,1.9483683098451765,-4.080807237571172,-1.4538771017147623,1.04240970712851,873.75
700,1.468225998246006,-1.012409741015175,1.9429585460849192,-4.078159232929943,-1.454333037924132,1.0392383191843455,875.0
701,1.4682638156595282,-1.0121738675937293,1.9424962427920305,-4.077932884179184,-1.4543717685207183,1.0283931849873025,876.25
702,1.4682634453886783,-1.0121734657126618,1.9424952380847547,-4.077932280697626,-1.4543714031136545,1.0079458547221065,877.5
703,1.468262894032648,-1.012172867287076,1.9424937420139314,-4.07793138207653,-1.4543708590000999,0.977498524456879,878.75
704,1.4682621615914366,-1.012172072316972,1.9424917545795588,-4.077930188315898,-1.4543701361800543,0.9370511941916481,880.0
705,1.4682612479983397,-1.012171080745664,1.9424892757376369,-4.077928699665485,-1.4543692340720977,0.8866038693293181,881.25
706,1.468260153079893,-1.0121698924257292,1.942486305373639,-4.077926916774513,-1.4543681511646405,0.826156561190565,882.5
707,1.4682588994024333,-1.012168531237418,1.9424829044305352,-4.077924876053204,-1.4543669112254218,0.755709253360235,883.75
708,1.468258898543665,-1.01216849343647,1.9424829094148595,-4.077924919045497,-1.4543669094456635,0.6752619611321619,885.0
709,1.4682588975761668,-1.0121684509478281,1.9424829150287972,-4.07792496733684,-1.4543669074285206,0.5848146729882513,886.25
710,1.468258896497116,-1.0121684037873806,1.942482921286648,-4.07792502086297,-1.4543669051509822,0.4843673937502797,887.5
711,1.4682588817609274,-1.0121683553623055,1.942482930418388,-4.0779250782769,-1.4543668898232918,0.37392012480995296,888.75
712,1.4682588637160294,-1.012168303052969,1.9424829407050956,-4.0779251406781825,-1.4543668712433901,0.25347286334221397,890.0
713,1.4682588361520188,-1.0121682507942225,1.942482952847151,-4.077925204804257,-1.4543668431366525,0.12302560874839968,891.25
714,1.468258797149181,-1.0121681996372023,1.9424829670840613,-4.0779252698289845,-1.454366803588969,-0.017421642235007535,892.5
715,1.4682587482007872,-1.0121681516136314,1.9424829828659345,-4.077925333166593,-1.454366754113442,-0.16786889004231403,893.75
716,1.4682586867331664,-1.0121681091562746,1.9424830003835636,-4.077925392548906,-1.454366692156662,-0.32831613133055165,895.0
717,1.4682586149907957,-1.0121680783921263,1.9424830184073714,-4.077925440639692,-1.4543666200263505,-0.49443118795633345,896.25
718,1.4682585430398043,-1.0121680558131694,1.9424830354170015,-4.0779254795266935,-1.4543665477668741,-0.6517145639345128,897.5
719,1.4682584708913686,-1.0121680516469467,1.9424830500919612,-4.077925497659073,-1.4543664754890164,-0.7989979399128384,898.75
720,1.4682584029691732,-1.0121680501556414,1.9424830635939618,-4.0779255119844,-1.4543664074686533,-0.9362813158912882,900.0
721,1.4682583402922524,-1.0121680630532652,1.9424830742134176,-4.077925509085749,-1.454366344840144,-1.06356469186992,901.25
722,1.4682582825918062,-1.0121680774451125,1.9424830836650937,-4.077925503573639,-1.4543662872087886,-1.1808480678486253,902.5
723,1.468258231767361,-1.012168096281688,1.9424830911964575,-4.077925491762882,-1.4543662365051855,-1.2881314438274634,903.75
724,1.4682581880547143,-1.012168120246648,1.9424830966731848,-4.077925472837621,-1.4543661929720801,-1.3854148198064145,905.0
725,1.4682581488353992,-1.012168141748187,1.9424831015869384,-4.07792545585773,-1.454366153913851,-1.4726981957854264,906.25
726,1.4682581158584156,-1.0121681630803074,1.9424831052993083,-4.077925437907352,-1.4543661211039907,-1.5499815717645289,907.5
727,1.468258090944107,-1.0121681866305832,1.942483107145835,-4.0779254159516825,-1.4543660963883351,-1.6172649477436707,908.75
728,1.468258069732691,-1.0121682066806963,1.9424831087179208,-4.077925397259176,-1.454366075346047,-1.6745483237228498,910.0
729,1.4682580522241666,-1.0121682232306455,1.9424831100155642,-4.077925381829832,-1.4543660579771247,-1.7218316997020788,911.25
730,1.4682580384185344,-1.0121682362804325,1.9424831110387677,-4.077925369663652,-1.4543660442815702,-1.759115075681298,912.5
731,1.4682580283157947,-1.012168245830057,1.9424831117875316,-4.077925360760638,-1.4543660342593834,-1.7863984516605147,913.75
732,1.4682580219159467,-1.0121682518795192,1.9424831122618558,-4.0779253551207875,-1.454366027910564,-1.8036818276397146,915.0
733,1.4684049174051468,-1.0112431807999092,1.9406691915414367,-4.077036822027971,-1.454516513393065,-1.8122212468847818,916.25
734,1.4688801369222049,-1.0082503852256512,1.9348007881060125,-4.074162238338304,-1.455003347301786,-1.8122476202617135,917.5
735,1.4690265697870295,-1.007327135842008,1.932990353731402,-4.073275369153767,-1.4551533639835705,-1.803750472176457,918.75
736,1.4690262680271695,-1.0073267891693194,1.9329894888465824,-4.073274850758153,-1.4551530654540465,-1.7865041441322633,920.0
737,1.4690257912968119,-1.0073262414841673,1.9329881224725085,-4.073274031779357,-1.4551525938270826,-1.7592578160880723,921.25
738,1.4690251395959573,-1.007325492786552,1.9329862546091805,-4.073272912217382,-1.4551519491026785,-1.72201148804387,922.5
739,1.4690243129246048,-1.0073245430764732,1.9329838852565977,-4.073271492072226,-1.4551511312808345,-1.6747651599996918,923.75
740,1.469023311600623,-1.007323392444492,1.9329810144549708,-4.073269770778012,-1.4551501428931513,-1.6175188528107052,925.0
741,1.4690221353900463,-1.0073220408238934,1.9329776421745195,-4.073267748751018,-1.4551489820767163,-1.5502725472872596,926.25
742,1.4690217688488367,-1.0073215780021967,1.9329765178268827,-4.07326708689652,-1.4551486209324915,-1.4730262526713003,927.5
743,1.4690218078702206,-1.0073215566889533,1.9329765129543321,-4.073267103537521,-1.455148660396469,-1.3857799627305074,928.75
744,1.469021851357093,-1.0073215329687977,1.9329765075559435,-4.073267121940553,-1.45514870432575,-1.2885336858217458,930.0
745,1.4690219018432433,-1.0073215142553285,1.9329765000931123,-4.073267133511875,-1.45514875497948,-1.1812874155300683,931.25
746,1.4690219591294573,-1.0073214999618167,1.9329764906843212,-4.073267138940299,-1.4551488121821998,-1.0640411533079537,932.5
747,1.469022021356535,-1.0073214870892346,1.9329764801190843,-4.0732671418441795,-1.4551488743431424,-0.9367948990658854,933.75
748,1.4690220887964809,-1.007321488551544,1.932976466668617,-4.073267127599353,-1.4551489418800432,-0.799548650458986,935.0
749,1.4690221604534481,-1.00732149259892,1.932976452054512,-4.073267109647002,-1.4551490136647367,-0.6523024031221869,936.25
750,1.4690222318962696,-1.007321514993658,1.9329764351095666,-4.07326707100835,-1.4551490854157352,-0.49505616263872465,937.5
751,1.4690223031854457,-1.0073215454492574,1.9329764171521866,-4.073267023292597,-1.4551491570918786,-0.3289547139254615,938.75
752,1.4690223642456144,-1.0073215875980028,1.9329763996937421,-4.073266964278053,-1.4551492186408639,-0.168475419337147,940.0
753,1.4690224129261864,-1.0073216352257415,1.9329763839608893,-4.073266901386009,-1.4551492678485647,-0.017996124748721174,941.25
754,1.4690224516718453,-1.007321686021591,1.9329763697718172,-4.073266836770389,-1.4551493071400579,0.12248316983987456,942.5
755,1.4690224791140187,-1.0073217378874768,1.9329763576670171,-4.073266773056799,-1.4551493351245177,0.2529624644286173,943.75
756,1.4690224970401369,-1.0073217898432467,1.9329763474217945,-4.073266711018668,-1.4551493535819895,0.37344175901748344,945.0
757,1.4690225117212545,-1.0073218379251987,1.9329763383157168,-4.073266653962465,-1.4551493687524737,0.4839210536064468,946.25
758,1.469022512697457,-1.0073218847443501,1.9329763320678701,-4.0732666008919685,-1.4551493701886522,0.5844003481955001,947.5
759,1.469022513576505,-1.007321926903917,1.9329763264418238,-4.073266553103204,-1.4551493714818984,0.6748796427846697,948.75
760,1.4690225143583981,-1.007321964403901,1.9329763214375806,-4.073266510596175,-1.4551493726322116,0.7553589373738883,950.0
761,1.469022505399478,-1.0073219970351461,1.9329763189784963,-4.073266475407978,-1.4551493639819095,0.8258382319631875,951.25
762,1.4690224975283275,-1.0073220250325088,1.932976316904893,-4.073266445251215,-1.455149356375322,0.8863175265525146,952.5
763,1.469022490958639,-1.0073220484006224,1.9329763151741486,-4.0732664200807465,-1.4551493500264518,0.936796821141876,953.75
764,1.4690224856904122,-1.0073220671394885,1.9329763137862654,-4.073266399896573,-1.4551493449352995,0.977276115731269,955.0
765,1.4690224817236475,-1.0073220812491075,1.932976312741245,-4.073266384698695,-1.4551493411018646,1.007755410320638,956.25
766,1.4690224790583448,-1.0073220907294793,1.9329763120390866,-4.073266374487114,-1.4551493385261476,1.0282347049099902,957.5
767,1.4690579830173394,-1.0070949764787465,1.932530663865244,-4.073047917496113,-1.4551857276890454,1.039098456498579,958.75
768,1.4694880163926705,-1.0043441356322291,1.9271330276500729,-4.0704020540963315,-1.4556264820150857,1.0422980288890011,960.0
769,1.469780901048865,-1.0024698103324146,1.9234552097533744,-4.06859919628206,-1.4559266725055249,1.0361062549721967,961.25
770,1.4697806573698076,-1.002469518641685,1.9234544930201822,-4.068598770804088,-1.4559264322164975,1.022065176474315,962.5
771,1.4697802401434992,-1.002469019209983,1.9234532658324746,-4.068598042302405,-1.455926020794585,0.9980240979764454,963.75
772,1.46977964936994,-1.0024683120373088,1.9234515281902513,-4.06859701077701,-1.455925438239787,0.9639830194785453,965.0
773,1.4697788850491298,-1.0024673971236626,1.9234492800935126,-4.068595676227904,-1.455924684552104,0.9199419409806429,966.25
774,1.469777947015813,-1.0024662743230486,1.9234465214261915,-4.068594039295531,-1.455923758273811,0.8659008685609847,967.5
775,1.4697768352866925,-1.0024649436502147,1.9234432521999625,-4.068592099915021,-1.4559226595524348,0.8018598001506578,968.75
776,1.46977605325315,-1.0024639945286653,1.9234409551798908,-4.0685907515099915,-1.4559218863377368,0.7278187377305917,970.0
777,1.4697760523695225,-1.0024639555942199,1.923440960348088,-4.068590795830173,-1.4559218845046433,0.643777685126456,971.25
778,1.4697760513764162,-1.0024639120508312,1.9234409661529774,-4.068590845327417,-1.4559218824176559,0.549736641301718,972.5
779,1.469776046772146,-1.0024638647780952,1.9234409731725663,-4.06859089966654,-1.4559218767739046,0.44569560452476553,973.75
780,1.4697760299178873,-1.0024638159569137,1.9234409828428882,-4.068590957974579,-1.4559218594098817,0.3316545766482694,975.0
781,1.4697760115866145,-1.0024637628549815,1.923440993361311,-4.068591021394006,-1.4559218405307506,0.20761355839516993,976.25
782,1.4697759776409938,-1.0024637132185283,1.923441006504206,-4.0685910838429855,-1.4559218060541035,0.07357254583584508,977.5
783,1.469775938182413,-1.0024636615121623,1.9234410210021,-4.068591149668593,-1.4559217660377208,-0.07046846529076194,978.75
784,1.4697758830366126,-1.0024636184554825,1.9234410374727844,-4.068591208658697,-1.4559217103986637,-0.22450947101988544,980.0
785,1.4697758210462257,-1.0024635761160698,1.9234410552009917,-4.068591268120683,-1.455921647913229,-0.3880622074569266,981.25
786,1.469775749015896,-1.0024635535626123,1.923441072342127,-4.0685913071041355,-1.4559215755703676,-0.5476838709887581,982.5
787,1.4697756805366273,-1.0024635358415714,1.9234410881552688,-4.068591339961211,-1.455921506830657,-0.6973055345206581,983.75
788,1.4697756123945465,-1.0024635343827502,1.9234411017910071,-4.068591354377532,-1.4559214385888906,-0.8369271980526136,985.0
789,1.4697755491598095,-1.0024635343159891,1.9234411142776857,-4.068591366301224,-1.4559213752743356,-0.9665488615846091,986.25
790,1.4697754911073484,-1.0024635488192684,1.9234411238505358,-4.068591360788636,-1.4559213172921932,-1.0861705251166236,987.5
791,1.469775437907893,-1.002463562110115,1.923441132623118,-4.0685913557368805,-1.455921264157178,-1.1957921886486982,988.75
792,1.4697753917926035,-1.0024635806527338,1.923441139316104,-4.0685913434228596,-1.4559212181669758,-1.295413852180785,990.0
