AdelaJim/TFM_AdelaJimenez/workspace/ros_ur_driver/src/trayectories/data/saved_trajectories/20250204_1910_trajectory.csv
,shoulder_pan_joint,shoulder_lift_joint,elbow_joint,wrist_1_joint,wrist_2_joint,wrist_3_joint,time_from_start
0,-1.5903390452160522,-2.529463370027469,-1.0283177136601205,-0.15804951971793904,2.379313700522401,2.577926913879784,0.0
1,-1.5896602608037367,-2.5271335747590045,-1.0325311496389102,-0.15662538147975247,2.3759586508273367,2.5729269138797837,1.25
2,-1.58762390756679,-2.520144188953611,-1.045171457575279,-0.15235296676519272,2.3658935017421436,2.557926913879784,2.5
3,-1.5842299855052122,-2.508495212611289,-1.0662386374692274,-0.14523227557425983,2.3491182532668224,2.532926913879784,3.75
4,-1.5794782948811266,-2.492186799350613,-1.095732487462582,-0.13526256650522783,2.3256322832782654,2.4979269156894963,5.0
5,-1.5731578117474603,-2.4713805659051395,-1.1334409151151936,-0.12166080731735418,2.2947780192473433,2.4529276341474757,6.25
6,-1.5648827818341062,-2.4463717637634117,-1.1789765321592112,-0.10299567718897151,2.255353329970019,2.3979300498132488,7.5
7,-1.5543237965316794,-2.4174531084674875,-1.2319541300988868,-0.07805058619119754,2.206397618337349,2.332977468406254,8.75
8,-1.5411410735957267,-2.3851999827765216,-1.2916727108285615,-0.04569593575920505,2.1475622605790785,2.2582826351249485,10.0
9,-1.5250251388059217,-2.3504870295512053,-1.3569077406383576,-0.004813580252538419,2.0787444762770293,2.174538782581796,11.25
10,-1.505580796576003,-2.31413677036932,-1.4267176100944352,0.045676171831649626,2.0000888950773237,2.081605657227936,12.5
11,-1.4826584603009958,-2.2774688000332923,-1.4992736568827445,0.10614248547577976,1.9129871600648491,1.9800684455714086,13.75
12,-1.4562282550444823,-2.241832528985748,-1.5726913732173033,0.17660428876934375,1.8194296730432398,1.8702831470122379,15.0
13,-1.426310647606043,-2.208406812036762,-1.6453568679506536,0.25701188534542485,1.7216516423330768,1.751935347440639,16.25
14,-1.3952078096548013,-2.1799938050912324,-1.7114748542645082,0.34128078882805934,1.628455164859506,1.6325954929292914,17.5
15,-1.3648169596372386,-2.15739606898023,-1.7684336336326811,0.42437136474824144,1.5452399204892409,1.517523299027948,18.75
16,-1.3354804795570459,-2.139653320189556,-1.8173355907569047,0.5053759066997328,1.4720060776384265,1.4064915355710783,20.0
17,-1.3075887592144746,-2.125925844859636,-1.8590130711532333,0.5831527464365633,1.4087452942828276,1.3000721781954425,21.25
18,-1.2816373179968503,-2.115456708553592,-1.8940875585252381,0.6561329849237585,1.35544615747953,1.199781141675778,22.5
19,-1.2582748169701576,-2.107664695848894,-1.922903985393044,0.7222476316079494,1.3120165232200147,1.108254111106348,23.75
20,-1.2377391732064569,-2.101868812129997,-1.9462860083780886,0.7805604178023327,1.2774936992634247,1.0266843675714825,25.0
21,-1.219924657438314,-2.097517874637771,-1.9652297081391614,0.8311936894736175,1.2502568469033601,0.955109891117344,26.25
22,-1.2047458241876265,-2.0941970658556874,-1.980482139296992,0.8742475386737018,1.2291067150984651,0.8935330437581982,27.5
23,-1.1921322212139807,-2.0917034730902984,-1.9925443003566738,0.9099636964666469,1.212950888482595,0.8419542647500842,28.75
24,-1.1820504295790992,-2.0897845197940943,-2.0020146277594373,0.9384937253268686,1.200433547893819,0.7994547648816678,30.0
25,-1.1752538972308355,-2.088490885688656,-2.0083989492217853,0.9577269494945149,1.1919951162097226,0.7549893698705005,31.25
26,-1.171990675619307,-2.087869785665146,-2.0114642578791266,0.9669614202073081,1.1879435689008884,0.7072818857679883,32.5
27,-1.1716738152925616,-2.087809499133257,-2.0117619042591297,0.9678581186914186,1.187550161859634,0.6568998233375425,33.75
28,-1.1716738159685782,-2.0878095286182345,-2.0117619081681757,0.9678581520424264,1.187550162798174,0.5973863501004814,35.0
29,-1.171673816758783,-2.0878095630559983,-2.011761912735477,0.9678581909911566,1.1875501638994148,0.5278728893692592,36.25
30,-1.1716738209875721,-2.087809601563405,-2.011761918535536,0.9678582351930722,1.187550168465306,0.44835943249329824,37.5
31,-1.1716738343512945,-2.0878096426251482,-2.0117619265546955,0.9678582840487762,1.187550182160196,0.35884598497424053,38.75
32,-1.1716738492079015,-2.0878096882740573,-2.011761935469746,0.96785833836217,1.187550197384645,0.25933254609778866,40.0
33,-1.1716738702201095,-2.0878097357743264,-2.0117619458860503,0.9678583959621474,1.1875502187836466,0.1498191134135248,41.25
34,-1.1716739031044154,-2.0878097817718424,-2.0117619585457858,0.9678584541869003,1.187550252051927,0.030305686601204675,42.5
35,-1.1716739387893023,-2.0878098315683387,-2.011761972268458,0.9678585172370103,1.1875502881525597,-0.09920773294350067,43.75
36,-1.1716739916259726,-2.08780987060965,-2.011761988130015,0.967858571519,1.1875503413353776,-0.23872114553710774,45.0
37,-1.1716740485341564,-2.087809911951234,-2.0117620051228395,0.9678586291861875,1.1875503986108806,-0.3882345508160675,46.25
38,-1.1716741202222716,-2.0878099361008946,-2.0117620229407116,0.967858670372445,1.187550470544654,-0.5469740199359221,47.5
39,-1.171674190872134,-2.087809955182369,-2.0117620398943052,0.9678587056475615,1.1875505413999465,-0.7009235043900185,48.75
40,-1.1716742611064377,-2.0878099569246906,-2.0117620545349064,0.9678587213115408,1.1875506117045882,-0.844872988844114,50.0
41,-1.171674326386499,-2.0878099552620473,-2.0117620677210963,0.9678587321738193,1.1875506770245192,-0.9788224732982105,51.25
42,-1.1716743864626364,-2.087809939284074,-2.011762077999897,0.9678587258967367,1.1875507370250622,-1.102771957752306,52.5
43,-1.1716744416919522,-2.0878099245951764,-2.0117620874494158,0.9678587201260728,1.1875507921848834,-1.2167214422064025,53.75
44,-1.1716744886946593,-2.0878099008104054,-2.0117620940416736,0.9678587025053451,1.1875508390407514,-1.3206709266605003,55.0
45,-1.171674530238108,-2.0878098764328987,-2.011762099437174,0.9678586831519773,1.187550880428339,-1.4146204111145992,56.25
46,-1.171674567359666,-2.08780985465014,-2.011762104258372,0.9678586658585833,1.187550917410626,-1.4985698955686981,57.5
47,-1.1716745964735567,-2.0878098304465023,-2.0117621071248397,0.9678586442762617,1.1875509463599563,-1.5725193800227968,58.75
48,-1.1716746197430004,-2.087809806847803,-2.0117621088693625,0.9678586222351682,1.1875509694648148,-1.636468864476898,60.0
49,-1.1716746393737218,-2.0878097869393133,-2.0117621103410865,0.9678586036407149,1.1875509889566878,-1.690418348930996,61.25
50,-1.1716746553657211,-2.087809770721034,-2.0117621115400115,0.9678585884929015,1.1875510048355755,-1.7343678333850923,62.5
51,-1.1716746677189973,-2.0878097581929644,-2.0117621124661405,0.96785857679173,1.1875510171014774,-1.7683173178391896,63.75
52,-1.171674676433551,-2.0878097493551038,-2.011762113119473,0.9678585685372005,1.1875510257543929,-1.7922668022932857,65.0
53,-1.1716746815093817,-2.0878097442074517,-2.0117621135000094,0.9678585637293127,1.1875510307943222,-1.8062162867473834,66.25
54,-1.1727859004785417,-2.0897677610651693,-2.0079559194746968,0.9660095180214867,1.1886601597130309,-1.8122489000426372,67.5
55,-1.1742816547535102,-2.092403357581395,-2.002832584135706,0.9635206081799829,1.1901530999552445,-1.808686769406242,68.75
56,-1.1743877654955914,-2.092590340515504,-2.002469114167012,0.963344032179651,1.190259008824229,-1.7972683079454976,70.0
57,-1.1743877573060604,-2.092590345568431,-2.00246911588098,0.9633440278103113,1.1902589964103036,-1.7761661259975114,71.25
58,-1.1743877452356366,-2.0925903530158623,-2.0024691184071712,0.9633440213704085,1.1902589781136097,-1.7450639440495257,72.5
59,-1.1743877292843197,-2.0925903628577975,-2.0024691217455857,0.9633440128599425,1.1902589539341466,-1.7039617621015415,73.75
60,-1.1743877096932953,-2.0925903749009485,-2.002469126094009,0.9633440015803384,1.1902589258997787,-1.6528595872257943,75.0
61,-1.1743876868622283,-2.092590388825017,-2.0024691317801917,0.9633439863739943,1.190258897370852,-1.5917574282204703,76.25
62,-1.1743876599078877,-2.092590405200041,-2.0024691374890002,0.9633439714157029,1.1902588644800276,-1.5206552705912915,77.5
63,-1.1743876244721643,-2.0925904259658514,-2.00246913298842,0.9633439875457253,1.1902588306886526,-1.4395531280757394,78.75
64,-1.1743875846717438,-2.0925904493294176,-2.002469127900487,0.963344005823447,1.1902587927693773,-1.3484509903843644,80.0
65,-1.1743875405104989,-2.0925904753223232,-2.0024691221977498,0.9633440263833529,1.190258750754898,-1.2473488606024503,81.25
66,-1.1743874872752986,-2.0925904903660726,-2.002469113169234,0.9633440329808973,1.1902586977263847,-1.1362467418873075,82.5
67,-1.1743874289446636,-2.092590505896161,-2.002469103150072,0.9633440391464638,1.1902586394704038,-1.0151446304653184,83.75
68,-1.174387365567529,-2.0925905126849105,-2.002469090977799,0.9633440344410842,1.1902585760903575,-0.8840425255988906,85.0
69,-1.1743872971508926,-2.0925905110049428,-2.002469076688892,0.9633440191735914,1.190258507601007,-0.742940423799338,86.25
70,-1.1743872267044844,-2.0925904983463117,-2.00246906056758,0.9633439911386685,1.190258436995935,-0.5918383255195592,87.5
71,-1.1743871544030808,-2.0925904740358465,-2.0024690425629403,0.9633439496122951,1.1902583644449272,-0.4307362337462712,88.75
72,-1.1743870886171828,-2.092590433856149,-2.002469023853185,0.9633438914785837,1.1902582982903827,-0.2648639038271008,90.0
73,-1.1743870296652024,-2.0925903903622194,-2.0024690061219186,0.9633438309464155,1.1902582389493617,-0.10822522962737884,91.25
74,-1.1743869885963019,-2.0925903353405384,-2.0024689905832784,0.9633437609208878,1.190258197415713,0.038413444572343074,92.5
75,-1.1743869512351623,-2.092590283152105,-2.00246897617242,0.9633436948125984,1.190258159615059,0.17505211877206686,93.75
76,-1.174386930974566,-2.092590226360406,-2.002468964685668,0.9633436268603387,1.1902581388928588,0.30169079297179346,95.0
77,-1.1743869136709688,-2.0925901732575953,-2.002468954282557,0.9633435636426773,1.1902581211589829,0.4183294671715185,96.25
78,-1.1743869050533462,-2.0925901227927604,-2.0024689460060325,0.9633435050953985,1.1902581121388573,0.5249681413712459,97.5
79,-1.1743869039656367,-2.092590075273241,-2.0024689396579194,0.9633434513388165,1.1902581106778838,0.621606815570974,98.75
80,-1.1743869029904819,-2.0925900326709614,-2.002468933966691,0.9633434031448684,1.1902581093680895,0.7082454897707026,100.0
81,-1.1743869058336298,-2.0925899950769242,-2.002468929706314,0.9633433613405177,1.190258111918967,0.7848841639704445,101.25
82,-1.1743869142802912,-2.092589962534971,-2.002468927249634,0.9633433263241451,1.19025812011753,0.8515228381701776,102.5
83,-1.174386921459421,-2.092589934876362,-2.002468925161611,0.9633432965624346,1.1902581270857917,0.9081615123699012,103.75
84,-1.1743869273710197,-2.092589912101098,-2.0024689234422413,0.9633432720553852,1.190258132823753,0.9548001865696312,105.0
85,-1.1743869320150866,-2.092589894209177,-2.002468922091529,0.9633432528029983,1.190258137331413,0.9914388607693589,106.25
86,-1.1743869353916223,-2.0925898812005985,-2.0024689211094744,0.9633432388052738,1.1902581406087718,1.0180775349690863,107.5
87,-1.1743869375006264,-2.0925898730753634,-2.002468920496077,0.963343230062212,1.1902581426558299,1.0347162091688145,108.75
88,-1.1750365035510233,-2.093752825466399,-2.000206354224693,0.9622431290632065,1.1909064417233541,1.0427667568170644,110.0
89,-1.1766603935324016,-2.096660176226779,-1.9945500178009212,0.9594929246526612,1.1925271642708546,1.0418887345705723,111.25
90,-1.1770619862981202,-2.0973791780033797,-1.9931511863585243,0.9588127885129144,1.1929279732375493,1.0325126625571113,112.5
91,-1.1770619838557297,-2.0973791843925427,-1.993151189249372,0.9588127873650956,1.192927969804993,1.014123155698886,113.75
92,-1.1770619800851958,-2.0973791942560593,-1.99315119371223,0.9588127855931063,1.1929279645058526,0.9857336488406616,115.0
93,-1.177061974986518,-2.097379207593928,-1.9931511997470972,0.9588127831969464,1.1929279573401277,0.9473441419824349,116.25
94,-1.177061968531958,-2.097379224416662,-1.9931512073415236,0.9588127802077522,1.1929279480732609,0.8989546357180467,117.5
95,-1.177061959898685,-2.0973792450360875,-1.9931512161261828,0.958812777549138,1.1929279297474185,0.8405651454508516,118.75
96,-1.1770619497868455,-2.0973792691868733,-1.993151226415335,0.9588127744351995,1.1929279082830246,0.77217565518366,120.0
97,-1.1770619482467342,-2.097379305620956,-1.9931512326531835,0.9588128095463901,1.1929279034328846,0.6937861783361635,121.25
98,-1.177061949013543,-2.097379348891746,-1.9931512382948622,0.9588128588091998,1.1929279028933997,0.6053967059595006,122.5
99,-1.1770619498797208,-2.0973793971483374,-1.993151244496017,0.9588129140311379,1.1929279024000303,0.5070072449102626,123.75
100,-1.1770619610638071,-2.0973794474748466,-1.9931512532189313,0.9588129732209059,1.1929279133956503,0.3986177917480992,125.0
101,-1.177061978521903,-2.0973795009913028,-1.9931512637165345,0.9588130370258794,1.1929279313255368,0.2802283464031691,126.25
102,-1.177062001800041,-2.0973795564757367,-1.9931512756733836,0.9588131041736951,1.192927955096906,0.1518389085171569,127.5
103,-1.1770620394047993,-2.097379608932683,-1.993151290207302,0.958813170668807,1.1929279931502892,0.013449475348447575,128.75
104,-1.1770620834233751,-2.0973796614388758,-1.993151306069652,0.9588132384757814,1.1929280376223603,-0.13493995605890088,130.0
105,-1.1770621426640004,-2.09737970507996,-1.9931513239229868,0.9588132992733203,1.1929280972566996,-0.29332938063921643,131.25
106,-1.1770622103003583,-2.097379741440525,-1.9931513425655498,0.9588133535089756,1.1929281652362183,-0.4596773327547001,132.5
107,-1.1770622813730918,-2.0973797652928488,-1.9931513602992021,0.9588133943185019,1.1929282365561875,-0.6190302306001033,133.75
108,-1.1770623515133622,-2.097379774074151,-1.9931513758920998,0.9588134179572216,1.1929283068238519,-0.7683831284454965,135.0
109,-1.1770624186626244,-2.0973797757056736,-1.9931513899440694,0.958813432950729,1.192928374041546,-0.907736026290878,136.25
110,-1.1770624807339771,-2.0973797658995994,-1.9931514014705822,0.9588134340569613,1.1929284360867651,-1.037088924136254,137.5
111,-1.1770625378662107,-2.0973797507160947,-1.9931514112837694,0.9588134281341557,1.1929284931462938,-1.156441821981625,138.75
112,-1.1770625891796258,-2.0973797336416102,-1.9931514196530715,0.9588134189399256,1.19292854436725,-1.2657947198269888,140.0
113,-1.1770626325691629,-2.0973797082239583,-1.9931514253103826,0.9588133987889599,1.1929285875918563,-1.3651476176723498,141.25
114,-1.1770626715914876,-2.0973796853646283,-1.9931514303982723,0.9588133806662129,1.1929286264658505,-1.4545005155177066,142.5
115,-1.1770627057011656,-2.097379664302755,-1.9931514347059465,0.958813363607188,1.1929286604373361,-1.5338534133630624,143.75
116,-1.1770627306251287,-2.097379639077529,-1.9931514365819507,0.9588133400557444,1.192928685182616,-1.6032063112084183,145.0
117,-1.1770627519553032,-2.0973796174895303,-1.9931514381874538,0.9588133199001853,1.1929287063598717,-1.662559209053775,146.25
118,-1.1770627696916902,-2.09737959953876,-1.9931514395224523,0.9588133031405089,1.1929287239691044,-1.7119121068991383,147.5
119,-1.1770627838342889,-2.0973795852252177,-1.99315144058695,0.958813289776717,1.192928738010313,-1.7512650047445044,148.75
120,-1.1770627943830994,-2.097379574548902,-1.993151441380947,0.9588132798088105,1.1929287484834978,-1.7806179025898676,150.0
121,-1.1770628013381212,-2.0973795675098135,-1.9931514419044438,0.9588132732367888,1.1929287553886585,-1.799970800435232,151.25
122,-1.1773385377172187,-2.0978811416706327,-1.9921748043227825,0.9583380116385782,1.1932039342406437,-1.810071263868262,152.5
123,-1.1789084960578433,-2.1007370076350274,-1.986614057246219,0.9556320020505255,1.1947707181931744,-1.8119235418460349,153.75
124,-1.1797007025113406,-2.1021780953655402,-1.9838080743108786,0.9542665337319697,1.1955613214064043,-1.8046080410524743,155.0
125,-1.1797006965069672,-2.1021780990675665,-1.9838080755747192,0.9542665305486117,1.195561312237859,-1.7889546250907227,156.25
126,-1.1797006866667703,-2.102178105134589,-1.9838080776459495,0.9542665253316029,1.195561297212097,-1.7633012091289726,157.5
127,-1.1797006729907502,-2.1021781135666067,-1.9838080805245695,0.9542665180809434,1.1955612763291183,-1.7276477931672187,158.75
128,-1.1797006554789071,-2.1021781243636206,-1.9838080842105792,0.9542665087966333,1.195561249588923,-1.6819943772054646,160.0
129,-1.1797006347417713,-2.10217813702351,-1.9838080892208216,0.9542664956537202,1.1955612221807115,-1.6263409790240981,161.25
130,-1.1797006104841108,-2.102178151789084,-1.9838080953053705,0.9542664795346847,1.1955611915951705,-1.560687586339998,162.5
131,-1.179700579935915,-2.102178169955165,-1.9838080961436777,0.9542664794027962,1.1955611586236734,-1.4850342025089636,163.75
132,-1.1797005429698324,-2.1021781915782474,-1.9838080914328846,0.9542664961628676,1.1955611233777208,-1.3993808262540992,165.0
133,-1.1797005016984095,-2.1021782158087574,-1.9838080860992138,0.954266515233628,1.1955610841059858,-1.3037274606683997,166.25
134,-1.1797004542036789,-2.102178237112282,-1.9838080790646622,0.9542665298901445,1.1955610379586965,-1.1980741018867995,167.5
135,-1.1797003991848172,-2.102178251750703,-1.9838080695765603,0.9542665356597171,1.195560983021022,-1.0824207514624582,168.75
136,-1.1797003394066083,-2.1021782676555487,-1.9838080592671885,0.9542665419301222,1.1955609233150237,-0.9567674094997423,170.0
137,-1.1797002744461837,-2.1021782662506268,-1.9838080456656022,0.9542665275931412,1.19556085828563,-0.8211140739035061,171.25
138,-1.1797002046932163,-2.102178264574121,-1.9838080310391741,0.9542665120077578,1.1955607884572763,-0.6754607386031357,172.5
139,-1.1797001355056043,-2.102178242206007,-1.9838080138455556,0.9542664732010396,1.1955607190334903,-0.5198074100076753,173.75
140,-1.1797000643636795,-2.102178213913692,-1.9838079954797878,0.9542664273302945,1.1955606476067293,-0.35447234619468315,175.0
141,-1.1797000041152874,-2.102178169596564,-1.983807977285759,0.9542663655281436,1.1955605869549366,-0.1923869878262494,176.25
142,-1.179699953534627,-2.1021781219969777,-1.9838079606630612,0.9542663019225976,1.1955605359528159,-0.0403016294578281,177.5
143,-1.1796999151650354,-2.1021780685433837,-1.9838079458035367,0.9542662341132093,1.1955604971253486,0.10178372891058196,178.75
144,-1.1796998853151717,-2.102178015445693,-1.9838079327501243,0.9542661683778058,1.1955604668275701,0.2338690872789868,180.0
145,-1.1796998674288464,-2.1021779606881457,-1.9838079219527711,0.9542661031194568,1.1955604484901143,0.35595444564738543,181.25
146,-1.1796998510075885,-2.1021779104157883,-1.983807912039821,0.9542660432064107,1.1955604316546782,0.4680398040157769,182.5
147,-1.1796998492890187,-2.1021778611117248,-1.9838079052896642,0.9542659872718016,1.1955604295419422,0.5701251623841631,183.75
148,-1.179699848267035,-2.102177816497014,-1.9838078992916475,0.9542659367618465,1.1955604281637275,0.6622105207525453,185.0
149,-1.1796998473560334,-2.1021777767272356,-1.9838078939449817,0.9542658917370134,1.1955604269351798,0.7442958791209275,186.25
150,-1.179699854518657,-2.102177741993785,-1.9838078909193735,0.9542658539764222,1.195560433827128,0.8163812374893096,187.5
151,-1.1796998622923267,-2.1021777121172835,-1.9838078886499793,0.9542658218126854,1.195560441369321,0.8784665958576944,188.75
152,-1.1796998688139024,-2.1021776870529485,-1.9838078867461109,0.9542657948295146,1.1955604476967037,0.9305519542260842,190.0
153,-1.1796998740833846,-2.102177666800779,-1.9838078852077694,0.9542657730269105,1.1955604528092763,0.9726373125944765,191.25
154,-1.1796998781007728,-2.1021776513607753,-1.983807884034957,0.954265756404874,1.1955604567070388,1.0047226709628665,192.5
155,-1.179699880866067,-2.1021776407329362,-1.983807883227673,0.9542657449634049,1.1955604593899907,1.0268080293312574,193.75
156,-1.1797402305926386,-2.1022522055736306,-1.983662566825896,0.9541949656478206,1.1956007245349762,1.0390260302009873,195.0
157,-1.1810655320067647,-2.104701597592702,-1.9788894324393926,0.9518703117493637,1.1969232492110433,1.0435388107663675,196.25
158,-1.182289590463429,-2.1069638807093196,-1.9744809258596292,0.9497232434718043,1.1981447427663254,1.0383117817434826,197.5
159,-1.1823012850865153,-2.1069855020552883,-1.974438803004568,0.9497027266634606,1.1981564121425206,1.0253732435741145,198.75
160,-1.1823012820717302,-2.106985509898962,-1.9744388065848233,0.9497027252481414,1.1981564078159903,1.0024749876306445,200.0
161,-1.182301277740345,-2.106985521168082,-1.974438811728628,0.9497027232147317,1.1981564016000017,0.9695767316871685,201.25
162,-1.1823012720923596,-2.106985535862648,-1.9744388184359822,0.9497027205632316,1.1981563934945547,0.9266784757436956,202.5
163,-1.1823012647311117,-2.106985554139756,-1.9744388265213684,0.9497027177677342,1.1981563801089223,0.8737802280717577,203.75
164,-1.1823012555241492,-2.1069855760518648,-1.974438835922839,0.9497027149865472,1.198156360310883,0.8108819891119127,205.0
165,-1.1823012479438315,-2.1069856041194104,-1.9744388451015817,0.9497027236017961,1.198156343520963,0.7379837544878229,206.25
166,-1.1823012486534275,-2.1069856441028345,-1.9744388503546293,0.9497027691386676,1.1981563430115556,0.6550855320056455,207.5
167,-1.1823012494563003,-2.1069856889632046,-1.9744388561939417,0.9497028203986668,1.1981563425066817,0.5621873166429544,208.75
168,-1.1823012521376481,-2.10698573820249,-1.9744388629542393,0.9497028770812244,1.1981563440169847,0.45928910836195996,210.0
169,-1.1823012685791536,-2.1069857884847676,-1.97443887288183,0.9497029370981567,1.1981563609028971,0.34639091034465286,211.25
170,-1.1823012864788984,-2.106985843219089,-1.9744388836905193,0.9497030024247353,1.1981563793009562,0.22349272072787765,212.5
171,-1.1823013176347512,-2.106985895488154,-1.9744388969372708,0.9497030675357419,1.198156410918805,0.0905945370649244,213.75
172,-1.1823013559865605,-2.106985948845333,-1.9744389118216072,0.9497031352717387,1.198156449734488,-0.05230364463009538,215.0
173,-1.18230140776569,-2.1069859950842664,-1.9744389285592754,0.9497031976208845,1.1981565019296019,-0.20520182165245243,216.25
174,-1.1823014679439952,-2.1069860392840187,-1.9744389467703345,0.949703259322949,1.198156562513649,-0.36809999237726726,217.5
175,-1.1823015393569005,-2.1069860655800956,-1.9744389649775282,0.9497033030389584,1.1981566341981167,-0.5328476331372436,218.75
176,-1.182301608194308,-2.106986085990697,-1.9744389818855914,0.9497033396088976,1.1981567032576579,-0.6876897469224816,220.0
177,-1.1823016771328279,-2.1069860876289943,-1.9744389963717202,0.9497033550220748,1.1981567722676552,-0.832531860707763,221.25
178,-1.182301741275067,-2.106986087551992,-1.9744390096416076,0.9497033675564813,1.19815683646354,-0.9673739744930882,222.5
179,-1.1823018003027752,-2.1069860718739286,-1.9744390198224036,0.949703361485264,1.1981568954152886,-1.09221608827848,223.75
180,-1.1823018546022976,-2.106986057451701,-1.9744390291876972,0.9497033559003545,1.198156949644936,-1.2070582020639198,225.0
181,-1.1823019012465286,-2.1069860353350367,-1.9744390359667627,0.9497033401291761,1.198156996151027,-1.311900315849369,226.25
182,-1.182301942159168,-2.106986011406076,-1.9744390413233308,0.9497033211857769,1.1981570369061245,-1.4067424296348263,227.5
183,-1.182301978758046,-2.1069859900001493,-1.9744390461151053,0.9497033042397371,1.1981570733640714,-1.4915845434202868,228.75
184,-1.1823020080214195,-2.106985966913183,-1.9744390491693955,0.9497032839539468,1.1981571024668098,-1.5664266572057524,230.0
185,-1.1823020310394607,-2.1069859436619067,-1.9744390509092828,0.9497032622539088,1.1981571253176133,-1.6312687709912068,231.25
186,-1.1823020505076425,-2.1069859239964606,-1.974439052380842,0.9497032439004662,1.1981571446443489,-1.68611088477666,232.5
187,-1.1823020664259647,-2.1069859079168447,-1.9744390535840721,0.9497032288936184,1.1981571604470167,-1.730952998562102,233.75
188,-1.1823020787944274,-2.106985895423058,-1.9744390545189765,0.9497032172333675,1.1981571727256164,-1.7657951123475486,235.0
189,-1.18230208761303,-2.1069858865151003,-1.9744390551855548,0.9497032089197134,1.1981571814801473,-1.790637226132996,236.25
190,-1.1823020928817725,-2.106985881192972,-1.9744390555838074,0.9497032039526563,1.19815718671061,-1.8054793399184441,237.5
191,-1.1832021387779028,-2.1086758904037164,-1.9711431230528862,0.9480966889987087,1.1990552791972076,-1.8122080446913857,238.75
192,-1.1846845386352698,-2.1114593949661695,-1.9657146151684763,0.945450709764457,1.200534461155987,-1.8095749118949938,240.0
193,-1.1848678433661621,-2.1118035963356814,-1.9650433447031714,0.9451235146945782,1.2007173658677333,-1.7989035875052264,241.25
194,-1.184867835737058,-2.111803601036415,-1.965043346318069,0.9451235106764949,1.2007173541322294,-1.7787832906764642,242.5
195,-1.1848678243162083,-2.111803608073463,-1.9650433487355878,0.9451235046613817,1.2007173365640558,-1.7486629938476999,243.75
196,-1.1848678091036131,-2.111803617446825,-1.965043351955728,0.9451234966492386,1.2007173131632125,-1.7085426970189437,245.0
197,-1.1848677902547162,-2.1118036290252826,-1.9650433561143672,0.9451234861606334,1.2007172852651453,-1.658422405095059,246.25
198,-1.1848677682869166,-2.1118036423720685,-1.9650433616637837,0.9451234715997523,1.2007172573149478,-1.5983021315284873,247.5
199,-1.184867742665142,-2.111803657938869,-1.9650433681362525,0.9451234546169128,1.2007172247157032,-1.5281818579619093,248.75
200,-1.1848677085838868,-2.1118036778514298,-1.9650433639549187,0.9451234694888883,1.2007171920756998,-1.4480616005193823,250.0
201,-1.184867670164763,-2.111803700314626,-1.9650433590172056,0.9451234869550987,1.2007171554754128,-1.3579413469189594,251.25
202,-1.184867627491858,-2.1118037253425808,-1.9650433534674543,0.9451235066680513,1.2007171148943716,-1.2578211025523887,252.5
203,-1.1848675764659036,-2.1118037411684627,-1.9650433449340134,0.9451235144964814,1.2007170642814478,-1.1477008681029708,253.75
204,-1.1848675200175596,-2.1118037561797234,-1.965043335157484,0.9451235203708077,1.2007170079099208,-1.0275806411586155,255.0
205,-1.1848674586874284,-2.1118037645149395,-1.9650433235050717,0.945123517721882,1.2007169465911725,-0.8974604211411784,256.25
206,-1.1848673924028408,-2.11180376295793,-1.9650433095465596,0.9451235028915533,1.2007168802337567,-0.7573402048524773,257.5
207,-1.1848673236019813,-2.111803752800197,-1.9650432939430167,0.945123477858553,1.2007168112896194,-0.6072199914882472,258.75
208,-1.184867253494374,-2.111803729404592,-1.9650432763398542,0.9451234376287364,1.2007167409326676,-0.44709978471761613,260.0
209,-1.1848671880433226,-2.1118036923572,-1.9650432579205728,0.945123382910974,1.2007166751257377,-0.2808882150255326,261.25
210,-1.1848671301722957,-2.1118036499149264,-1.9650432403698934,0.945123323599966,1.200716616861632,-0.12327182528511654,262.5
211,-1.1848670883502965,-2.1118035976743017,-1.9650432248703864,0.9451232563965546,1.200716574580967,0.024344564455330675,263.75
212,-1.1848670516427262,-2.1118035466703935,-1.9650432105936781,0.9451231915975082,1.2007165374291182,0.16196095419578435,265.0
213,-1.1848670301577946,-2.1118034920349262,-1.9650431990018054,0.9451231257024695,1.2007165154835318,0.28957734393624146,266.25
214,-1.1848670131383119,-2.1118034400548384,-1.9650431886832833,0.9451230636848027,1.2007164980287097,0.4071937336767076,267.5
215,-1.1848670032526094,-2.1118033909841496,-1.965043180225011,0.9451230063574481,1.2007164877373229,0.5148101234171812,268.75
216,-1.1848670021841754,-2.1118033443758235,-1.9650431739179812,0.9451229535479462,1.2007164862906812,0.6124265131576643,270.0
217,-1.1848670012251934,-2.1118033025421425,-1.965043168257048,0.945122906148343,1.2007164849922363,0.7000429028981549,271.25
218,-1.1848670030368287,-2.1118032655456225,-1.9650431638026236,0.945122864754052,1.2007164865059354,0.7776592926386394,272.5
219,-1.1848670114009476,-2.1118032334751136,-1.965043161351118,0.9451228302112309,1.2007164946176005,0.8452756823791295,273.75
220,-1.1848670185280705,-2.111803206147613,-1.9650431592621729,0.9451228007770558,1.2007165015296062,0.9028920721196144,275.0
221,-1.1848670244181982,-2.1118031835631217,-1.9650431575357854,0.9451227764515255,1.2007165072419523,0.9505084618600923,276.25
222,-1.1848670290713297,-2.1118031657216387,-1.96504315617196,0.9451227572346417,1.200716511754639,0.9881248516005677,277.5
223,-1.1848670324874655,-2.1118031526231635,-1.9650431551706953,0.9451227431264044,1.2007165150676657,1.015741241341044,278.75
224,-1.1848670346666055,-2.1118031442676957,-1.9650431545319926,0.9451227341268136,1.200716517181033,1.0333576310815251,280.0
225,-1.1853400937689602,-2.112705560098689,-1.9632818521680377,0.9442635508560693,1.2011885130867712,1.0421555622648824,281.25
226,-1.1868808800431314,-2.115644811095335,-1.9575451563412767,0.9414651388886764,1.2027258364790916,1.042298218534219,282.5
227,-1.187397752864569,-2.116630818612917,-1.9556207190137846,0.9405263801006296,1.2032415471425708,1.0337090240633824,283.75
228,-1.1873977506033069,-2.1166308244645347,-1.9556207217085824,0.9405263790409784,1.2032415438294322,1.0163850135561106,285.0
229,-1.1873977470367685,-2.116630833693903,-1.9556207259589078,0.9405263773696612,1.203241538603839,0.989061003048838,286.25
230,-1.1873977421649538,-2.116630846301022,-1.955620731764761,0.9405263750866779,1.2032415314657912,0.9517369925415651,287.5
231,-1.1873977359878627,-2.1166308622858905,-1.9556207391261418,0.9405263721920283,1.2032415224152888,0.9044129820342913,288.75
232,-1.1873977277338574,-2.1166308819676893,-1.9556207476669671,0.9405263696656148,1.203241504785025,0.847088986431303,290.0
233,-1.1873977179764705,-2.1166309051091834,-1.9556207576667675,0.9405263667791092,1.2032414835305822,0.7797649919529402,291.25
234,-1.1873977152706918,-2.1166309389850175,-1.9556207644026586,0.9405263958765832,1.2032414762796901,0.7024410090637145,292.5
235,-1.1873977160097073,-2.116630980499183,-1.9556207698896686,0.9405264432058079,1.2032414757513705,0.615117031018223,293.75
236,-1.187397716847536,-2.1166310268645145,-1.95562077591842,0.9405264963714121,1.2032414752858565,0.5177930657568122,295.0
237,-1.1873977261279896,-2.1166310756760724,-1.9556207841297866,0.9405265536516941,1.2032414842003551,0.41046910713697005,296.25
238,-1.1873977430054947,-2.11663112716792,-1.9556207943661297,0.9405266151807485,1.2032415015456772,0.2931451565528704,297.5
239,-1.1873977638497428,-2.1166311815678567,-1.9556208058115834,0.9405266807682051,1.2032415228922924,0.16582121382231219,298.75
240,-1.1873978002564285,-2.116631232087124,-1.955620820003146,0.9405267449997744,1.2032415597457196,0.02849727651826673,300.0
241,-1.1873978412991737,-2.1166312842837414,-1.9556208353789066,0.9405268120412322,1.2032416012523817,-0.118826659652055,301.25
242,-1.1873978987113945,-2.116631326327569,-1.9556208528291892,0.9405268708581562,1.2032416590572688,-0.27615058889828437,302.5
243,-1.1873979633937959,-2.1166313636635454,-1.9556208711750118,0.9405269257973348,1.2032417241002231,-0.44228094506165117,303.75
244,-1.1873980332033849,-2.1166313869155786,-1.95562088874233,0.9405269658496904,1.2032417941599463,-0.6026952571370472,305.0
245,-1.1873981015648072,-2.1166313975971645,-1.9556209043616732,0.9405269914239351,1.203241862667679,-0.7531095692124523,306.25
246,-1.1873981675847995,-2.1166313991294796,-1.9556209182954067,0.9405270062059197,1.2032419287573,-0.8935238812878792,307.5
247,-1.1873982286919562,-2.1166313913513353,-1.9556209299875302,0.9405270095053038,1.2032419898538627,-1.0239381933633078,308.75
248,-1.187398284935731,-2.116631376418955,-1.9556209397307986,0.9405270037662037,1.203242046024458,-1.1443525054387436,310.0
249,-1.1873983359590383,-2.116631361050034,-1.955620948330952,0.9405269965021759,1.203242096966506,-1.2547668175141937,311.25
250,-1.187398378750629,-2.1166313360586115,-1.955620953958256,0.9405269767471313,1.2032421395911963,-1.3551811295896456,312.5
251,-1.187398417280718,-2.1166313135560224,-1.955620959025147,0.9405269589594377,1.2032421779710059,-1.4455954416651005,313.75
252,-1.1873984515493041,-2.1166312935422646,-1.9556209635316282,0.9405269431390969,1.203242212105934,-1.5260097537405612,315.0
253,-1.1873984763131813,-2.1166312687415854,-1.9556209654339245,0.9405269200353494,1.2032422366888693,-1.5964240658160203,316.25
254,-1.1873984974999279,-2.116631247379408,-1.955620967042578,0.940526900106417,1.2032422577196362,-1.6568383778914821,317.5
255,-1.1873985151797664,-2.116631229553178,-1.9556209683849584,0.9405268834761933,1.2032422752693135,-1.707252689966931,318.75
256,-1.1873985293526965,-2.1166312152628945,-1.9556209694610684,0.9405268701446801,1.2032422893379007,-1.7476670020423768,320.0
257,-1.187398540018718,-2.1166312045085576,-1.955620970270909,0.9405268601118776,1.2032422999253976,-1.7780813141178233,321.25
258,-1.1873985471778306,-2.116631197290167,-1.9556209708144798,0.9405268533777862,1.2032423070318041,-1.7984956261932707,322.5
259,-1.187551203570528,-2.116927032493718,-1.9550431260288599,0.9402447525451113,1.2033946082494988,-1.809393820904589,323.75
260,-1.1889747487556943,-2.1196858448372438,-1.9496544977234904,0.9376140858140594,1.2048148415009627,-1.812349895268793,325.0
261,-1.1898950344173642,-2.121469354854336,-1.9461708756675824,0.9359134205584347,1.205732984770513,-1.8058703420060576,326.25
262,-1.1898950289797738,-2.1214693582027238,-1.9461708768250847,0.9359134177139751,1.2057329763439826,-1.7913648552062953,327.5
263,-1.1898950197935392,-2.1214693638594713,-1.946170878780562,0.9359134129085611,1.2057329621082495,-1.766859368406538,328.75
264,-1.1898950068586607,-2.1214693718245785,-1.946170881534015,0.9359134061421929,1.2057329420633143,-1.732353881606778,330.0
265,-1.1898949901751383,-2.121469382098045,-1.9461708850854433,0.9359133974148703,1.205732916209177,-1.6878483948070269,331.25
266,-1.1898949702334327,-2.1214693942548317,-1.946170889877664,0.9359133851659751,1.2057328888045293,-1.6333429228756593,332.5
267,-1.18989494692099,-2.12146940839248,-1.946170895809058,0.9359133697536444,1.205732858872066,-1.568837458965601,333.75
268,-1.1898949180414082,-2.121469425584077,-1.9461708978928474,0.9359133659379713,1.2057328263395353,-1.4943320019639497,335.0
269,-1.1898948824448972,-2.121469446337229,-1.9461708933226471,0.9359133819524352,1.205732792408013,-1.4098265543229433,336.25
270,-1.1898948426451552,-2.121469469615037,-1.94617088814981,0.9359134001567877,1.2057327545407848,-1.3153211159653244,337.5
271,-1.189894797319122,-2.121469491620253,-1.9461708816160854,0.9359134159511348,1.2057327107696738,-1.210815684562293,338.75
272,-1.1898947441598278,-2.1214695057519526,-1.9461708723678453,0.9359134214386571,1.2057326576935747,-1.0963102617341678,340.0
273,-1.1898946863557245,-2.121469521118649,-1.946170862310901,0.9359134274078714,1.2057325999622275,-0.9718048485246911,341.25
274,-1.1898946235447896,-2.1214695218277675,-1.9461708493035796,0.9359134157697414,1.2057325370988266,-0.8372994409967794,342.5
275,-1.1898945560111591,-2.1214695202795824,-1.9461708350179217,0.9359134006367515,1.2057324694897655,-0.692794034533937,343.75
276,-1.189894488392606,-2.1214695010717795,-1.9461708183932165,0.935913365541572,1.2057324016535023,-0.538288633763407,345.0
277,-1.1898944180038864,-2.1214694761159834,-1.9461708004352891,0.9359133234054025,1.2057323309979653,-0.373823962323523,346.25
278,-1.1898943587972073,-2.121469432821519,-1.9461707823984922,0.9359132627729594,1.2057322713833885,-0.2105948628176451,347.5
279,-1.1898943073461667,-2.1214693880205244,-1.9461707657808844,0.9359132019760099,1.2057322195188462,-0.05736576331174238,348.75
280,-1.1898942696046015,-2.121469335715193,-1.946170751035599,0.9359131354203325,1.2057321813140538,0.0858633361941731,350.0
281,-1.1898942384126192,-2.1214692847771275,-1.9461707378357633,0.9359130717069204,1.20573214967582,0.21909243570008885,351.25
282,-1.1898942207981642,-2.121469231104669,-1.9461707271077264,0.9359130075960158,1.2057321316045024,0.342321535206023,352.5
283,-1.1898942046131165,-2.121469181787717,-1.9461707172502583,0.9359129486876865,1.2057321149996667,0.4555506347119625,353.75
284,-1.1898942012953369,-2.1214691337900717,-1.9461707102493284,0.9359128938195297,1.20573211128421,0.5587797342179094,355.0
285,-1.1898942002888078,-2.1214690899138438,-1.9461707042720877,0.9359128440643305,1.2057321099159246,0.6520088337238586,356.25
286,-1.1898941993902419,-2.1214690507438987,-1.9461706989359777,0.935912799646004,1.2057321086944055,0.7352379332298118,357.5
287,-1.1898942053361325,-2.1214690164346823,-1.9461706956660179,0.9359127620740604,1.205732114363311,0.8084670327357704,358.75
288,-1.1898942130641683,-2.1214689868701306,-1.946170693391344,0.9359127302141408,1.2057321218549455,0.8716961322417256,360.0
289,-1.1898942195699762,-2.121468961981362,-1.9461706914764196,0.9359127033930267,1.2057321281617404,0.9249252317476747,361.25
290,-1.1898942248535567,-2.1214689417683763,-1.9461706899212445,0.9359126816107186,1.2057321332836954,0.968154331253614,362.5
291,-1.1898942289149095,-2.1214689262311732,-1.9461706887258212,0.9359126648672174,1.205732137220811,1.0013834307595582,363.75
292,-1.1898942317540344,-2.121468915369752,-1.94617068789015,0.9359126531625229,1.2057321399730867,1.024612530265503,365.0
293,-1.1898983074994294,-2.1214769302103655,-1.9461550087089277,0.9359049865024855,1.2057362058601189,1.03785594451924,366.25
294,-1.1909995618495268,-2.1236450467276122,-1.9419169883551908,0.9338344568845807,1.206834808816424,1.0433758157665445,367.5
295,-1.1922972115844512,-2.126199827646417,-1.936923164105786,0.9313946738746066,1.2081293340657615,1.0391971618840985,368.75
296,-1.1923570645633612,-2.126317671590012,-1.9366928242431467,0.9312821374307105,1.208189042177498,1.0273207005883562,370.0
297,-1.1923570617589836,-2.1263176788083746,-1.9366928275975517,0.931282136119338,1.2081890379832017,1.0056513830483664,371.25
298,-1.1923570576604368,-2.1263176893578826,-1.9366928324999548,0.9312821342027908,1.2081890318533133,0.9739820655083724,372.5
299,-1.1923570522677198,-2.1263177032385348,-1.9366928389503555,0.9312821316810687,1.2081890237878326,0.9323127479683888,373.75
300,-1.192357045299635,-2.126317720571742,-1.9366928468059237,0.9312821289328257,1.2081890113310843,0.8806434353535747,375.0
301,-1.1923570364490985,-2.1263177414900913,-1.9366928559106809,0.9312821263715708,1.2081889918013422,0.8189741313265584,376.25
302,-1.192357027755624,-2.126317767157764,-1.9366928655975195,0.9312821294377513,1.2081889723621617,0.7473048296001809,377.5
303,-1.192357028439061,-2.1263178054343035,-1.936692870687934,0.9312821731222702,1.2081889718757552,0.6656355419139486,378.75
304,-1.192357029212195,-2.1263178484379184,-1.9366928763653137,0.9312822223288242,1.2081889713826737,0.5739662598330099,380.0
305,-1.1923570300779034,-2.1263178961878904,-1.9366928826122771,0.9312822771402208,1.2081889709082176,0.4722969850211213,381.25
306,-1.192357045932174,-2.126317944497598,-1.9366928922790176,0.9312823349335186,1.2081889872022074,0.3606277219023991,382.5
307,-1.1923570632236355,-2.1263179971275643,-1.9366929028159294,0.9312823978941427,1.208189004986925,0.23895846601492404,383.75
308,-1.1923570914364667,-2.126318048528217,-1.9366929154854242,0.9312824616013632,1.2081890336723058,0.10728921653800393,385.0
309,-1.1923571285421826,-2.1263180998857036,-1.936692930016794,0.9312825270015392,1.208189071239512,-0.03438003015616055,386.25
310,-1.1923571768506198,-2.1263181462289054,-1.9366929462284435,0.9312825889625151,1.2081891199760886,-0.18604927294489504,387.5
311,-1.1923572351384037,-2.1263181887892495,-1.9366929640270172,0.931282648632717,1.2081891786681822,-0.3477185093201411,388.75
312,-1.1923573037702087,-2.1263182168610273,-1.9366929820769336,0.9312826939873727,1.2081892475934113,-0.5133019534498702,390.0
313,-1.1923573708712958,-2.126318239126078,-1.9366929990409407,0.931282732476818,1.2081893149384544,-0.6693688928288526,391.25
314,-1.1923574386948776,-2.1263182407731382,-1.9366930134365048,0.9312827478132956,1.2081893828357135,-0.815435832207852,392.5
315,-1.1923575019023023,-2.1263182422036495,-1.9366930268385,0.9312827619879239,1.2081894461109346,-0.9515027715868521,393.75
316,-1.1923575600927236,-2.126318227335018,-1.9366930370418793,0.9312827567491633,1.2081895042295945,-1.0775697109658755,395.0
317,-1.1923576136552008,-2.1263182131181346,-1.936693046363757,0.9312827513273161,1.2081895577216177,-1.1936366503449065,396.25
318,-1.1923576602456272,-2.1263181929516963,-1.9366930534434121,0.9312827377977636,1.208189604186098,-1.2997035897239346,397.5
319,-1.1923577006936577,-2.1263181693608026,-1.9366930587873386,0.9312827191784847,1.2081896444743574,-1.3957705291029678,398.75
320,-1.1923577369312888,-2.1263181482255833,-1.936693063574987,0.9312827024973593,1.2081896805688486,-1.4818374684820035,400.0
321,-1.1923577666555099,-2.1263181263584348,-1.9366930669044906,0.9312826836951126,1.2081897101380985,-1.557904407861081,401.25
322,-1.1923577895470847,-2.1263181033175003,-1.9366930686508335,0.9312826622090593,1.2081897328589255,-1.623971347240132,402.5
323,-1.1923578089737537,-2.12631808376408,-1.9366930701328466,0.9312826439751697,1.208189752140691,-1.680038286619168,403.75
324,-1.1923578249355167,-2.1263180676981737,-1.9366930713505273,0.9312826289934423,1.2081897679833955,-1.7261052259981815,405.0
325,-1.1923578374323736,-2.126318055119781,-1.9366930723038798,0.9312826172638796,1.2081897803870387,-1.762172165377192,406.25
326,-1.192357846464324,-2.1263180460289015,-1.9366930729929035,0.9312826087864817,1.20818978935162,-1.7882391047562174,407.5
327,-1.1923578520313682,-2.126318040425535,-1.9366930734175987,0.9312826035612484,1.2081897948771394,-1.8043060441352439,408.75
328,-1.193024900124571,-2.1276521296154915,-1.9340834117790378,0.9300066713952009,1.2088551815038653,-1.8119709424563764,410.0
329,-1.194480999280719,-2.130564331361911,-1.928386756893472,0.9272214320519275,1.2103076534464847,-1.8106037401453141,411.25
330,-1.1947877928708106,-2.1311779283984644,-1.9271864842458337,0.9266345861526769,1.2106136808612895,-1.8009048633225704,412.5
331,-1.194787785898363,-2.1311779326894253,-1.9271864857385232,0.9266345825302831,1.2106136699753554,-1.782093471372932,413.75
332,-1.1947877752194127,-2.1311779392614296,-1.9271864880247156,0.926634576982251,1.2106136533025373,-1.753282079423302,415.0
333,-1.1947877608339597,-2.131177948114478,-1.9271864911044108,0.9266345695085809,1.2106136308428355,-1.7144706874736804,416.25
334,-1.1947877427971183,-2.131177959199529,-1.9271864950290176,0.9266345599283821,1.210613603079876,-1.6656592972714124,417.5
335,-1.1947877217724068,-2.1311779719261756,-1.9271865004174424,0.9266345460639254,1.2106135758360095,-1.606847927101033,418.75
336,-1.1947876971727553,-2.1311779868168,-1.9271865067220886,0.9266345298420235,1.210613543959728,-1.5380365569306333,420.0
337,-1.1947876650144058,-2.1311780056285574,-1.927186504089579,0.9266345399038007,1.2106135119631332,-1.4592252005925648,421.25
338,-1.1947876280501697,-2.1311780271616616,-1.9271864993117664,0.9266345565296357,1.2106134767467196,-1.3704138485408914,422.5
339,-1.194787586934944,-2.1311780512014233,-1.9271864939214611,0.9266345753796184,1.2106134376633442,-1.2716025074866364,423.75
340,-1.1947875383072901,-2.131178068127444,-1.9271864859695136,0.9266345848269943,1.2106133897133957,-1.162791174815847,425.0
341,-1.194787483806751,-2.131178082613241,-1.9271864764423534,0.9266345904093574,1.2106133352920758,-1.0439798499138635,426.25
342,-1.1947874245944057,-2.1311780929393054,-1.9271864653824433,0.9266345903352937,1.210613276110335,-0.915168532415319,427.5
343,-1.1947873604971937,-2.13117809150781,-1.9271864517590298,0.9266345759491194,1.2106132119403723,-0.7763572195053892,428.75
344,-1.1947872932505086,-2.1311780843693753,-1.9271864367202791,0.9266345544841437,1.2106131445712323,-0.6275459087394664,430.0
345,-1.194787225378052,-2.1311780618913367,-1.9271864195199604,0.9266345155550251,1.2106130764502407,-0.46873460469096784,431.25
346,-1.1947871599542683,-2.131178028490277,-1.927186401387066,0.926634464766471,1.2106130106888542,-0.3023687181323487,432.5
347,-1.19478710300052,-2.1311779869644383,-1.9271863839539667,0.926634406481034,1.210612953337182,-0.14344764300751223,433.75
348,-1.1947870598772594,-2.1311779377467204,-1.9271863684014687,0.9266343422557975,1.2106129097641098,0.005473432117277816,435.0
349,-1.1947870237100755,-2.1311778877505536,-1.9271863542038334,0.9266342785362445,1.2106128731468366,0.14439450724198266,436.25
350,-1.1947870004821493,-2.131177835328877,-1.927186342397063,0.9266342146524077,1.2106128494601338,0.27331558236661635,437.5
351,-1.194786983688393,-2.131177784273287,-1.9271863321196225,0.9266341535944541,1.2106128322247725,0.39223665749120573,438.75
352,-1.1947869720940414,-2.1311777365057836,-1.927186323367117,0.9266340972890279,1.2106128202209412,0.5011577326157356,440.0
353,-1.1947869710404067,-2.131177690608752,-1.927186317071389,0.9266340451976633,1.2106128187828895,0.600078807740205,441.25
354,-1.1947869700932845,-2.131177649351487,-1.9271863114120948,0.9266339983722487,1.2106128174902115,0.6889998828646196,442.5
355,-1.194786970589228,-2.1311776127638398,-1.9271863066733161,0.9266339571127739,1.210612817680906,0.7679209579889992,443.75
356,-1.1947869789133798,-2.131177580988438,-1.9271863042121795,0.9266339228523784,1.2106128257470217,0.8368420331133508,445.0
357,-1.1947869860297518,-2.13117755382344,-1.927186302108138,0.9266338935629438,1.2106128326427967,0.8957631082376857,446.25
358,-1.194786991938343,-2.131177531268848,-1.9271863003611875,0.9266338692444682,1.2106128383682309,0.9446841833620023,447.5
359,-1.194786996639154,-2.1311775133246607,-1.9271862989713329,0.9266338498969535,1.210612842923324,0.9836052584863069,448.75
360,-1.1947870001321845,-2.131177499990877,-1.9271862979385734,0.9266338355203999,1.210612846308076,1.0125263336106194,450.0
361,-1.1947870024174347,-2.131177491267497,-1.92718629726291,0.9266338261148072,1.2106128485224872,1.0314474087349434,451.25
362,-1.1950769551007994,-2.131766572778235,-1.9260331373678141,0.9260695996786361,1.210902054248499,1.0412293739005591,452.5
363,-1.1965088605402368,-2.1346757322282595,-1.9203383394176166,0.9232832297209626,1.2123302710230854,1.0427170130511434,453.75
364,-1.1971846030996056,-2.136048623167109,-1.917650856302927,0.9219682884088739,1.2130042723429617,1.0351431355764964,455.0
365,-1.197184601054519,-2.1360486284030515,-1.9176508587587415,0.9219682874545145,1.2130042692211864,1.019206719139519,456.25
366,-1.1971845977261537,-2.1360486369245146,-1.917650862755564,0.9219682859013005,1.2130042641405172,0.9932703027025445,457.5
367,-1.19718459311451,-2.1360486487314985,-1.9176508682933944,0.921968283749232,1.2130042571009538,0.9573338862655869,458.75
368,-1.197184587219587,-2.1360486638240026,-1.9176508753722328,0.9219682809983091,1.2130042481024965,0.9113974698286182,460.0
369,-1.1971845794194744,-2.136048682482151,-1.9176508836628496,0.9219682785348958,1.2130042316565106,0.8554610604134982,461.25
370,-1.1971845700478245,-2.136048704555659,-1.9176508933418757,0.9219682758834615,1.213004210707626,0.7895246528516959,462.5
371,-1.1971845658918423,-2.1360487355968987,-1.9176509007405813,0.9219682979032293,1.2130042003425263,0.7135882545177663,463.75
372,-1.1971845666030467,-2.136048775310787,-1.917650906055773,0.9219683432777025,1.213004199838682,0.6276518632084133,465.0
373,-1.197184567409272,-2.136048819726443,-1.917650911916155,0.9219683942782072,1.213004199385253,0.5317154830370818,466.25
374,-1.1971845744169431,-2.1360488670863473,-1.9176509195336342,0.9219684496627372,1.2130042058032142,0.425779109651625,467.5
375,-1.1971845906949665,-2.136048916524787,-1.9176509295015016,0.9219685088797831,1.2130042225433206,0.309842744571004,468.75
376,-1.1971846086875908,-2.136048970045465,-1.9176509403722766,0.921968573054669,1.2130042410496071,0.1839063878421164,470.0
377,-1.197184643866802,-2.1360490186138312,-1.9176509542165794,0.9219686350043412,1.2130042766725706,0.0479700374545359,471.25
378,-1.197184681633884,-2.1360490707549196,-1.9176509690794545,0.9219687015105632,1.2130043149156722,-0.09796631260398114,472.5
379,-1.1971847370758906,-2.1360491113088647,-1.9176509861168978,0.9219687584451374,1.213004370749284,-0.2539026556450263,473.75
380,-1.1971847978858774,-2.1360491499295247,-1.9176510040255634,0.9219688142655791,1.2130044319394275,-0.4181565932076148,475.0
381,-1.197184864896162,-2.136049172079455,-1.9176510210493865,0.9219688526981689,1.213004499196874,-0.5758895162957297,476.25
382,-1.1971849294808816,-2.1360491858744757,-1.9176510364537274,0.92196888119796,1.2130045639562101,-0.7236224393838218,477.5
383,-1.19718499270143,-2.136049187267237,-1.917651049924037,0.9219688953999123,1.2130046272457111,-0.8613553624718775,478.75
384,-1.197185051231893,-2.1360491842048126,-1.9176510618169842,0.9219689036268706,1.2130046858033672,-0.989088285559917,480.0
385,-1.197185104917677,-2.1360491699565447,-1.9176510712060761,0.9219688982364518,1.2130047394177708,-1.1068212086479168,481.25
386,-1.1971851540434995,-2.1360491569185003,-1.9176510797976691,0.9219688933038808,1.2130047884782755,-1.2145541317359299,482.5
387,-1.1971851957805222,-2.136049136500307,-1.91765108585628,0.9219688785495572,1.213004830081149,-1.3122870548239158,483.75
388,-1.1971852322811187,-2.1360491152381096,-1.9176510907023898,0.9219688617949118,1.2130048664357491,-1.4000199779119011,485.0
389,-1.197185264621295,-2.1360490963994287,-1.9176510949961239,0.9219688469499969,1.21300489864657,-1.4777529009998767,486.25
390,-1.1971852914456576,-2.1360490781129884,-1.9176510982041073,0.921968831627935,1.213004925341235,-1.5454858240878426,487.5
391,-1.197185311212404,-2.136049058250153,-1.917651099719603,0.9219688131135713,1.2130049449586222,-1.6032187471758192,488.75
392,-1.197185327555325,-2.136049041827787,-1.9176511009725972,0.9219687978061063,1.2130049611780547,-1.6509516702638285,490.0
393,-1.1971853404744204,-2.1360490288458904,-1.917651101963089,0.9219687857055391,1.2130049739995326,-1.688684593351828,491.25
394,-1.1971853499696903,-2.1360490193044646,-1.9176511026910794,0.9219687768118705,1.2130049834230554,-1.7164175164398316,492.5
395,-1.1971853560411343,-2.1360490132035066,-1.9176511031565693,0.9219687711251008,1.2130049894486232,-1.7341504395278324,493.75
396,-1.1971505511822058,-2.135980603739925,-1.9177910281774107,0.922040300604529,1.2129703003567966,-1.7420004881070934,495.0
397,-1.196588790832225,-2.1348765851961087,-1.920049279018072,0.9231947579606578,1.2124104087055698,-1.7411516767677602,496.25
398,-1.196506233178025,-2.1347143459111932,-1.9203811432918658,0.9233644160517267,1.2123281256939944,-1.7312527350951152,497.5
399,-1.1963402750382681,-2.1343882110399806,-1.9210482598428915,0.9237054642738618,1.2121627196433138,-1.711353793422469,498.75
400,-1.196090916412954,-2.133898180582471,-1.9220506286711485,0.9242179026270626,1.211914190553528,-1.6814548517498276,500.0
401,-1.1957578520359518,-2.133244392486059,-1.9233879683616208,0.924901588378631,1.2115822318536644,-1.641555902699664,501.25
402,-1.195336789713617,-2.132428786607562,-1.9250563215725098,0.9257545143771752,1.2111625330025797,-1.5916568548321979,502.5
403,-1.1948313445542686,-2.131449729538441,-1.9270590204838043,0.9267783706910244,1.2106587245604266,-1.5317578069647646,503.75
404,-1.1942405286287154,-2.1303076508308005,-1.9293951889988878,0.927972712895674,1.2100698150873415,-1.4618587327328092,505.0
405,-1.193560977927842,-2.1290040133707278,-1.9320618434750645,0.9293360274535325,1.209392428619367,-1.3819595530145408,506.25
406,-1.1927952580383092,-2.127537691713828,-1.9350612795240982,0.9308694792945512,1.2086291395507769,-1.2920603464312972,507.5
407,-1.1919388592501943,-2.1259106062589455,-1.9383895811975898,0.9325710836276326,1.2077754208994598,-1.192161014029915,508.75
408,-1.190992748688958,-2.124122306922617,-1.9420476668341151,0.9344413063681114,1.2068322436832222,-1.0822615891640188,510.0
409,-1.1899559998221556,-2.1221731728512516,-1.946034763533865,0.9364797559794447,1.2057986779116177,-0.9623620625154842,511.25
410,-1.1888245679454452,-2.1200648159868263,-1.950347585983755,0.938684768855971,1.204670664087753,-0.8324623545093306,512.5
411,-1.18759820220391,-2.1177972661544704,-1.9549860745257466,0.9410563159385091,1.2034479509236917,-0.6925624787761935,513.75
412,-1.186275440522212,-2.115371044546016,-1.9599491678912697,0.9435938608343533,1.2021290714198614,-0.5426624236607799,515.0
413,-1.1848540740073283,-2.112786959378554,-1.9652352201972079,0.9462965714701657,1.2007118091890474,-0.3827632977543548,516.25
414,-1.1834236777324643,-2.110210395886652,-1.9705059207867497,0.9489914780973865,1.199285473587965,-0.22307607392359244,517.5
415,-1.182072932281823,-2.107798825917878,-1.9754391376315206,0.951513871087305,1.1979385003718153,-0.07338865523660687,518.75
416,-1.180803939138983,-2.105551418000309,-1.9800365652432694,0.9538646083968481,1.1966729986739124,0.06629892300578287,520.0
417,-1.179618281755244,-2.1034675559628617,-1.9842994591922882,0.9560443255698406,1.195490557637962,0.19598663743514508,521.25
418,-1.178515624572788,-2.1015472894389893,-1.9882277195801745,0.9580529733905582,1.1943908410667328,0.3156744944640977,522.5
419,-1.1775004829500952,-2.099789024274846,-1.9918245922807953,0.9598921921340001,1.193378379413903,0.4253624246563361,523.75
420,-1.1765740237746392,-2.0981923616376017,-1.9950908891416455,0.9615623918173053,1.1924543433748993,0.5250504183457985,525.0
421,-1.1757347165650334,-2.096757772840129,-1.9980256516580908,0.9630630893387511,1.191617197838234,0.614738498455984,526.25
422,-1.1749879935965726,-2.0954834658224635,-2.000632526573191,0.9643961252314561,1.1908723923531024,0.6944265944305366,527.5
423,-1.1743305744403758,-2.094370488702509,-2.0029093816169565,0.9655604239967405,1.1902166363001097,0.7641147523954454,528.75
424,-1.1737666106863773,-2.0934175038702048,-2.0048589381950954,0.9665573585136551,1.1896540942440386,0.8238029238772411,530.0
425,-1.1732971319433947,-2.0926241796220064,-2.0064818711676287,0.967387269231354,1.189185799011434,0.8734910953590557,531.25
426,-1.1729191776114412,-2.09199144730819,-2.0077762860712283,0.9680492008956318,1.188808780909096,0.9131793077481845,532.5
427,-1.172636326292022,-2.091518180965142,-2.00874447323497,0.9685443083724292,1.1885266295304404,0.942867522233104,533.75
428,-1.1724487489135678,-2.0912043268168854,-2.009386542044833,0.9688726468180177,1.1883395163289037,0.9625557367180235,535.0
429,-1.1723564454760786,-2.0910498848634202,-2.0097024925008182,0.9690342162323973,1.1882474413044855,0.9722439512029498,536.25
430,-1.1717015122412617,-2.0899572510524247,-2.0119378306321716,0.9701773552387224,1.1875941231261395,0.9728676695130186,537.5
431,-1.1716740124326837,-2.0899117555972317,-2.0120309155933764,0.9702249632945633,1.187566690457529,0.9647426898608953,538.75
432,-1.1716735884865657,-2.0899118958267247,-2.0120306490702946,0.9702248379418678,1.1875662660643895,0.9466986325344695,540.0
433,-1.1716729295898982,-2.089912113771274,-2.012030234840365,0.9702246431188234,1.187565606472962,0.9186545752080509,541.25
434,-1.1716720356332764,-2.0899124094742736,-2.0120296728504052,0.9702243789441927,1.1875647107433602,0.8806105329997854,542.5
435,-1.171670906576028,-2.0899127829518447,-2.0120289630806245,0.9702240454619406,1.1875635785271972,0.8325665058099021,543.75
436,-1.1716695425140737,-2.089913234165941,-2.012028105577646,0.9702236425678861,1.1875622106488237,0.7745224786200382,545.0
437,-1.1716691565932018,-2.0899133876361615,-2.0120278659325592,0.9702235573800173,1.1875618234916159,0.7064784654746212,546.25
438,-1.1716691574072957,-2.089913426408443,-2.0120278709212576,0.9702236011790999,1.1875618240711392,0.6284344570830357,547.5
439,-1.1716691583296253,-2.089913470177172,-2.0120278765245705,0.9702236507114936,1.18756182475785,0.5403904542768805,548.75
440,-1.1716691635402652,-2.0899135177925268,-2.0120278834983396,0.9702237053729678,1.187561829904095,0.44234645597151057,550.0
441,-1.1716691796714802,-2.0899135674573097,-2.012027893018532,0.9702237643168293,1.1875618464420032,0.3343024657586067,551.25
442,-1.1716691972964992,-2.0899136217181424,-2.0120279034205337,0.9702238287137768,1.1875618645171129,0.21625848346452553,552.5
443,-1.1716692288305266,-2.0899136732765484,-2.0120279163399717,0.9702238927683147,1.1875618964805654,0.08821450897760795,553.75
444,-1.1716692668133475,-2.0899137265182084,-2.012027930793719,0.9702239599639081,1.1875619349073037,-0.049829460615537086,555.0
445,-1.1716693178163764,-2.0899137731893567,-2.0120279470927667,0.9702240223162191,1.1875619863131075,-0.19787342870917016,556.25
446,-1.1716693776702098,-2.089913817523838,-2.0120279649129773,0.9702240837682479,1.1875620465583523,-0.35591739092197255,557.5
447,-1.171669449749049,-2.0899138462165228,-2.0120279832793355,0.9702241300334402,1.1875621189173087,-0.5201087050099485,558.75
448,-1.171669520243041,-2.0899138691539165,-2.012028000599956,0.9702241695259173,1.1875621896455772,-0.6757387285359826,560.0
449,-1.1716695912961703,-2.0899138709549607,-2.012028015387608,0.9702241853881353,1.1875622607697387,-0.821368752062007,561.25
450,-1.171669657465521,-2.089913872423763,-2.012028029132721,0.9702241999259474,1.1875623270036244,-0.9569987755879795,562.5
451,-1.1716697183551377,-2.0899138562308703,-2.012028039583452,0.9702241935987721,1.1875623878167498,-1.0826287991139412,563.75
452,-1.171669774398017,-2.089913841326916,-2.012028049202309,0.970224187775228,1.1875624437892263,-1.1982588226398683,565.0
453,-1.1716698229270017,-2.08991381950086,-2.0120280564141564,0.9702241727136505,1.1875624921881616,-1.303888846165793,566.25
454,-1.1716698652127735,-2.0899137946645934,-2.012028061969422,0.970224153055151,1.1875625343155547,-1.3995188696916876,567.5
455,-1.1716699030767381,-2.089913772425449,-2.0120280669437687,0.9702241354523307,1.1875625720377019,-1.4851488932175747,568.75
456,-1.1716699338517031,-2.0899137490447472,-2.0120280703222653,0.9702241151866184,1.187562602656314,-1.5607789167434643,570.0
457,-1.1716699577321528,-2.0899137247951005,-2.012028072178917,0.9702240926020789,1.187562626368142,-1.6264089402693456,571.25
458,-1.1716699779739552,-2.0899137042403555,-2.0120280737526715,0.970224073458729,1.1875626464670161,-1.6820389637952555,572.5
459,-1.1716699945771112,-2.0899136873805126,-2.012028075043526,0.9702240577565675,1.1875626629529363,-1.7276689873211741,573.75
460,-1.17167000754162,-2.089913674215572,-2.012028076051485,0.9702240454955968,1.1875626758259021,-1.7632990108470974,575.0
461,-1.1716700168674818,-2.0899136647455316,-2.0120280767765477,0.970224036675817,1.187562685085913,-1.7889290343730184,576.25
462,-1.1716700225546959,-2.0899136589703926,-2.012028077218715,0.9702240312972278,1.1875626907329695,-1.8045590578989295,577.5
463,-1.172496649079663,-2.0913654389734138,-2.0091963185277204,0.9688434280039486,1.1883877667571487,-1.8118561347118873,578.75
464,-1.174108712010116,-2.0941966740297615,-2.003673884857337,0.9661510100777133,1.1899968054828336,-1.809965757845933,580.0
465,-1.174383096326696,-2.0946785789841833,-2.0027339159708637,0.965692733462192,1.190270673062035,-1.799822191227174,581.25
466,-1.1743830887790612,-2.0946785836435753,-2.0027339175330305,0.9656927294249064,1.190270661547252,-1.780401270816179,582.5
467,-1.1743830773450838,-2.094678590702129,-2.00273391989957,0.9656927233087873,1.1902706441034074,-1.750980350405182,583.75
468,-1.1743830620247637,-2.094678600159843,-2.0027339230704824,0.9656927151138348,1.1902706207305014,-1.7115594299941754,585.0
469,-1.1743830429253057,-2.094678611929286,-2.0027339271352287,0.9656927045230186,1.1902705923299153,-1.6621385127936816,586.25
470,-1.1743830206911232,-2.0946786254848906,-2.002733932631567,0.9656926896306446,1.1902705643199223,-1.6027176152939262,587.5
471,-1.174382994715129,-2.094678641321781,-2.00273393905289,0.9656926722320187,1.1902705315961006,-1.533296717794168,588.75
472,-1.1743829604253344,-2.094678661489149,-2.0027339355683247,0.9656926850450349,1.190270498150443,-1.453875835387,590.0
473,-1.1743829213586565,-2.094678684423395,-2.0027339305326968,0.9656927028648477,1.1902704609188681,-1.3644549570594775,591.25
474,-1.1743828779334604,-2.0946787100041404,-2.002733924862728,0.9656927230257288,1.1902704196109055,-1.2650340887831826,592.5
475,-1.1743828263029557,-2.094678727116597,-2.002733916402102,0.9656927321986237,1.190270368550755,-1.1556132296035835,593.75
476,-1.1743827687835844,-2.094678742429661,-2.0027339064913154,0.9656927382457045,1.1902703111084305,-1.036192378045307,595.0
477,-1.1743827062901666,-2.0946787521763146,-2.0027338948666733,0.965692737046238,1.1902702486361516,-0.9067715336112786,596.25
478,-1.1743826386897886,-2.0946787504802358,-2.00273388077079,0.9656927219466562,1.190270180964033,-0.7673506932802088,597.5
479,-1.1743825681178315,-2.0946787414192367,-2.0027338651393074,0.9656926979918925,1.1902701102614832,-0.6179298553911081,598.75
480,-1.174382496571985,-2.094678717284912,-2.002733847413707,0.9656926569116056,1.1902700384690554,-0.45850902420102424,600.0
481,-1.1743824285983713,-2.094678680399322,-2.0027338288194443,0.965692602201845,1.1902699701521844,-0.2921689658454472,601.25
482,-1.1743823690143935,-2.0946786363318233,-2.002733811045663,0.9656925410603105,1.190269910175663,-0.13384907406242966,602.5
483,-1.1743823248476906,-2.094678583226062,-2.002733795302368,0.9656924727728542,1.1902698655583628,0.014470817720548562,603.75
484,-1.1743822870272096,-2.094678530283828,-2.00273378088291,0.9656924059077437,1.1902698272937184,0.15279070950350399,605.0
485,-1.1743822637314465,-2.09467847425005,-2.0027337690578686,0.9656923384039742,1.1902698035414492,0.2811106012864131,606.25
486,-1.1743822461784663,-2.0946784202782935,-2.002733758671296,0.9656922743378413,1.190269785552731,0.39943049306930845,607.5
487,-1.1743822349492867,-2.0946783695813433,-2.0027337499949085,0.9656922151853773,1.1902697739185257,0.507750384852187,608.75
488,-1.174382233842449,-2.0946783211494173,-2.0027337436819175,0.9656921605534217,1.1902697724325755,0.6060702766350526,610.0
489,-1.1743822328481865,-2.0946782776434487,-2.002733738011008,0.9656921114780153,1.19026977109776,0.6943901684179057,611.25
490,-1.174382233990484,-2.094678239114223,-2.0027337334042246,0.9656920684112563,1.1902697719401043,0.772710060200749,612.5
491,-1.1743822426499542,-2.0946782056967597,-2.0027337309835302,0.9656920325550088,1.1902697803456488,0.8410299519835935,613.75
492,-1.1743822500419354,-2.094678177170619,-2.0027337289171534,0.9656920019470494,1.1902697875208712,0.899349843766443,615.0
493,-1.1743822561664279,-2.094678153535803,-2.002733727205091,0.9656919765873765,1.1902697934657722,0.9476697355493254,616.25
494,-1.1743822610234316,-2.094678134792309,-2.002733725847347,0.965691956475992,1.1902697981803516,0.9859896273322126,617.5
495,-1.1743822646129463,-2.0946781209401375,-2.0027337248439214,0.965691941612896,1.1902698016646094,1.0143095191150904,618.75
496,-1.1743822669349722,-2.094678111979288,-2.002733724194814,0.9656919319980883,1.1902698039185453,1.032629410897973,620.0
497,-1.1747895032133027,-2.095404856442129,-2.0013150638174726,0.9649997211975928,1.1906762479862059,1.041944492704428,621.25
498,-1.1764138727668525,-2.098303694746842,-1.995656347185561,0.962238666150039,1.1922974576707766,1.042746815463695,622.5
499,-1.177057305385326,-2.0994519650284564,-1.9934148577546495,0.961144976473989,1.1929396381800068,1.0346344020303968,623.75
500,-1.1770573031579632,-2.099451970841789,-1.9934148603655921,0.9611449753960679,1.1929396349903987,1.0179267918785366,625.0
501,-1.177057299597458,-2.0994519801345737,-1.993414864539261,0.9611449736729791,1.1929396298917156,0.9912191817266797,626.25
502,-1.1770572947038103,-2.0994519929068103,-1.9934148702756564,0.9611449713047227,1.1929396228839573,0.9545115715748185,627.5
503,-1.17705728847702,-2.099452009158499,-1.9934148775747782,0.9611449682912984,1.1929396139671242,0.9078039614229462,628.75
504,-1.1770572801672796,-2.099452029183456,-1.9934148860907732,0.9611449655158152,1.192939596800793,0.8510963655461905,630.0
505,-1.1770572702680884,-2.099452052788302,-1.9934148960512716,0.9611449623970386,1.1929395755580279,0.7843887718479812,631.25
506,-1.1770572667892472,-2.0994520868005404,-1.9934149031313906,0.9611449891664903,1.1929395668413443,0.7076811887893686,632.5
507,-1.1770572675397866,-2.0994521293162243,-1.9934149085434147,0.9611450374099678,1.1929395662959932,0.6209736116175564,633.75
508,-1.1770572683903757,-2.0994521768292467,-1.993414914497443,0.9611450916189749,1.1929395658023005,0.5242660463664149,635.0
509,-1.1770572769351468,-2.0994522271525575,-1.9934149224737205,0.9611451502343029,1.1929395738450497,0.4175584878025217,636.25
510,-1.1770572941449033,-2.0994522800103805,-1.9934149326582764,0.9611452130720448,1.192939591517028,0.3008509373865824,637.5
511,-1.1770573144049539,-2.0994523364704927,-1.993414943926454,0.9611452805497935,1.1929396122816738,0.17414339499943435,638.75
512,-1.1770573515523444,-2.0994523883993548,-1.9934149581176375,0.9611453461806532,1.1929396498715579,0.03743585836672845,640.0
513,-1.1770573924891252,-2.099452443040092,-1.9934149734306736,0.9611454156002284,1.1929396912749417,-0.10927167758849238,641.25
514,-1.1770574510999623,-2.099452486322409,-1.9934149909487069,0.9611454757117968,1.1929397502746575,-0.2659792065239524,642.5
515,-1.1770575165689248,-2.099452526158814,-1.993415009443751,0.9611455332916494,1.1929398161110054,-0.4318822243754309,643.75
516,-1.177057588390762,-2.0994525503403514,-1.9934150272728424,0.9611455745184871,1.1929398881822635,-0.5929169842648625,645.0
517,-1.1770576584045034,-2.099452562798689,-1.9934150432520723,0.9611456022151363,1.192939958351638,-0.7439517441542709,646.25
518,-1.177057726363135,-2.0994525644859188,-1.9934150574506233,0.9611456174034093,1.1929400263794068,-0.8849865040436607,647.5
519,-1.1770577893108911,-2.0994525576432976,-1.9934150695427153,0.9611456220243036,1.192940089325021,-1.0160212639330124,648.75
520,-1.1770578472472246,-2.0994525422469237,-1.9934150795252266,0.9611456160508502,1.192940147187745,-1.1370560238223308,650.0
521,-1.1770579001072288,-2.0994525272333204,-1.993415088511274,0.961145609514747,1.1929401999729814,-1.2480907837116466,651.25
522,-1.1770579442304627,-2.0994525013613363,-1.9934150943305657,0.9611455890653349,1.1929402439287706,-1.349125543600938,652.5
523,-1.1770579839865634,-2.099452478050055,-1.9934150995738835,0.9611455706399182,1.1929402835340002,-1.4401603034902277,653.75
524,-1.1770580193755311,-2.099452457299477,-1.9934151042412303,0.9611455542384988,1.1929403187886694,-1.5211950633795,655.0
525,-1.1770580453361066,-2.099452432034311,-1.9934151063991417,0.9611455309187382,1.1929403445716527,-1.5922298232687777,656.25
526,-1.1770580672702633,-2.0994524098061427,-1.9934151081112421,0.961145510224959,1.19294036634882,-1.653264583158065,657.5
527,-1.177058085610705,-2.099452391219862,-1.9934151095428274,0.9611454929216691,1.1929403845579936,-1.70429934304737,658.75
528,-1.177058100357431,-2.0994523762754693,-1.9934151106939,0.9611454790088698,1.192940399199173,-1.7453341029366807,660.0
529,-1.1770581115104415,-2.0994523649729624,-1.993415111564461,0.9611454684865617,1.1929404102723578,-1.7763688628259888,661.25
530,-1.1770581190697362,-2.099452357312342,-1.9934151121545103,0.961145461354745,1.1929404177775482,-1.7974036227152943,662.5
531,-1.177167403129529,-2.099650511135508,-1.993027998653019,0.9609564259090965,1.1930494814293302,-1.8087732470925484,663.75
532,-1.1786282784711,-2.1022995206510795,-1.9878529925386221,0.958429416813656,1.1945074106763338,-1.8122997995879857,665.0
533,-1.1796960117803241,-2.1042356528470747,-1.9840706420040912,0.9565824553420234,1.1955729894927527,-1.8062472199238029,666.25
534,-1.1796960064139992,-2.1042356561577336,-1.9840706431210744,0.956582452489991,1.1955729812466576,-1.7922763356615858,667.5
535,-1.1796959972065963,-2.104235661838078,-1.9840706450375656,0.956582447596547,1.195572967098219,-1.768305451399374,668.75
536,-1.1796959841581158,-2.104235669888107,-1.9840706477535641,0.9565824406616914,1.1955729470474372,-1.7343345671371595,670.0
537,-1.1796959672685579,-2.104235680307821,-1.984070651269071,0.9565824316854243,1.1955729210943122,-1.6903636828749433,671.25
538,-1.17969594700708,-2.1042356927047496,-1.9840706559880754,0.9565824192369223,1.1955728932265208,-1.6363928124634273,672.5
539,-1.1796959233385031,-2.104235707108323,-1.9840706618802857,0.9565824034234716,1.1955728631450555,-1.5724219514569324,673.75
540,-1.1796958942229456,-2.1042357245435332,-1.9840706645022568,0.9565823976874119,1.1955728300290769,-1.49845109653883,675.0
541,-1.1796958579840213,-2.104235745758871,-1.9840706598322713,0.9565824140703106,1.1955727954789523,-1.414480251960212,676.25
542,-1.179695817437951,-2.1042357695663907,-1.9840706545483096,0.9565824326846125,1.195572756886976,-1.3205094158996171,677.5
543,-1.1796957714885927,-2.1042357928042046,-1.9840706480352515,0.9565824497282146,1.1955727126302294,-1.216538586824082,678.75
544,-1.1796957172714422,-2.104235807228821,-1.9840706386561684,0.9565824553832638,1.195572658495873,-1.1025677667526939,680.0
545,-1.1796956582948241,-2.1042358229198963,-1.9840706284531442,0.9565824615368076,1.1955725995915567,-0.9785969561454881,681.25
546,-1.179695594210153,-2.1042358245222186,-1.9840706154340235,0.9565824507901755,1.195572535462809,-0.8446261511480152,682.5
547,-1.1796955252640102,-2.1042358228289135,-1.984070600999966,0.956582435371428,1.1955724664422571,-0.7006553474822133,683.75
548,-1.179695455924814,-2.1042358040966604,-1.984070584330059,0.9565824007172845,1.1955723968959513,-0.5466845491750808,685.0
549,-1.1796953833675856,-2.1042357794587603,-1.9840705662495768,0.9565823587921466,1.195572324082866,-0.3827147867165439,686.25
550,-1.1796953224945539,-2.1042357345732676,-1.984070548018408,0.9565822963911284,1.1955722628029257,-0.21894693803443943,687.5
551,-1.1796952687588962,-2.104235688965792,-1.9840705311680007,0.9565822345773386,1.1955722086605602,-0.06517908935236685,688.75
552,-1.1796952299353256,-2.1042356347651214,-1.9840705163065016,0.9565821660243984,1.195572169374463,0.07858875932967341,690.0
553,-1.1796951969723555,-2.1042355824829673,-1.9840705028963508,0.9565821007773876,1.1955721359690665,0.21235660801169617,691.25
554,-1.1796951788395762,-2.1042355268641546,-1.9840704921229597,0.9565820346855997,1.1955721173796992,0.3361244566936904,692.5
555,-1.1796951621718612,-2.104235475739149,-1.9840704822200115,0.9565819739337893,1.1955721002922868,0.44989230537566194,693.75
556,-1.179695157975602,-2.1042354261839407,-1.9840704750878058,0.9565819173916486,1.1955720956991587,0.5536601540576227,695.0
557,-1.1796951569347651,-2.1042353806734675,-1.9840704691178956,0.9565818660158942,1.1955720942961836,0.6474280027395745,696.25
558,-1.1796951560049298,-2.104235340016523,-1.9840704637846505,0.9565818201191756,1.195572093042831,0.7311958514215244,697.5
559,-1.1796951615907896,-2.1042353043704205,-1.9840704604289312,0.9565817811337977,1.195572098350367,0.8049637001034706,698.75
560,-1.1796951695748654,-2.104235273634023,-1.984070458188722,0.9565817481389546,1.195572106097087,0.8687315487854018,700.0
561,-1.179695176306888,-2.1042352477176727,-1.9840704562998184,0.9565817203183238,1.1955721126289756,0.9224993974673757,701.25
562,-1.179695181786857,-2.1042352266213697,-1.9840704547622203,0.9565816976719055,1.1955721179460328,0.966267246149359,702.5
563,-1.1796951860147722,-2.104235210345112,-1.9840704535759295,0.9565816801997004,1.1955721220482578,1.0000350948313255,703.75
564,-1.1796951889906342,-2.1042351988889005,-1.9840704527409467,0.9565816679017084,1.1955721249356515,1.0238029435132965,705.0
565,-1.1796951984752406,-2.1042352065513366,-1.9840704243030864,0.9565816471172063,1.1955721343527923,1.0375707921597956,706.25
566,-1.1807799273691342,-2.106233721944536,-1.9801632625333188,0.9546722822190882,1.1966545962734372,1.0434775557113838,707.5
567,-1.1822026798650846,-2.108855023102133,-1.9750385452240036,0.9521679215179819,1.1980743751565206,1.039766657621901,708.75
568,-1.1822965847934657,-2.1090280416003413,-1.9747002985139117,0.9520026246304486,1.198168083130102,1.0282551222767458,710.0
569,-1.1822965819900246,-2.1090280488783786,-1.974700301811205,0.9520026232762567,1.1981680790334563,1.0070400001666626,711.25
570,-1.1822965778651482,-2.109028059587004,-1.974700306662717,0.9520026212837505,1.1981680730058077,0.9758248780565895,712.5
571,-1.1822965724188366,-2.1090280737262193,-1.9747003130684475,0.9520026186529298,1.1981680650471567,0.9346097559465052,713.75
572,-1.1822965653951147,-2.1090280914006767,-1.9747003209054839,0.9520026157038074,1.19816805296937,0.8833946392069127,715.0
573,-1.182296556402609,-2.1090281127703885,-1.974700329985899,0.952002612925668,1.1981680334268905,0.8221795339476632,716.25
574,-1.1822965470256903,-2.109028138566721,-1.9747003399464151,0.9520026138395353,1.1981680128760666,0.7509644302507459,717.5
575,-1.1822965477206204,-2.1090281778105355,-1.9747003449711373,0.9520026584144656,1.198168012373126,0.6697493414682465,718.75
576,-1.1822965485065722,-2.1090282219236327,-1.9747003505816765,0.95200270863716,1.1981680118551234,0.5785342576600639,720.0
577,-1.1822965493877176,-2.109028270934467,-1.9747003567528858,0.9520027646294399,1.1981680113579063,0.47731918162564185,721.25
578,-1.1822965649025265,-2.109028320751352,-1.9747003662504983,0.952002823802513,1.1981680272230146,0.3661041167905274,722.5
579,-1.1822965825568033,-2.109028374840034,-1.9747003767422675,0.9520028881709173,1.1981680453659473,0.2448890592296954,723.75
580,-1.1822966106360333,-2.109028428126877,-1.974700389298131,0.9520029536528051,1.1981680739189289,0.1136740081915402,725.0
581,-1.1822966485357558,-2.1090284809667708,-1.9747004038368907,0.9520030205324352,1.198168112276373,-0.027541039841888427,726.25
582,-1.1822966971917381,-2.109028529383617,-1.9747004200377352,0.9520030845506442,1.1981681613621116,-0.17875608428007467,727.5
583,-1.182296756747517,-2.109028573232348,-1.9747004379118305,0.9520031455727427,1.1981682213187819,-0.33997112222798465,728.75
584,-1.1822968266325082,-2.109028603260519,-1.9747004561676305,0.9520031930784489,1.1981682915028073,-0.5057913872526247,730.0
585,-1.1822968955862867,-2.1090286263885716,-1.9747004733554874,0.9520032326398081,1.198168360699646,-0.6623166024514722,731.25
586,-1.1822969650505826,-2.109028629136685,-1.974700488063236,0.9520032493776192,1.1981684302443356,-0.8088418176502968,732.5
587,-1.1822970300296252,-2.109028630714727,-1.974700501695371,0.9520032639181424,1.1981684952906373,-0.9453670328490987,733.75
588,-1.1822970898844387,-2.109028616237262,-1.974700512231276,0.9520032593923651,1.1981685550799124,-1.0718922480478552,735.0
589,-1.1822971449788493,-2.109028601604205,-1.9747005217634017,0.9520032537563579,1.1981686101035365,-1.1884174632466094,736.25
590,-1.182297193120354,-2.109028581411041,-1.9747005291528603,0.9520032405002724,1.1981686581239122,-1.2949426784453322,737.5
591,-1.1822972347582965,-2.1090285570343803,-1.974700534667191,0.9520032212608314,1.198168699601777,-1.3914678936440563,738.75
592,-1.1822972720825555,-2.1090285351831417,-1.9747005396102315,0.9520032040145912,1.1981687367825427,-1.477993108842755,740.0
593,-1.1822973029802273,-2.109028512911472,-1.9747005431714826,0.9520031850329013,1.1981687675279535,-1.5545183240414735,741.25
594,-1.1822973265952805,-2.1090284890258744,-1.9747005450225728,0.9520031628051178,1.198168790971708,-1.6210435392401803,742.5
595,-1.1822973466605442,-2.109028468730735,-1.9747005465954086,0.9520031439185909,1.1981688108914224,-1.6775687544388942,743.75
596,-1.1822973631760187,-2.109028452026055,-1.974700547889987,0.9520031283733191,1.198168827287097,-1.7240939696376454,745.0
597,-1.182297376141703,-2.1090284389118326,-1.9747005489063123,0.952003116169305,1.198168840158731,-1.7606191848363868,746.25
598,-1.1822973855575976,-2.1090284293880672,-1.9747005496443846,0.9520031073065479,1.1981688495063245,-1.7871444000351187,747.5
599,-1.182297391423702,-2.1090284234547587,-1.9747005501042039,0.9520031017850483,1.1981688553298775,-1.8036696152338547,748.75
600,-1.1829376041796882,-2.110226851979042,-1.972355852189075,0.9508564276787959,1.1988076820045217,-1.8116572098857304,750.0
601,-1.1844902251088791,-2.113133258355137,-1.9666695482546697,0.9480755477521838,1.2003569411203745,-1.8107060902458174,751.25
602,-1.1848631350995664,-2.113831330529179,-1.965303794256225,0.947407625360673,1.2007290417913037,-1.8012961608699172,752.5
603,-1.1848631280995379,-2.1138313348452344,-1.9653037957214003,0.9474076216653796,1.2007290309566951,-1.7828595856320302,753.75
604,-1.184863117302693,-2.113831341502319,-1.9653037979812873,0.9474076159657585,1.2007290142453944,-1.7544230103941483,755.0
605,-1.184863102709032,-2.1138313505004325,-1.9653038010358852,0.9474076082618099,1.2007289916574009,-1.7159864351562644,756.25
606,-1.184863084348125,-2.113831361814197,-1.965303804911477,0.9474075984605417,1.2007289634467628,-1.667549860905494,757.5
607,-1.1848630629667798,-2.1138313748026794,-1.9653038102718319,0.9474075842133958,1.2007289360295692,-1.6091133089072949,758.75
608,-1.1848630379265357,-2.1138313900138255,-1.9653038165494816,0.9474075675281961,1.200728903920587,-1.5406767569091144,760.0
609,-1.1848630053193352,-2.113831409186872,-1.965303814248827,0.9474075765805936,1.2007288711775876,-1.4622402182799608,761.25
610,-1.1848629676170406,-2.1138314312328275,-1.965303809363184,0.9474075936041475,1.200728835247458,-1.3738036840839576,762.5
611,-1.1848629256632828,-2.11383145586009,-1.9653038038463433,0.9474076129310471,1.2007287953559787,-1.2753671612852442,763.75
612,-1.1848628761970148,-2.113831473677297,-1.9653037958658723,0.9474076232374973,1.2007287466578327,-1.166930646431326,765.0
613,-1.184862820541277,-2.113831488477755,-1.965303786196554,0.9474076289984857,1.2007286910811967,-1.0484941394040628,766.25
614,-1.1848627600738522,-2.11383149967029,-1.9653037750755016,0.9474076297388074,1.2007286306493847,-0.9200576398699525,767.5
615,-1.1848626945867557,-2.113831498098254,-1.965303761307136,0.9474076150747719,1.200728565090439,-0.7816211450999113,768.75
616,-1.1848626256687707,-2.1138314914215806,-1.9653037461782767,0.9474075939906986,1.200728496057175,-0.6331846521907358,770.0
617,-1.1848625562993398,-2.113831468198214,-1.965303728849543,0.9474075541986606,1.2007284264414186,-0.4747481660677735,771.25
618,-1.1848624888435237,-2.1138314344288287,-1.9653037105748485,0.947407502916465,1.2007283586558282,-0.30839853338267575,772.5
619,-1.1848624303550344,-2.113831391429704,-1.9653036929831993,0.947407443014239,1.200728299770707,-0.1490984610062694,773.75
620,-1.184862385489645,-2.113831341073688,-1.9653036772776478,0.9474073775161329,1.200728254460917,0.00020161137007665073,775.0
621,-1.184862348333334,-2.1138312893369915,-1.9653036629935836,0.9474073119823967,1.200728216855622,0.13950168374641878,776.25
622,-1.1848623238627436,-2.1138312354535174,-1.9653036510646078,0.9474072465309364,1.2007281919295125,0.2688017561227289,777.5
623,-1.1848623065996784,-2.113831182628056,-1.9653036407636328,0.9474071836892559,1.2007281742255917,0.38810182849901426,778.75
624,-1.1848622941403468,-2.1138311333392084,-1.9653036319081219,0.9474071257730914,1.2007281613580219,0.49740190087527536,780.0
625,-1.1848622930533093,-2.113831085842759,-1.9653036256369971,0.9474070721131758,1.2007281598868764,0.5967019732515297,781.25
626,-1.1848622920757412,-2.1138310431294354,-1.9653036199973997,0.9474070238570725,1.2007281585638823,0.6860020456277753,782.5
627,-1.184862292203458,-2.1138310052231453,-1.9653036151987007,0.9474069812277746,1.2007281583858935,0.7653021180040178,783.75
628,-1.184862300775583,-2.113830972300097,-1.9653036127839285,0.9474069458687215,1.200728166699697,0.8346021903802652,785.0
629,-1.1848623081107506,-2.113830944127844,-1.9653036107176078,0.9474069156119795,1.2007281738138187,0.8939022627565099,786.25
630,-1.1848623142089605,-2.113830920706388,-1.965303608999735,0.9474068904575473,1.200728179728259,0.943202335132791,787.5
631,-1.1848623190702128,-2.1138309020357284,-1.9653036076303148,0.9474068704054265,1.2007281844430173,0.9825024075090802,788.75
632,-1.1848623226945076,-2.1138308881158636,-1.9653036066093468,0.947406855455617,1.2007281879580938,1.0118024798853387,790.0
633,-1.1848623250818449,-2.113830878946794,-1.965303605936831,0.947406845608119,1.2007281902734885,1.031102552261623,791.25
634,-1.185127611637771,-2.114335411463455,-1.9643157788222372,0.946923391233445,1.2009928820041147,1.0411597883897852,792.5
635,-1.1866303295301441,-2.1171933791906987,-1.9587202005215454,0.944184875340062,1.2024922306601418,1.0429851285333889,793.75
636,-1.1873930362390523,-2.1186439499729066,-1.9558801535429426,0.9427949357164211,1.203253226855511,1.0356536975643988,795.0
637,-1.187393034190314,-2.1186439552637237,-1.955880155961088,0.9427949347292776,1.203253223800913,1.0200139502314456,796.25
638,-1.1873930308316192,-2.1186439639374703,-1.9558801599253872,0.9427949331109577,1.2032532187932157,0.9943742028984952,797.5
639,-1.1873930261629684,-2.1186439759941473,-1.9558801654358406,0.942794930861462,1.2032532118324195,0.9587344555655337,798.75
640,-1.1873930201843614,-2.1186439914337547,-1.955880172492448,0.9427949279807899,1.2032532029185241,0.9130947082325681,800.0
641,-1.1873930122717682,-2.118644010522351,-1.955880180783232,0.9427949252955119,1.2032531866595761,0.8574549729971359,801.25
642,-1.1873930027254178,-2.118644033131933,-1.9558801904582896,0.9427949224079534,1.203253165649718,0.7918152415526885,802.5
643,-1.187392998141415,-2.1186440646827376,-1.955880198019531,0.94279494349397,1.2032531545306575,0.71617551893211,803.75
644,-1.1873929988659182,-2.1186441054712937,-1.9558802032734082,0.9427949898705819,1.2032531540086377,0.630535803902404,805.0
645,-1.1873929996870198,-2.118644151102783,-1.9558802090691825,0.9427950420061897,1.203253153529957,0.5348960995358106,806.25
646,-1.1873930064137455,-2.1186441999075,-1.9558802165485794,0.9427950987243725,1.2032531595869072,0.4292564019766922,807.5
647,-1.1873930230486303,-2.11864425075794,-1.9558802264780129,0.9427951593094551,1.2032531766800871,0.31361671277779324,808.75
648,-1.1873930411239515,-2.1186443060038997,-1.955880237267943,0.9427952251269787,1.2032531952680485,0.1879770320574856,810.0
649,-1.1873930769253795,-2.118644356101472,-1.9558802511018618,0.9427952885878388,1.203253231511163,0.05233735770180395,811.25
650,-1.187393115536274,-2.118644409792652,-1.9558802659786299,0.9427953566473238,1.2032532705947747,-0.09330231634196624,812.5
651,-1.1873931717715098,-2.1186444520536014,-1.955880283055259,0.9427954153201688,1.2032533272220927,-0.2489419836988524,813.75
652,-1.1873932341924425,-2.118644492700099,-1.9558803012103132,0.9427954733966388,1.2032533900271747,-0.4142681578471238,815.0
653,-1.1873933047339964,-2.1186445162709493,-1.9558803188709892,0.942795513853925,1.203253460821081,-0.5763667028038435,816.25
654,-1.1873933729652975,-2.118644530555657,-1.955880334865853,0.9427955434017674,1.2032535292272304,-0.7284652477606897,817.5
655,-1.187393439776169,-2.118644532140509,-1.9558803489437186,0.9427955583729773,1.2032535961084498,-0.8705637927176437,818.75
656,-1.1873935017400574,-2.11864452727031,-1.95588036119052,0.9427955651210138,1.2032536580860227,-1.0026623376747874,820.0
657,-1.1873935587695832,-2.118644512129133,-1.9558803711007549,0.9427955593330375,1.2032537150414613,-1.1247608826320274,821.25
658,-1.1873936111283327,-2.1186444982280386,-1.9558803801993243,0.9427955540190996,1.2032537673321912,-1.2368594275893996,822.5
659,-1.1873936548198702,-2.118644473352242,-1.9558803860962046,0.9427955346401787,1.2032538108590034,-1.338957972546854,823.75
660,-1.1873936940670073,-2.1186444504084294,-1.9558803913168061,0.9427955165588577,1.2032538499533045,-1.4310565175044156,825.0
661,-1.1873937290527166,-2.118644429955842,-1.9558803959705549,0.9427955004407934,1.203253884802773,-1.5131550624620422,826.25
662,-1.1873937553759157,-2.118644405874382,-1.9558803983617845,0.9427954785278924,1.2032539109527705,-1.5852536074197339,827.5
663,-1.187393777152889,-2.1186443838881104,-1.955880400076437,0.9427954580762183,1.2032539325696714,-1.6473521523774677,828.75
664,-1.1873937954230218,-2.1186443654423854,-1.955880401514969,0.9427954409179655,1.2032539507055091,-1.699450697335247,830.0
665,-1.1873938101863137,-2.118644350537206,-1.9558804026773817,0.9427954270531347,1.2032539653602827,-1.7415492422930396,831.25
666,-1.1873938214427642,-2.1186443391725716,-1.9558804035636776,0.9427954164817266,1.2032539765339922,-1.7736477872508365,832.5
667,-1.1873938291923734,-2.1186443313484826,-1.9558804041738564,0.9427954092037414,1.2032539842266377,-1.7957463322086022,833.75
668,-1.1874327295277358,-2.1187194829638245,-1.9557331531373259,0.9427232874693485,1.2032927942486362,-1.8079793605019645,835.0
669,-1.188702954852436,-2.121173840532072,-1.9509243819061617,0.9403681462680908,1.2045600712365847,-1.8125408592082428,836.25
670,-1.189877922422113,-2.123444148256486,-1.9464762212327642,0.9381896177204784,1.2057323104877324,-1.807363357789438,837.5
671,-1.1898903063080226,-2.1234680890283966,-1.9464293214578694,0.9381666450977453,1.2057446629180977,-1.794497927963355,838.75
672,-1.1898902977421848,-2.123468094307035,-1.9464293232607939,0.9381666406070228,1.2057446495630217,-1.7716772477766285,840.0
673,-1.189890285422805,-2.1234681018987684,-1.9464293258537588,0.93816663414847,1.2057446303557642,-1.7388565675898504,841.25
674,-1.1898902693498838,-2.1234681118035956,-1.9464293292367634,0.9381666257220871,1.2057446052963257,-1.696035887403077,842.5
675,-1.1898902498811892,-2.1234681237064468,-1.9464293337381218,0.9381666141678678,1.2057445774912632,-1.6432152182124042,843.75
676,-1.1898902271477119,-2.1234681374919617,-1.9464293394780419,0.9381665990610899,1.2057445480780018,-1.5803945608826315,845.0
677,-1.1898901996447118,-2.1234681539827966,-1.9464293432994308,0.9381665898767416,1.205744515276344,-1.5075739077199806,846.25
678,-1.1898901647588085,-2.1234681743392243,-1.9464293387701321,0.9381666055263143,1.2057444820243628,-1.4247532666577218,847.5
679,-1.189890125667783,-2.123468197205803,-1.9464293336469196,0.9381666232894152,1.2057444448195256,-1.3319326327066072,848.75
680,-1.1898900818426148,-2.123468221069192,-1.9464293276196938,0.9381666413752681,1.2057444028854343,-1.2291120059103267,850.0
681,-1.1898900294664518,-2.123468234993138,-1.9464293184792698,0.9381666467535218,1.2057443505919996,-1.1162913894572457,851.25
682,-1.1898899724458787,-2.1234682501520066,-1.946429308527754,0.9381666526107111,1.2057442936462006,-0.9934707813778227,852.5
683,-1.1898899104899225,-2.123468253764343,-1.9464292960849165,0.9381666444411056,1.2057442316628377,-0.8606501793403387,853.75
684,-1.189889843744678,-2.1234682522004125,-1.9464292819888578,0.9381666294732022,1.205744164843145,-0.7178295794029759,855.0
685,-1.189889775984461,-2.123468236508998,-1.9464292658710316,0.9381665983947669,1.2057440968941713,-0.5650089841013193,856.25
686,-1.1898897055570445,-2.123468213021067,-1.9464292481987413,0.938166558008612,1.2057440262129873,-0.40218839507094656,857.5
687,-1.1898896445491123,-2.123468171346945,-1.9464292301568766,0.9381664990059112,1.2057439648103785,-0.23738407134682968,858.75
688,-1.189889589995772,-2.1234681285083274,-1.9464292133095484,0.9381664399689421,1.205743909858426,-0.08247020187484065,860.0
689,-1.18988955181064,-2.1234680754763398,-1.946429198563635,0.9381663726913608,1.2057438712053612,0.06244366759732749,861.25
690,-1.1898895175532689,-2.123468025348697,-1.9464291850076298,0.9381663094616695,1.2057438365072812,0.19735753706959885,862.5
691,-1.1898894996980571,-2.1234679708378903,-1.946429174304694,0.9381662445412646,1.2057438181896938,0.3222714065420603,863.75
692,-1.1898894832722475,-2.123467920690961,-1.946429164458575,0.9381661848180706,1.2057438013385244,0.43718527601460777,865.0
693,-1.189889477507854,-2.1234678724571836,-1.9464291570772405,0.9381661293588931,1.2057437951737273,0.542099145487259,866.25
694,-1.1898894764829824,-2.1234678277085783,-1.9464291511292608,0.9381660787623326,1.205743793781145,0.637013014960025,867.5
695,-1.1898894755660905,-2.1234677876746297,-1.9464291458079475,0.938166033496557,1.2057437925352836,0.7219268844328388,868.75
696,-1.1898894799456152,-2.123467752476923,-1.9464291422090734,0.9381659947251023,1.2057437966300903,0.7968407539057416,870.0
697,-1.1898894878793334,-2.12346772207463,-1.946429139964691,0.9381659620572658,1.2057438043214916,0.8617546233786924,871.25
698,-1.1898894945908602,-2.12346769635582,-1.946429138066055,0.938165934421918,1.2057438108280303,0.9166684928516712,872.5
699,-1.189889500080196,-2.123467675320492,-1.946429136513165,0.9381659118190584,1.205743816149707,0.9615823623246809,873.75
700,-1.1898895043473396,-2.123467658968646,-1.946429135306023,0.9381658942486888,1.2057438202865207,0.9964962317976951,875.0
701,-1.1898895073922922,-2.1234676473002816,-1.9464291344446296,0.9381658817108092,1.205743823238472,1.021410101270678,876.25
702,-1.1898895092150525,-2.1234676403153983,-1.9464291339289848,0.9381658742054194,1.2057438250055605,1.0363239707436729,877.5
703,-1.190733461233498,-2.125124322208201,-1.9431809687329895,0.9365739321107579,1.2065857496954797,1.043114058389518,878.75
704,-1.192162368996492,-2.127929284656915,-1.9376814458810552,0.933878593370646,1.208011224804851,1.0405775053809665,880.0
705,-1.1923523348429306,-2.1283021958412416,-1.9369503094080744,0.9335202589961538,1.2082007336045686,1.0299986409211972,881.25
706,-1.1923523322476033,-2.1283022025086114,-1.9369503124827823,0.9335202577491034,1.2082007296569668,1.0100146440526312,882.5
707,-1.1923523283535733,-2.1283022125123363,-1.9369503170960751,0.9335202558780287,1.2082007237339831,0.9800306471840398,883.75
708,-1.1923523231608406,-2.1283022258524156,-1.9369503232479535,0.9335202533829292,1.2082007158356183,0.9400466503154441,885.0
709,-1.1923523165204994,-2.128302242595025,-1.9369503308608997,0.933520250472418,1.2082007046614864,0.8900626560633279,886.25
710,-1.1923523078826155,-2.128302262984561,-1.9369503396486292,0.9335202479169376,1.208200685409036,0.8300786725483889,887.5
711,-1.1923522978047003,-2.1283022867732604,-1.9369503499013718,0.9335202449354298,1.2082006629469872,0.7600946890335032,888.75
712,-1.1923522981239865,-2.1283023240315475,-1.9369503549653588,0.933520286356278,1.20820066174405,0.6801107214051454,890.0
713,-1.1923522988804827,-2.1283023663073206,-1.9369503604191658,0.9335203345512475,1.2082006612370957,0.5901267576690794,891.25
714,-1.192352299731925,-2.128302413352374,-1.936950366414812,0.9335203884077875,1.2082006607694133,0.4901428033499197,892.5
715,-1.1923523129641418,-2.1283024616864523,-1.9369503753344652,0.9335204456563342,1.2082006741287734,0.3801588587883148,893.75
716,-1.1923523300157517,-2.1283025136874487,-1.9369503855606547,0.9335205076815591,1.2082006916640342,0.26017492176003987,895.0
717,-1.1923523552467024,-2.1283025660666435,-1.9369503975508833,0.9335205717309234,1.2082007173792897,0.13019099170884055,896.25
718,-1.1923523919106436,-2.1283026169199895,-1.9369504117430068,0.9335206362940346,1.2082007544985822,-0.009792934523487812,897.5
719,-1.1923524371872618,-2.128302665365487,-1.9369504274229712,0.9335206998531698,1.2082008002169944,-0.15977685791345791,898.75
720,-1.1923524948667108,-2.128302707583398,-1.9369504448903756,0.933520758857599,1.2082008582959132,-0.31976077469690833,900.0
721,-1.192352561841556,-2.128302739206334,-1.9369504629353964,0.9335208077695341,1.2082009255909139,-0.48600433739606275,901.25
722,-1.192352629666297,-2.1283027617830292,-1.9369504799945045,0.9335208466585013,1.2082009936618567,-0.6437565691786059,902.5
723,-1.192352697386424,-2.128302766871307,-1.936950494782904,0.9335208658240958,1.2082010614836014,-0.7915088009612895,903.75
724,-1.192352761375763,-2.128302768351699,-1.9369505083286818,0.9335208801849557,1.208201125541467,-0.9292610327441314,905.0
725,-1.1923528204108433,-2.128302756239243,-1.9369505190925067,0.933520878249248,1.208201184528407,-1.0570132645271058,906.25
726,-1.1923528747501784,-2.1283027418155345,-1.936950528579053,0.933520872778199,1.208201238796374,-1.1747654963102054,907.5
727,-1.1923529228120844,-2.12830272354645,-1.9369505362609303,0.933520861729709,1.2082012867496177,-1.2825177280934228,908.75
728,-1.192352963968984,-2.128302699518247,-1.9369505417610664,0.9335208428232553,1.2082013277441956,-1.380269959876704,910.0
729,-1.1923530009155572,-2.128302677948119,-1.936950546698535,0.9335208258509183,1.2082013645450531,-1.46802219166011,911.25
730,-1.1923530322522793,-2.128302656894884,-1.9369505505316247,0.933520808348139,1.2082013957353952,-1.5457744234435633,912.5
731,-1.1923530557273536,-2.128302633235233,-1.936950552388724,0.9335207863494992,1.2082014190356385,-1.6135266552270915,913.75
732,-1.1923530757375864,-2.1283026130676657,-1.9369505539717218,0.9335207675977839,1.2082014388968447,-1.6712788870106452,915.0
733,-1.1923530922829786,-2.128302596392185,-1.9369505552806143,0.9335207520929911,1.208201455319015,-1.719031118794232,916.25
734,-1.192353105363529,-2.128302583208788,-1.9369505563154061,0.9335207398351235,1.208201468302148,-1.7567833505778225,917.5
735,-1.192353114979238,-2.1283025735174754,-1.9369505570760972,0.9335207308241811,1.2082014778462438,-1.7845355823614037,918.75
736,-1.192353121130105,-2.1283025673182467,-1.936950557562687,0.9335207250601641,1.2082014839513024,-1.8022878141449747,920.0
737,-1.1927911417057149,-2.1291760756248754,-1.9352367430667097,0.932680193355022,1.208638415909529,-1.8112062846887766,921.25
738,-1.194266926188873,-2.1321191417455156,-1.9294624964034457,0.9298482525256657,1.2101105324230776,-1.8115235447820133,922.5
739,-1.1947830580791303,-2.133148440114146,-1.9274430347366451,0.9288578192942695,1.2106253797856237,-1.803080038420633,923.75
740,-1.194783051723425,-2.133148444028699,-1.9274430360819346,0.9288578159853871,1.2106253698033436,-1.7859544689321813,925.0
741,-1.194783041656482,-2.133148450229046,-1.9274430382127683,0.9288578107443749,1.2106253539921885,-1.7588288994437207,926.25
742,-1.1947830278783016,-2.133148458715187,-1.9274430411291457,0.9288578035712328,1.2106253323521585,-1.7217033299552504,927.5
743,-1.1947830103888837,-2.1331484694871223,-1.9274430448310678,0.928857794465961,1.2106253048832536,-1.674577760466792,928.75
744,-1.1947829898780715,-2.133148481921342,-1.927443049972318,0.9288577811228147,1.2106252776388926,-1.6174522107860634,930.0
745,-1.1947829658501266,-2.1331484964659158,-1.9274430560830729,0.9288577651987533,1.2106252462689506,-1.5503266630251553,931.25
746,-1.1947829351058137,-2.133148514568158,-1.927443055282017,0.9288577696877991,1.2106252140293896,-1.473201126369764,932.5
747,-1.1947828988423412,-2.1331485356972153,-1.9274430505545856,0.9288577858935916,1.2106251794684717,-1.3860755947757282,933.75
748,-1.1947828584297056,-2.133148559345234,-1.9274430451991895,0.9288578043621808,1.2106251410561266,-1.2889500758978412,935.0
749,-1.1947828113160996,-2.133148578182717,-1.9274430377838234,0.9288578161862253,1.2106250949659159,-1.1818245636623246,936.25
750,-1.1947827575901608,-2.13314859246348,-1.927443028362925,0.9288578216601492,1.2106250413213688,-1.0646990595103691,937.5
751,-1.194782699220105,-2.1331486055446556,-1.9274430178164865,0.9288578248553766,1.2106249830062608,-0.9375735633256784,938.75
752,-1.1947826359022733,-2.133148604099016,-1.9274430043805642,0.9288578106338827,1.2106249196166634,-0.80044807276415,940.0
753,-1.1947825685484523,-2.1331486003244193,-1.9274429897997403,0.9288577929842969,1.210624852168241,-0.6533225832978415,941.25
754,-1.1947825013974018,-2.1331485780147577,-1.9274429728694829,0.9288577544849135,1.210624784771671,-0.49619710074187195,942.5
755,-1.1947824341873359,-2.1331485478989105,-1.9274429549195387,0.9288577071756707,1.2106247172510423,-0.3301339311507343,943.75
756,-1.1947823766301515,-2.1331485058317905,-1.9274429374472393,0.9288576483162501,1.2106246592923373,-0.16952706801249243,945.0
757,-1.1947823305107985,-2.1331484584747207,-1.9274429216856999,0.9288575857693571,1.2106246127375893,-0.018920204873799498,946.25
758,-1.1947822939051003,-2.1331484077653795,-1.927442907482324,0.9288575213362283,1.2106245756770453,0.12168665826509703,947.5
759,-1.1947822677329474,-2.13314835609401,-1.9274428953380394,0.9288574578937897,1.2106245490513172,0.2522935214040752,948.75
760,-1.1947822507012016,-2.133148304215094,-1.9274428850796141,0.9288573960352249,1.2106245315723991,0.3729003845430444,950.0
761,-1.1947822365628622,-2.133148256244521,-1.9274428759309696,0.9288573391570724,1.2106245170220085,0.4835072476820815,951.25
762,-1.1947822354911246,-2.133148209482111,-1.9274428696724377,0.9288572862392321,1.2106245155599074,0.5841141108211199,952.5
763,-1.1947822345259143,-2.1331481673677373,-1.9274428640359795,0.9288572385812537,1.2106245142431344,0.6747209739601987,953.75
764,-1.1947822336672314,-2.133148129901399,-1.9274428590215984,0.9288571961831383,1.2106245130716897,0.7553278370992744,955.0
765,-1.1947822418747838,-2.1331480972877,-1.9274428565305342,0.9288571610573577,1.2106245210149575,0.8259347002383622,956.25
766,-1.1947822491945543,-2.1331480692993274,-1.9274428544505575,0.928857130968106,1.2106245281081707,0.8865415633774614,957.5
767,-1.194782255306579,-2.1331480459289773,-1.9274428527137697,0.9288571058435138,1.2106245340310193,0.9371484265164913,958.75
768,-1.1947822602108575,-2.1331480271766474,-1.9274428513201731,0.928857085683582,1.2106245387835033,0.977755289655514,960.0
769,-1.19478226390739,-2.1331480130423373,-1.927442850269769,0.9288570704883115,1.2106245423656228,1.008362152794548,961.25
770,-1.194782266396176,-2.1331480035260473,-1.927442849562557,0.9288570602577022,1.2106245447773771,1.0289690159335796,962.5
771,-1.194909789774822,-2.133406346381771,-1.9269356349374516,0.9286081264659012,1.2107517403193813,1.040006305237391,963.75
772,-1.1962564648321992,-2.1361345841097195,-1.9215792858548593,0.9259793600849363,1.2120949537258954,1.0431774460595888,965.0
773,-1.1971798628761396,-2.1380053074727874,-1.9179065018259867,0.92417684690568,1.2130159777254144,1.0368556099496138,966.25
774,-1.1971798610411883,-2.138005312162158,-1.9179065040084806,0.9241768460263146,1.2130159748784217,1.0226054750566396,967.5
775,-1.1971798579185644,-2.138005320142285,-1.9179065077225348,0.9241768445298562,1.2130159700335583,0.9983553401636471,968.75
776,-1.1971798535082678,-2.138005331413167,-1.9179065129681492,0.9241768424163053,1.213015963190824,0.9641052052706647,970.0
777,-1.1971798478102982,-2.1380053459748045,-1.9179065197453236,0.9241768396856616,1.2130159543502192,0.9198550703777063,971.25
778,-1.1971798403415042,-2.1380053640509042,-1.91790652779213,0.924176837052693,1.2130159392477002,0.8656049408927022,972.5
779,-1.197179831179242,-2.138005385605649,-1.917906537150505,0.9241768344029597,1.2130159185659752,0.8013548146866487,973.75
780,-1.1971798252109158,-2.1380054144194998,-1.9179065453543829,0.9241768487570721,1.2130159043411985,0.7271046949674725,975.0
781,-1.1971798259079323,-2.138005453426111,-1.9179065504418398,0.924176893201473,1.2130159038437593,0.6428545850127273,976.25
782,-1.1971798266976932,-2.1380054971267612,-1.917906556074556,0.9241769431973053,1.213015903376301,0.5486044840201103,977.5
783,-1.197179831241094,-2.1380055444746793,-1.917906562974981,0.924176998030672,1.2130159070365798,0.44435439001532995,978.75
784,-1.1971798472820265,-2.1380055932880695,-1.9179065726420041,0.9241770563260276,1.2130159235302327,0.3301043046787507,980.0
785,-1.1971798647290721,-2.1380056463719073,-1.917906583157292,0.9241771197161153,1.2130159414860042,0.20585422912380555,981.25
786,-1.1971798971835985,-2.13800569577614,-1.9179065963614659,0.9241771819008888,1.2130159743942652,0.07160415913614514,982.5
787,-1.1971799345139125,-2.1380057474232044,-1.9179066108822842,0.9241772475772896,1.213016012194441,-0.07264590962310699,983.75
788,-1.1971799868881239,-2.1380057901175817,-1.9179066273995826,0.9241773061602684,1.2130160649745396,-0.22689597285070318,985.0
789,-1.1971800455961583,-2.1380058319674253,-1.917906645136259,0.9241773650543036,1.2130161240865345,-0.3905625992929841,986.25
